( pcb2gcode 2.0.0 )
( Software-independent Gcode )

G94 ( Inches per minute feed rate. )
G20 ( Units == INCHES. )

G90 ( Absolute coordinates. )
G00 S1000 ( RPM spindle speed. )
G64 P0.00040 ( set maximum deviation from commanded toolpath )
G01 F1.18110 ( Feedrate. )


G00 Z0.39370 (Retract to tool change height)
T0
M5      (Spindle stop.)
G04 P1.00000 (Wait for spindle to stop)
(MSG, Change tool bit to mill diameter 0.00787in)
M6      (Tool change.)
M0      (Temporary machine stop.)
M3 ( Spindle on clockwise. )
G04 P1.00000 (Wait for spindle to get up to speed)
G04 P0 ( dwell for no time -- G64 should not smooth over this point )
G00 Z0.07874 ( retract )

G00 X-0.00394 Y0.00000 ( rapid move to begin. )
G01 F0.59055
G01 Z-0.01024
G04 P0 ( dwell for no time -- G64 should not smooth over this point )
G01 F1.18110
G01 X-0.00394 Y0.00000
G01 X-0.00386 Y-0.01643
G01 X-0.00219 Y-0.01894
G01 X0.00000 Y-0.01960
G01 X0.00647 Y-0.01857
G01 X0.00984 Y-0.01705
G01 X0.01346 Y-0.01434
G01 X0.01780 Y-0.00837
G01 X0.01925 Y-0.00409
G01 X0.01966 Y-0.00041
G01 X0.01867 Y0.00263
G01 X0.01575 Y0.00394
G01 X-0.00077 Y0.00386
G01 X-0.00327 Y0.00219
G01 X-0.00394 Y0.00000
G04 P0 ( dwell for no time -- G64 should not smooth over this point )
G00 Z0.07874 ( retract )

G00 X0.20314 Y-0.21063 ( rapid move to begin. )
G01 F0.59055
G01 Z-0.01024
G04 P0 ( dwell for no time -- G64 should not smooth over this point )
G01 F1.18110
G01 X0.20314 Y-0.21063
G01 X0.15748 Y-0.21063
G01 X0.15740 Y-0.23305
G01 X0.15633 Y-0.23507
G01 X0.15431 Y-0.23614
G01 X0.08268 Y-0.23622
G01 X0.07989 Y-0.23507
G01 X0.07874 Y-0.23228
G01 X0.07874 Y-0.16142
G01 X0.07989 Y-0.15863
G01 X0.08191 Y-0.15756
G01 X0.15505 Y-0.15778
G01 X0.15682 Y-0.15923
G01 X0.15748 Y-0.16142
G01 X0.15748 Y-0.18307
G01 X0.60531 Y-0.18307
G01 X0.60539 Y-0.16065
G01 X0.60647 Y-0.15863
G01 X0.60848 Y-0.15756
G01 X0.68012 Y-0.15748
G01 X0.68290 Y-0.15863
G01 X0.68398 Y-0.16065
G01 X0.68405 Y-0.23228
G01 X0.68309 Y-0.23337
G01 X0.68012 Y-0.23464
G01 X0.60925 Y-0.23464
G01 X0.60628 Y-0.23337
G01 X0.60531 Y-0.23228
G01 X0.60531 Y-0.21063
G01 X0.23307 Y-0.21063
G01 X0.22181 Y-0.20915
G01 X0.21389 Y-0.20918
G01 X0.20314 Y-0.21063
G01 X0.19808 Y-0.21298
G01 X0.19148 Y-0.21788
G01 X0.18626 Y-0.22371
G01 X0.18200 Y-0.23122
G01 X0.17960 Y-0.23866
G01 X0.17876 Y-0.24726
G01 X0.17971 Y-0.25543
G01 X0.18214 Y-0.26286
G01 X0.18603 Y-0.26965
G01 X0.19148 Y-0.27582
G01 X0.19808 Y-0.28072
G01 X0.20314 Y-0.28307
G01 X0.15482 Y-0.28307
G01 X0.14996 Y-0.27371
G01 X0.14413 Y-0.26733
G01 X0.13743 Y-0.26257
G01 X0.13066 Y-0.25955
G01 X0.12181 Y-0.25767
G01 X0.11359 Y-0.25776
G01 X0.10594 Y-0.25941
G01 X0.09879 Y-0.26257
G01 X0.09177 Y-0.26759
G01 X0.08652 Y-0.27339
G01 X0.08233 Y-0.28047
G01 X0.07960 Y-0.28866
G01 X0.07874 Y-0.29685
G01 X0.07971 Y-0.30543
G01 X0.08214 Y-0.31286
G01 X0.08603 Y-0.31965
G01 X0.09148 Y-0.32582
G01 X0.09879 Y-0.33113
G01 X0.10594 Y-0.33429
G01 X0.11441 Y-0.33603
G01 X0.12181 Y-0.33603
G01 X0.12988 Y-0.33440
G01 X0.13814 Y-0.33072
G01 X0.14445 Y-0.32611
G01 X0.14970 Y-0.32031
G01 X0.15482 Y-0.31063
G01 X0.20314 Y-0.31063
G01 X0.19842 Y-0.31275
G01 X0.19148 Y-0.31788
G01 X0.18626 Y-0.32371
G01 X0.18214 Y-0.33084
G01 X0.17971 Y-0.33827
G01 X0.17874 Y-0.34685
G01 X0.17971 Y-0.35543
G01 X0.18214 Y-0.36286
G01 X0.18603 Y-0.36965
G01 X0.19148 Y-0.37582
G01 X0.19879 Y-0.38113
G01 X0.20594 Y-0.38429
G01 X0.21441 Y-0.38603
G01 X0.22181 Y-0.38603
G01 X0.22988 Y-0.38440
G01 X0.23814 Y-0.38072
G01 X0.24445 Y-0.37611
G01 X0.24970 Y-0.37031
G01 X0.25483 Y-0.36063
G01 X0.62972 Y-0.36063
G01 X0.62465 Y-0.36298
G01 X0.61866 Y-0.36733
G01 X0.61309 Y-0.37339
G01 X0.60872 Y-0.38084
G01 X0.60611 Y-0.38907
G01 X0.60531 Y-0.39685
G01 X0.60611 Y-0.40463
G01 X0.60880 Y-0.41302
G01 X0.59976 Y-0.42207
G01 X0.59876 Y-0.42173
G01 X0.59367 Y-0.40944
G01 X0.59280 Y-0.38878
G01 X0.59476 Y-0.38215
G01 X0.59429 Y-0.37878
G01 X0.59209 Y-0.37527
G01 X0.58740 Y-0.37289
G01 X0.26661 Y-0.37302
G01 X0.26241 Y-0.37537
G01 X0.24449 Y-0.39296
G01 X0.24278 Y-0.39702
G01 X0.24337 Y-0.40188
G01 X0.23414 Y-0.41110
G01 X0.23028 Y-0.40941
G01 X0.22263 Y-0.40776
G01 X0.21359 Y-0.40776
G01 X0.20594 Y-0.40941
G01 X0.19879 Y-0.41257
G01 X0.19148 Y-0.41788
G01 X0.18626 Y-0.42371
G01 X0.18233 Y-0.43047
G01 X0.17954 Y-0.43907
G01 X0.17874 Y-0.44685
G01 X0.17954 Y-0.45463
G01 X0.18222 Y-0.46302
G01 X0.17318 Y-0.47207
G01 X0.17219 Y-0.47173
G01 X0.16710 Y-0.45944
G01 X0.16640 Y-0.44291
G01 X0.16566 Y-0.43969
G01 X0.15988 Y-0.43306
G01 X0.15649 Y-0.43095
G01 X0.15192 Y-0.43060
G01 X0.14859 Y-0.43197
G01 X0.14566 Y-0.43523
G01 X0.14299 Y-0.44277
G01 X0.13070 Y-0.44786
G01 X0.11004 Y-0.44873
G01 X0.09316 Y-0.44255
G01 X0.09289 Y-0.44178
G01 X0.10207 Y-0.43259
G01 X0.10594 Y-0.43429
G01 X0.11359 Y-0.43594
G01 X0.12263 Y-0.43594
G01 X0.13028 Y-0.43429
G01 X0.13743 Y-0.43113
G01 X0.14445 Y-0.42611
G01 X0.14996 Y-0.41999
G01 X0.15422 Y-0.41248
G01 X0.15668 Y-0.40463
G01 X0.15748 Y-0.39685
G01 X0.15668 Y-0.38907
G01 X0.15408 Y-0.38084
G01 X0.14996 Y-0.37371
G01 X0.14445 Y-0.36759
G01 X0.13743 Y-0.36257
G01 X0.13028 Y-0.35941
G01 X0.12181 Y-0.35767
G01 X0.11359 Y-0.35776
G01 X0.10594 Y-0.35941
G01 X0.10207 Y-0.36111
G01 X0.09285 Y-0.35188
G01 X0.09344 Y-0.34702
G01 X0.09173 Y-0.34296
G01 X0.07445 Y-0.32602
G01 X0.06661 Y-0.30709
G01 X0.06661 Y-0.28661
G01 X0.07446 Y-0.26766
G01 X0.08087 Y-0.26106
G01 X0.08248 Y-0.25595
G01 X0.08180 Y-0.25254
G01 X0.07999 Y-0.24978
G01 X0.07110 Y-0.24386
G01 X0.06755 Y-0.23855
G01 X0.06612 Y-0.23140
G01 X0.06612 Y-0.16230
G01 X0.06754 Y-0.15515
G01 X0.07110 Y-0.14984
G01 X0.07641 Y-0.14629
G01 X0.08356 Y-0.14486
G01 X0.13445 Y-0.14486
G01 X0.13787 Y-0.14418
G01 X0.14077 Y-0.14225
G01 X0.14270 Y-0.13935
G01 X0.14338 Y-0.13266
G01 X0.15032 Y-0.11591
G01 X0.16315 Y-0.10308
G01 X0.17991 Y-0.09614
G01 X0.19804 Y-0.09614
G01 X0.21480 Y-0.10308
G01 X0.22763 Y-0.11591
G01 X0.23457 Y-0.13266
G01 X0.23457 Y-0.15080
G01 X0.23134 Y-0.15859
G01 X0.23074 Y-0.16278
G01 X0.23134 Y-0.16543
G01 X0.23328 Y-0.16833
G01 X0.23805 Y-0.17081
G01 X0.58376 Y-0.17094
G01 X0.58718 Y-0.17026
G01 X0.59096 Y-0.16728
G01 X0.59249 Y-0.16392
G01 X0.59412 Y-0.15515
G01 X0.59767 Y-0.14984
G01 X0.60298 Y-0.14629
G01 X0.61013 Y-0.14486
G01 X0.66102 Y-0.14486
G01 X0.66479 Y-0.14402
G01 X0.66747 Y-0.14211
G01 X0.66928 Y-0.13935
G01 X0.66996 Y-0.13266
G01 X0.67690 Y-0.11591
G01 X0.68972 Y-0.10308
G01 X0.70648 Y-0.09614
G01 X0.72462 Y-0.09614
G01 X0.74138 Y-0.10308
G01 X0.75420 Y-0.11591
G01 X0.76114 Y-0.13266
G01 X0.76114 Y-0.15080
G01 X0.75420 Y-0.16756
G01 X0.74166 Y-0.18010
G01 X0.73980 Y-0.18282
G01 X0.73914 Y-0.18544
G01 X0.73980 Y-0.19001
G01 X0.74166 Y-0.19274
G01 X0.74456 Y-0.19467
G01 X0.74798 Y-0.19535
G01 X0.75493 Y-0.19535
G01 X0.77385 Y-0.20319
G01 X0.78834 Y-0.21768
G01 X0.79618 Y-0.23661
G01 X0.79618 Y-0.25709
G01 X0.78834 Y-0.27602
G01 X0.77383 Y-0.29053
G01 X0.77189 Y-0.29343
G01 X0.77121 Y-0.29685
G01 X0.77189 Y-0.30027
G01 X0.77383 Y-0.30317
G01 X0.78834 Y-0.31768
G01 X0.79618 Y-0.33661
G01 X0.79618 Y-0.35709
G01 X0.78834 Y-0.37602
G01 X0.77107 Y-0.39296
G01 X0.76935 Y-0.39702
G01 X0.76994 Y-0.40188
G01 X0.76072 Y-0.41111
G01 X0.75685 Y-0.40941
G01 X0.74839 Y-0.40767
G01 X0.74016 Y-0.40776
G01 X0.73292 Y-0.40930
G01 X0.72465 Y-0.41298
G01 X0.71834 Y-0.41759
G01 X0.71309 Y-0.42339
G01 X0.70872 Y-0.43084
G01 X0.70611 Y-0.43907
G01 X0.70531 Y-0.44685
G01 X0.70611 Y-0.45463
G01 X0.70880 Y-0.46302
G01 X0.69976 Y-0.47207
G01 X0.69876 Y-0.47173
G01 X0.69367 Y-0.45944
G01 X0.69298 Y-0.44291
G01 X0.69223 Y-0.43969
G01 X0.68646 Y-0.43306
G01 X0.68307 Y-0.43095
G01 X0.67849 Y-0.43060
G01 X0.67516 Y-0.43197
G01 X0.67224 Y-0.43523
G01 X0.66956 Y-0.44277
G01 X0.65727 Y-0.44786
G01 X0.63661 Y-0.44873
G01 X0.61973 Y-0.44255
G01 X0.61947 Y-0.44178
G01 X0.62865 Y-0.43259
G01 X0.63252 Y-0.43429
G01 X0.64016 Y-0.43594
G01 X0.64839 Y-0.43603
G01 X0.65685 Y-0.43429
G01 X0.66400 Y-0.43113
G01 X0.67132 Y-0.42582
G01 X0.67676 Y-0.41964
G01 X0.68080 Y-0.41248
G01 X0.68326 Y-0.40463
G01 X0.68405 Y-0.39685
G01 X0.68326 Y-0.38907
G01 X0.68065 Y-0.38084
G01 X0.67676 Y-0.37405
G01 X0.67132 Y-0.36788
G01 X0.66400 Y-0.36257
G01 X0.65965 Y-0.36063
G01 X0.64468 Y-0.35917
G01 X0.62972 Y-0.36063
G01 X0.64098 Y-0.35915
G01 X0.64890 Y-0.35918
G01 X0.65965 Y-0.36063
G01 X0.70797 Y-0.36063
G01 X0.71309 Y-0.37031
G01 X0.71805 Y-0.37582
G01 X0.72465 Y-0.38072
G01 X0.73292 Y-0.38440
G01 X0.74016 Y-0.38594
G01 X0.74839 Y-0.38603
G01 X0.75685 Y-0.38429
G01 X0.76400 Y-0.38113
G01 X0.77132 Y-0.37582
G01 X0.77676 Y-0.36965
G01 X0.78065 Y-0.36286
G01 X0.78309 Y-0.35543
G01 X0.78405 Y-0.34685
G01 X0.78309 Y-0.33827
G01 X0.78065 Y-0.33084
G01 X0.77676 Y-0.32405
G01 X0.77132 Y-0.31788
G01 X0.76472 Y-0.31298
G01 X0.75723 Y-0.30955
G01 X0.74839 Y-0.30767
G01 X0.74016 Y-0.30776
G01 X0.73292 Y-0.30930
G01 X0.72465 Y-0.31298
G01 X0.71834 Y-0.31759
G01 X0.71309 Y-0.32339
G01 X0.70797 Y-0.33307
G01 X0.65965 Y-0.33307
G01 X0.64468 Y-0.33454
G01 X0.62972 Y-0.33307
G01 X0.25483 Y-0.33307
G01 X0.24970 Y-0.32339
G01 X0.24445 Y-0.31759
G01 X0.23814 Y-0.31298
G01 X0.23307 Y-0.31063
G01 X0.21811 Y-0.30916
G01 X0.20314 Y-0.31063
G01 X0.21441 Y-0.30915
G01 X0.22233 Y-0.30918
G01 X0.23307 Y-0.31063
G01 X0.60797 Y-0.31063
G01 X0.61309 Y-0.32031
G01 X0.61805 Y-0.32582
G01 X0.62465 Y-0.33072
G01 X0.62972 Y-0.33307
G01 X0.63306 Y-0.33374
G01 X0.64098 Y-0.33455
G01 X0.64890 Y-0.33452
G01 X0.65965 Y-0.33307
G01 X0.66471 Y-0.33072
G01 X0.67132 Y-0.32582
G01 X0.67676 Y-0.31965
G01 X0.68065 Y-0.31286
G01 X0.68309 Y-0.30543
G01 X0.68405 Y-0.29685
G01 X0.68309 Y-0.28827
G01 X0.68065 Y-0.28084
G01 X0.67676 Y-0.27405
G01 X0.67132 Y-0.26788
G01 X0.66471 Y-0.26298
G01 X0.65965 Y-0.26063
G01 X0.64858 Y-0.25918
G01 X0.64072 Y-0.25918
G01 X0.62972 Y-0.26063
G01 X0.25483 Y-0.26063
G01 X0.24970 Y-0.27031
G01 X0.24445 Y-0.27611
G01 X0.23814 Y-0.28072
G01 X0.23307 Y-0.28307
G01 X0.21811 Y-0.28453
G01 X0.20314 Y-0.28307
G01 X0.21441 Y-0.28455
G01 X0.22233 Y-0.28452
G01 X0.23307 Y-0.28307
G01 X0.60797 Y-0.28307
G01 X0.61309 Y-0.27339
G01 X0.61834 Y-0.26759
G01 X0.62465 Y-0.26298
G01 X0.62972 Y-0.26063
G01 X0.63306 Y-0.25996
G01 X0.64839 Y-0.25915
G01 X0.65965 Y-0.26063
G01 X0.70797 Y-0.26063
G01 X0.71309 Y-0.27031
G01 X0.71805 Y-0.27582
G01 X0.72465 Y-0.28072
G01 X0.73292 Y-0.28440
G01 X0.74057 Y-0.28600
G01 X0.74839 Y-0.28603
G01 X0.75685 Y-0.28429
G01 X0.76400 Y-0.28113
G01 X0.77132 Y-0.27582
G01 X0.77676 Y-0.26965
G01 X0.78065 Y-0.26286
G01 X0.78309 Y-0.25543
G01 X0.78405 Y-0.24685
G01 X0.78309 Y-0.23827
G01 X0.78065 Y-0.23084
G01 X0.77676 Y-0.22405
G01 X0.77103 Y-0.21759
G01 X0.76400 Y-0.21257
G01 X0.75685 Y-0.20941
G01 X0.74880 Y-0.20770
G01 X0.74098 Y-0.20767
G01 X0.73213 Y-0.20955
G01 X0.72537 Y-0.21257
G01 X0.71866 Y-0.21733
G01 X0.71261 Y-0.22405
G01 X0.70797 Y-0.23307
G01 X0.68379 Y-0.23307
G01 X0.68012 Y-0.23464
G04 P0 ( dwell for no time -- G64 should not smooth over this point )
G00 Z0.07874 ( retract )

G00 X0.90520 Y-0.17320 ( rapid move to begin. )
G01 F0.59055
G01 Z-0.01024
G04 P0 ( dwell for no time -- G64 should not smooth over this point )
G01 F1.18110
G01 X0.90520 Y-0.17320
G01 X0.90520 Y-0.14175
G01 X0.91723 Y-0.11270
G01 X0.93947 Y-0.09046
G01 X0.96853 Y-0.07842
G01 X0.99998 Y-0.07842
G01 X1.02903 Y-0.09046
G01 X1.05127 Y-0.11270
G01 X1.06331 Y-0.14175
G01 X1.06331 Y-0.17320
G01 X1.05127 Y-0.20226
G01 X1.02903 Y-0.22450
G01 X0.99998 Y-0.23653
G01 X0.96853 Y-0.23653
G01 X0.93947 Y-0.22450
G01 X0.91723 Y-0.20226
G01 X0.90520 Y-0.17320
G04 P0 ( dwell for no time -- G64 should not smooth over this point )
G00 Z0.07874 ( retract )

G00 X0.90520 Y-0.52754 ( rapid move to begin. )
G01 F0.59055
G01 Z-0.01024
G04 P0 ( dwell for no time -- G64 should not smooth over this point )
G01 F1.18110
G01 X0.90520 Y-0.52754
G01 X0.91723 Y-0.55659
G01 X0.93947 Y-0.57883
G01 X0.96853 Y-0.59087
G01 X0.99998 Y-0.59087
G01 X1.02903 Y-0.57883
G01 X1.05127 Y-0.55659
G01 X1.06331 Y-0.52754
G01 X1.06331 Y-0.49609
G01 X1.05127 Y-0.46703
G01 X1.02903 Y-0.44479
G01 X0.99998 Y-0.43276
G01 X0.96853 Y-0.43276
G01 X0.93947 Y-0.44479
G01 X0.91723 Y-0.46703
G01 X0.90520 Y-0.49609
G01 X0.90520 Y-0.52754
G04 P0 ( dwell for no time -- G64 should not smooth over this point )
G00 Z0.07874 ( retract )

G00 X0.78057 Y-0.46302 ( rapid move to begin. )
G01 F0.59055
G01 Z-0.01024
G04 P0 ( dwell for no time -- G64 should not smooth over this point )
G01 F1.18110
G01 X0.78057 Y-0.46302
G01 X0.78309 Y-0.45543
G01 X0.78405 Y-0.44685
G01 X0.78309 Y-0.43827
G01 X0.78057 Y-0.43068
G01 X0.78961 Y-0.42163
G01 X0.79061 Y-0.42197
G01 X0.79570 Y-0.43426
G01 X0.79656 Y-0.45492
G01 X0.79039 Y-0.47180
G01 X0.78961 Y-0.47207
G01 X0.78057 Y-0.46302
G04 P0 ( dwell for no time -- G64 should not smooth over this point )
G00 Z0.07874 ( retract )

G00 X0.71947 Y-0.49178 ( rapid move to begin. )
G01 F0.59055
G01 Z-0.01024
G04 P0 ( dwell for no time -- G64 should not smooth over this point )
G01 F1.18110
G01 X0.71947 Y-0.49178
G01 X0.71973 Y-0.49256
G01 X0.73661 Y-0.49873
G01 X0.75727 Y-0.49786
G01 X0.76957 Y-0.49277
G01 X0.76990 Y-0.49178
G01 X0.76072 Y-0.48259
G01 X0.75685 Y-0.48429
G01 X0.74839 Y-0.48603
G01 X0.74016 Y-0.48594
G01 X0.73252 Y-0.48429
G01 X0.72865 Y-0.48259
G01 X0.71947 Y-0.49178
G04 P0 ( dwell for no time -- G64 should not smooth over this point )
G00 Z0.07874 ( retract )

G00 X0.60925 Y-0.23464 ( rapid move to begin. )
G01 F0.59055
G01 Z-0.01024
G04 P0 ( dwell for no time -- G64 should not smooth over this point )
G01 F1.18110
G01 X0.60925 Y-0.23464
G01 X0.60558 Y-0.23307
G01 X0.25483 Y-0.23307
G01 X0.24970 Y-0.22339
G01 X0.24445 Y-0.21759
G01 X0.23814 Y-0.21298
G01 X0.23307 Y-0.21063
G01 X0.22181 Y-0.20915
G04 P0 ( dwell for no time -- G64 should not smooth over this point )
G00 Z0.07874 ( retract )

G00 X0.06623 Y-0.38878 ( rapid move to begin. )
G01 F0.59055
G01 Z-0.01024
G04 P0 ( dwell for no time -- G64 should not smooth over this point )
G01 F1.18110
G01 X0.06623 Y-0.38878
G01 X0.07240 Y-0.37190
G01 X0.07318 Y-0.37163
G01 X0.08224 Y-0.38068
G01 X0.07960 Y-0.38866
G01 X0.07874 Y-0.39685
G01 X0.07971 Y-0.40543
G01 X0.08223 Y-0.41302
G01 X0.07318 Y-0.42207
G01 X0.07219 Y-0.42173
G01 X0.06710 Y-0.40944
G01 X0.06623 Y-0.38878
G04 P0 ( dwell for no time -- G64 should not smooth over this point )
G00 Z0.07874 ( retract )

G00 X0.19289 Y-0.49178 ( rapid move to begin. )
G01 F0.59055
G01 Z-0.01024
G04 P0 ( dwell for no time -- G64 should not smooth over this point )
G01 F1.18110
G01 X0.19289 Y-0.49178
G01 X0.20208 Y-0.48259
G01 X0.20594 Y-0.48429
G01 X0.21359 Y-0.48594
G01 X0.22181 Y-0.48603
G01 X0.23028 Y-0.48429
G01 X0.23414 Y-0.48259
G01 X0.24333 Y-0.49178
G01 X0.24299 Y-0.49277
G01 X0.23070 Y-0.49786
G01 X0.21004 Y-0.49873
G01 X0.19316 Y-0.49256
G01 X0.19289 Y-0.49178
G04 P0 ( dwell for no time -- G64 should not smooth over this point )
G00 Z0.07874 ( retract )

G00 X0.25399 Y-0.46302 ( rapid move to begin. )
G01 F0.59055
G01 Z-0.01024
G04 P0 ( dwell for no time -- G64 should not smooth over this point )
G01 F1.18110
G01 X0.25399 Y-0.46302
G01 X0.26304 Y-0.47207
G01 X0.26382 Y-0.47180
G01 X0.26999 Y-0.45492
G01 X0.26912 Y-0.43426
G01 X0.26403 Y-0.42197
G01 X0.26304 Y-0.42163
G01 X0.25399 Y-0.43068
G01 X0.25662 Y-0.43866
G01 X0.25746 Y-0.44726
G01 X0.25662 Y-0.45504
G01 X0.25399 Y-0.46302
G04 P0 ( dwell for no time -- G64 should not smooth over this point )
G00 Z0.07874 ( retract )

G00 X0.01902 Y-0.64134 ( rapid move to begin. )
G01 F0.59055
G01 Z-0.01024
G04 P0 ( dwell for no time -- G64 should not smooth over this point )
G01 F1.18110
G01 X0.01902 Y-0.64134
G01 X0.01902 Y-0.02967
G01 X0.01970 Y-0.02625
G01 X0.02114 Y-0.02395
G01 X0.02539 Y-0.02016
G01 X0.02870 Y-0.01911
G01 X1.19252 Y-0.01902
G01 X1.19662 Y-0.02006
G01 X1.19870 Y-0.02150
G01 X1.20061 Y-0.02418
G01 X1.20146 Y-0.02795
G01 X1.20146 Y-0.64134
G01 X1.19984 Y-0.64646
G01 X1.19629 Y-0.64943
G01 X1.19252 Y-0.65028
G01 X0.02795 Y-0.65028
G01 X0.02470 Y-0.64965
G01 X0.02223 Y-0.64817
G01 X0.01969 Y-0.64467
G01 X0.01902 Y-0.64134

G04 P0 ( dwell for no time -- G64 should not smooth over this point )
G00 Z0.394 ( retract )

M5 ( Spindle off. )
G04 P1.000000
M9 ( Coolant off. )
M2 ( Program end. )

