( pcb2gcode 2.0.0 )
( Software-independent Gcode )

G94 ( Inches per minute feed rate. )
G20 ( Units == INCHES. )

G90 ( Absolute coordinates. )
G00 S1000 ( RPM spindle speed. )
G64 P0.00040 ( set maximum deviation from commanded toolpath )
G01 F7.87402 ( Feedrate. )


G00 Z0.39370 (Retract to tool change height)
T0
M5      (Spindle stop.)
G04 P1.00000 (Wait for spindle to stop)
(MSG, Change tool bit to mill diameter 0.00787in)
M6      (Tool change.)
M0      (Temporary machine stop.)
M3 ( Spindle on clockwise. )
G04 P1.00000 (Wait for spindle to get up to speed)
G04 P0 ( dwell for no time -- G64 should not smooth over this point )
G00 Z0.07874 ( retract )

G00 X0.12952 Y-0.10676 ( rapid move to begin. )
G01 F3.93701
G01 Z-0.00787
G04 P0 ( dwell for no time -- G64 should not smooth over this point )
G01 F7.87402
G01 X0.12952 Y-0.10676
G01 X0.12395 Y-0.11088
G01 X0.12952 Y-0.10676
G01 X0.13671 Y-0.10354
G01 X0.14380 Y-0.09646
G01 X0.47632 Y-0.09646
G01 X0.45817 Y-0.11493
G01 X0.45581 Y-0.11934
G01 X0.45495 Y-0.12270
G01 X0.45481 Y-0.17762
G01 X0.45521 Y-0.13268
G01 X0.45477 Y-0.12903
G01 X0.45221 Y-0.12613
G01 X0.44937 Y-0.12495
G01 X0.42071 Y-0.12495
G01 X0.41787 Y-0.12613
G01 X0.41570 Y-0.12830
G01 X0.41452 Y-0.13114
G01 X0.41437 Y-0.13583
G01 X0.40990 Y-0.13583
G01 X0.38223 Y-0.10821
G01 X0.37633 Y-0.10463
G01 X0.37105 Y-0.10358
G01 X0.13671 Y-0.10354
G04 P0 ( dwell for no time -- G64 should not smooth over this point )
G00 Z0.07874 ( retract )

G00 X0.11618 Y-0.17326 ( rapid move to begin. )
G01 F3.93701
G01 Z-0.00787
G04 P0 ( dwell for no time -- G64 should not smooth over this point )
G01 F7.87402
G01 X0.11618 Y-0.17326
G01 X0.11726 Y-0.18183
G01 X0.11972 Y-0.18925
G01 X0.12404 Y-0.19674
G01 X0.12923 Y-0.20258
G01 X0.13755 Y-0.20861
G01 X0.14550 Y-0.21197
G01 X0.15316 Y-0.21355
G01 X0.16262 Y-0.21342
G01 X0.17102 Y-0.21146
G01 X0.17815 Y-0.20824
G01 X0.18572 Y-0.20258
G01 X0.19092 Y-0.19674
G01 X0.19477 Y-0.19016
G01 X0.36806 Y-0.19016
G01 X0.41437 Y-0.23647
G01 X0.41437 Y-0.26102
G01 X0.41497 Y-0.26404
G01 X0.41732 Y-0.26712
G01 X0.41732 Y-0.31959
G01 X0.41841 Y-0.32564
G01 X0.41991 Y-0.32876
G01 X0.42251 Y-0.33211
G01 X0.45472 Y-0.36433
G01 X0.45509 Y-0.48634
G01 X0.45438 Y-0.48263
G01 X0.45221 Y-0.48046
G01 X0.44937 Y-0.47929
G01 X0.42224 Y-0.47913
G01 X0.41923 Y-0.47973
G01 X0.41668 Y-0.48144
G01 X0.41497 Y-0.48399
G01 X0.41437 Y-0.49016
G01 X0.20025 Y-0.49016
G01 X0.19882 Y-0.48872
G01 X0.19867 Y-0.43744
G01 X0.19651 Y-0.43341
G01 X0.19396 Y-0.43170
G01 X0.19094 Y-0.43110
G01 X0.12402 Y-0.43110
G01 X0.12100 Y-0.43170
G01 X0.11845 Y-0.43341
G01 X0.11674 Y-0.43596
G01 X0.11614 Y-0.43898
G01 X0.11614 Y-0.50591
G01 X0.11674 Y-0.50892
G01 X0.11845 Y-0.51147
G01 X0.12100 Y-0.51318
G01 X0.12402 Y-0.51378
G01 X0.17376 Y-0.51378
G01 X0.18373 Y-0.52300
G01 X0.18871 Y-0.52506
G01 X0.19214 Y-0.52555
G01 X0.41437 Y-0.52559
G01 X0.41452 Y-0.53028
G01 X0.41570 Y-0.53311
G01 X0.41787 Y-0.53529
G01 X0.42224 Y-0.53661
G01 X0.42777 Y-0.53661
G01 X0.42077 Y-0.54347
G01 X0.41785 Y-0.54973
G01 X0.41732 Y-0.55394
G01 X0.41732 Y-0.56752
G01 X0.41497 Y-0.57061
G01 X0.41437 Y-0.57362
G01 X0.41437 Y-0.61535
G01 X0.41497 Y-0.61837
G01 X0.41732 Y-0.62145
G01 X0.41736 Y-0.66814
G01 X0.41856 Y-0.67376
G01 X0.42071 Y-0.67774
G01 X0.42549 Y-0.68222
G01 X0.43036 Y-0.68439
G01 X0.43401 Y-0.68498
G01 X0.44022 Y-0.68413
G01 X0.39394 Y-0.73032
G01 X0.24356 Y-0.73031
G01 X0.09646 Y-0.58321
G01 X0.09646 Y-0.40104
G01 X0.10734 Y-0.39016
G01 X0.12019 Y-0.39016
G01 X0.12455 Y-0.39738
G01 X0.13046 Y-0.40368
G01 X0.13681 Y-0.40824
G01 X0.14394 Y-0.41146
G01 X0.15398 Y-0.41360
G01 X0.16180 Y-0.41355
G01 X0.17025 Y-0.41176
G01 X0.17884 Y-0.40779
G01 X0.18514 Y-0.40316
G01 X0.19040 Y-0.39738
G01 X0.19554 Y-0.38849
G01 X0.19792 Y-0.38104
G01 X0.19878 Y-0.37326
G01 X0.19770 Y-0.36305
G01 X0.19487 Y-0.35489
G01 X0.19040 Y-0.34750
G01 X0.18450 Y-0.34120
G01 X0.17815 Y-0.33664
G01 X0.17102 Y-0.33342
G01 X0.16180 Y-0.33133
G01 X0.15235 Y-0.33146
G01 X0.14471 Y-0.33313
G01 X0.13755 Y-0.33627
G01 X0.12923 Y-0.34230
G01 X0.12455 Y-0.34750
G01 X0.12019 Y-0.35472
G01 X0.09923 Y-0.35476
G01 X0.09252 Y-0.35640
G01 X0.08804 Y-0.35939
G01 X0.07874 Y-0.36865
G01 X0.06890 Y-0.35880
G01 X0.06890 Y-0.17136
G01 X0.07898 Y-0.16128
G01 X0.07898 Y-0.21165
G01 X0.07950 Y-0.21586
G01 X0.08156 Y-0.22083
G01 X0.08417 Y-0.22418
G01 X0.11867 Y-0.25869
G01 X0.11704 Y-0.26385
G01 X0.11618 Y-0.27162
G01 X0.11704 Y-0.28103
G01 X0.12009 Y-0.28999
G01 X0.12359 Y-0.29605
G01 X0.12923 Y-0.30258
G01 X0.13681 Y-0.30824
G01 X0.14550 Y-0.31197
G01 X0.15316 Y-0.31355
G01 X0.16098 Y-0.31360
G01 X0.16946 Y-0.31197
G01 X0.17815 Y-0.30824
G01 X0.18450 Y-0.30368
G01 X0.19137 Y-0.29605
G01 X0.19554 Y-0.28848
G01 X0.19792 Y-0.28103
G01 X0.19878 Y-0.27162
G01 X0.19792 Y-0.26385
G01 X0.19554 Y-0.25640
G01 X0.19092 Y-0.24814
G01 X0.18572 Y-0.24230
G01 X0.17884 Y-0.23709
G01 X0.17102 Y-0.23342
G01 X0.16180 Y-0.23133
G01 X0.15235 Y-0.23146
G01 X0.14364 Y-0.23355
G01 X0.11441 Y-0.20431
G01 X0.11441 Y-0.16482
G01 X0.11778 Y-0.16145
G01 X0.11692 Y-0.16466
G01 X0.11618 Y-0.17326
G01 X0.12010 Y-0.17285
G01 X0.12090 Y-0.16466
G01 X0.12316 Y-0.15761
G01 X0.12700 Y-0.15080
G01 X0.13216 Y-0.14494
G01 X0.13878 Y-0.14005
G01 X0.14554 Y-0.13702
G01 X0.15398 Y-0.13522
G01 X0.16314 Y-0.13561
G01 X0.16864 Y-0.13676
G01 X0.17618 Y-0.14005
G01 X0.18219 Y-0.14439
G01 X0.18748 Y-0.15014
G01 X0.19214 Y-0.15866
G01 X0.37770 Y-0.15887
G01 X0.38102 Y-0.15987
G01 X0.38514 Y-0.16270
G01 X0.43779 Y-0.21535
G01 X0.44860 Y-0.21543
G01 X0.45111 Y-0.21710
G01 X0.45177 Y-0.21929
G01 X0.45177 Y-0.26102
G01 X0.45111 Y-0.26321
G01 X0.44882 Y-0.26482
G01 X0.44882 Y-0.29646
G01 X0.45349 Y-0.30155
G01 X0.45523 Y-0.30565
G01 X0.45765 Y-0.30721
G01 X0.45764 Y-0.32270
G01 X0.48244 Y-0.34753
G01 X0.48501 Y-0.35136
G01 X0.48601 Y-0.35468
G01 X0.48622 Y-0.53602
G01 X0.48530 Y-0.54093
G01 X0.48367 Y-0.54399
G01 X0.46525 Y-0.56241
G01 X0.45959 Y-0.56475
G01 X0.44882 Y-0.56496
G01 X0.44882 Y-0.56983
G01 X0.45111 Y-0.57143
G01 X0.45177 Y-0.57362
G01 X0.45177 Y-0.61535
G01 X0.45111 Y-0.61754
G01 X0.44882 Y-0.61915
G01 X0.44882 Y-0.65954
G01 X0.45272 Y-0.66157
G01 X0.45276 Y-0.62145
G01 X0.45374 Y-0.62051
G01 X0.45374 Y-0.56871
G01 X0.46730 Y-0.56575
G01 X0.48524 Y-0.56575
G01 X0.48961 Y-0.56707
G01 X0.49114 Y-0.56847
G01 X0.49114 Y-0.62051
G01 X0.49016 Y-0.62145
G01 X0.49016 Y-0.67687
G01 X0.48963 Y-0.68107
G01 X0.48848 Y-0.68435
G01 X0.48497 Y-0.68940
G01 X0.41381 Y-0.76056
G01 X0.41046 Y-0.76316
G01 X0.40548 Y-0.76522
G01 X0.40128 Y-0.76575
G01 X0.23622 Y-0.76575
G01 X0.23201 Y-0.76522
G01 X0.22874 Y-0.76407
G01 X0.22369 Y-0.76056
G01 X0.06621 Y-0.60308
G01 X0.06361 Y-0.59973
G01 X0.06211 Y-0.59660
G01 X0.06102 Y-0.59055
G01 X0.06102 Y-0.40104
G01 X0.03691 Y-0.37660
G01 X0.03455 Y-0.37219
G01 X0.03350 Y-0.36691
G01 X0.03346 Y-0.36614
G01 X0.03740 Y-0.36614
G01 X0.03761 Y-0.16171
G01 X0.03861 Y-0.15840
G01 X0.04144 Y-0.15427
G01 X0.12700 Y-0.06874
G01 X0.13155 Y-0.06588
G01 X0.13646 Y-0.06496
G01 X0.73464 Y-0.06498
G01 X0.73987 Y-0.06617
G01 X0.74371 Y-0.06874
G01 X0.77933 Y-0.10433
G01 X0.78937 Y-0.10433
G01 X0.78944 Y-0.08388
G01 X0.79052 Y-0.08186
G01 X0.79331 Y-0.08071
G01 X0.86100 Y-0.08078
G01 X0.86302 Y-0.08186
G01 X0.86410 Y-0.08388
G01 X0.86417 Y-0.10433
G01 X0.87421 Y-0.10433
G01 X0.90983 Y-0.06874
G01 X0.91367 Y-0.06617
G01 X0.91890 Y-0.06498
G01 X1.16535 Y-0.06496
G01 X1.17096 Y-0.06615
G01 X1.17497 Y-0.06893
G01 X1.17808 Y-0.06918
G01 X1.18108 Y-0.07099
G01 X1.18110 Y-0.06617
G01 X1.17650 Y-0.06501
G01 X1.17179 Y-0.06226
G01 X1.16535 Y-0.06102
G01 X0.91660 Y-0.06125
G01 X0.91181 Y-0.06270
G01 X0.90734 Y-0.06569
G01 X0.87258 Y-0.10039
G01 X0.86811 Y-0.10039
G01 X0.86796 Y-0.08311
G01 X0.86580 Y-0.07908
G01 X0.86177 Y-0.07692
G01 X0.79331 Y-0.07677
G01 X0.78893 Y-0.07810
G01 X0.78603 Y-0.08163
G01 X0.78543 Y-0.08464
G01 X0.78543 Y-0.10039
G01 X0.78096 Y-0.10039
G01 X0.74621 Y-0.06569
G01 X0.74030 Y-0.06211
G01 X0.73502 Y-0.06106
G01 X0.13646 Y-0.06102
G01 X0.13225 Y-0.06155
G01 X0.12728 Y-0.06361
G01 X0.12393 Y-0.06621
G01 X0.03865 Y-0.15149
G01 X0.03605 Y-0.15484
G01 X0.03455 Y-0.15796
G01 X0.03346 Y-0.16402
G01 X0.03346 Y-0.36614
G04 P0 ( dwell for no time -- G64 should not smooth over this point )
G00 Z0.07874 ( retract )

G00 X0.11614 Y-0.50591 ( rapid move to begin. )
G01 F3.93701
G01 Z-0.00787
G04 P0 ( dwell for no time -- G64 should not smooth over this point )
G01 F7.87402
G01 X0.11614 Y-0.50591
G01 X0.12008 Y-0.50591
G01 X0.12008 Y-0.43898
G01 X0.12123 Y-0.43619
G01 X0.12402 Y-0.43504
G01 X0.19094 Y-0.43504
G01 X0.19313 Y-0.43570
G01 X0.19481 Y-0.43821
G01 X0.19488 Y-0.49035
G01 X0.19862 Y-0.49409
G01 X0.41831 Y-0.49409
G01 X0.41838 Y-0.48624
G01 X0.41946 Y-0.48422
G01 X0.42074 Y-0.48337
G01 X0.44860 Y-0.48315
G01 X0.45062 Y-0.48422
G01 X0.45177 Y-0.48701
G01 X0.45147 Y-0.53025
G01 X0.45002 Y-0.53201
G01 X0.44783 Y-0.53268
G01 X0.42148 Y-0.53260
G01 X0.41946 Y-0.53152
G01 X0.41838 Y-0.52951
G01 X0.41831 Y-0.52165
G01 X0.19253 Y-0.52163
G01 X0.18800 Y-0.52073
G01 X0.18495 Y-0.51910
G01 X0.17539 Y-0.50984
G01 X0.12402 Y-0.50984
G01 X0.12123 Y-0.50869
G01 X0.12008 Y-0.50591
G04 P0 ( dwell for no time -- G64 should not smooth over this point )
G00 Z0.07874 ( retract )

G00 X0.03740 Y-0.36614 ( rapid move to begin. )
G01 F3.93701
G01 Z-0.00787
G04 P0 ( dwell for no time -- G64 should not smooth over this point )
G01 F7.87402
G01 X0.03740 Y-0.36614
G01 X0.03832 Y-0.37105
G01 X0.04118 Y-0.37560
G01 X0.06496 Y-0.39941
G01 X0.06496 Y-0.59055
G01 X0.06617 Y-0.59617
G01 X0.06900 Y-0.60029
G01 X0.22648 Y-0.75777
G01 X0.23060 Y-0.76060
G01 X0.23622 Y-0.76181
G01 X0.40434 Y-0.76145
G01 X0.40860 Y-0.75969
G01 X0.41102 Y-0.75777
G01 X0.48218 Y-0.68661
G01 X0.48501 Y-0.68249
G01 X0.48622 Y-0.67687
G01 X0.48622 Y-0.61915
G01 X0.48851 Y-0.61754
G01 X0.48917 Y-0.61535
G01 X0.48917 Y-0.57362
G01 X0.48851 Y-0.57143
G01 X0.48742 Y-0.57035
G01 X0.48524 Y-0.56968
G01 X0.45965 Y-0.56968
G01 X0.45814 Y-0.56998
G01 X0.45637 Y-0.57143
G01 X0.45571 Y-0.57362
G01 X0.45571 Y-0.61535
G01 X0.45637 Y-0.61754
G01 X0.45866 Y-0.61915
G01 X0.45866 Y-0.65949
G01 X0.45577 Y-0.65973
G01 X0.45274 Y-0.66158
G01 X0.45272 Y-0.67707
G01 X0.44978 Y-0.67926
G01 X0.44022 Y-0.68413
G01 X0.44936 Y-0.67958
G01 X0.45272 Y-0.67702
G01 X0.44927 Y-0.67896
G01 X0.44210 Y-0.67913
G01 X0.43890 Y-0.68053
G01 X0.43401 Y-0.68105
G01 X0.43040 Y-0.68028
G01 X0.42582 Y-0.67756
G01 X0.42264 Y-0.67329
G01 X0.42150 Y-0.66978
G01 X0.42126 Y-0.61915
G01 X0.41897 Y-0.61754
G01 X0.41831 Y-0.61535
G01 X0.41831 Y-0.57362
G01 X0.41897 Y-0.57143
G01 X0.42126 Y-0.56983
G01 X0.42162 Y-0.55087
G01 X0.42338 Y-0.54661
G01 X0.42983 Y-0.53995
G01 X0.43473 Y-0.53776
G01 X0.45158 Y-0.53740
G01 X0.45866 Y-0.53031
G01 X0.45866 Y-0.36269
G01 X0.42529 Y-0.32933
G01 X0.42218 Y-0.32449
G01 X0.42126 Y-0.31959
G01 X0.42126 Y-0.26482
G01 X0.41946 Y-0.26381
G01 X0.41838 Y-0.26179
G01 X0.41831 Y-0.23484
G01 X0.36968 Y-0.18622
G01 X0.19214 Y-0.18622
G01 X0.18748 Y-0.19475
G01 X0.18251 Y-0.20023
G01 X0.17653 Y-0.20461
G01 X0.16864 Y-0.20812
G01 X0.16098 Y-0.20966
G01 X0.15357 Y-0.20964
G01 X0.14592 Y-0.20801
G01 X0.13915 Y-0.20502
G01 X0.13216 Y-0.19994
G01 X0.12700 Y-0.19408
G01 X0.12316 Y-0.18727
G01 X0.12090 Y-0.18022
G01 X0.12010 Y-0.17285
G04 P0 ( dwell for no time -- G64 should not smooth over this point )
G00 Z0.07874 ( retract )

G00 X0.38401 Y-0.15837 ( rapid move to begin. )
G01 F3.93701
G01 Z-0.00787
G04 P0 ( dwell for no time -- G64 should not smooth over this point )
G01 F7.87402
G01 X0.38401 Y-0.15837
G01 X0.37809 Y-0.15495
G01 X0.19477 Y-0.15472
G01 X0.19040 Y-0.14750
G01 X0.18572 Y-0.14230
G01 X0.18144 Y-0.13897
G01 X0.16921 Y-0.13601
G01 X0.16098 Y-0.13513
G01 X0.15370 Y-0.13517
G01 X0.13954 Y-0.13726
G01 X0.13167 Y-0.14377
G01 X0.12622 Y-0.14951
G01 X0.11778 Y-0.16145
G01 X0.12644 Y-0.14920
G01 X0.13738 Y-0.13882
G01 X0.13954 Y-0.13726
G01 X0.15313 Y-0.13517
G01 X0.16882 Y-0.13591
G01 X0.18144 Y-0.13897
G01 X0.36294 Y-0.13898
G01 X0.37912 Y-0.15516
G01 X0.38401 Y-0.15837
G01 X0.39293 Y-0.16679
G01 X0.39883 Y-0.17083
G01 X0.39293 Y-0.16679
G04 P0 ( dwell for no time -- G64 should not smooth over this point )
G00 Z0.07874 ( retract )

G00 X0.45374 Y-0.21413 ( rapid move to begin. )
G01 F3.93701
G01 Z-0.00787
G04 P0 ( dwell for no time -- G64 should not smooth over this point )
G01 F7.87402
G01 X0.45374 Y-0.21413
G01 X0.45472 Y-0.21319
G01 X0.45481 Y-0.17762
G01 X0.45221 Y-0.18096
G01 X0.44783 Y-0.18228
G01 X0.42224 Y-0.18228
G01 X0.41923 Y-0.18168
G01 X0.41668 Y-0.17998
G01 X0.41497 Y-0.17742
G01 X0.41437 Y-0.17126
G01 X0.39883 Y-0.17083
G01 X0.43943 Y-0.21142
G01 X0.44937 Y-0.21157
G01 X0.45221 Y-0.21274
G01 X0.45374 Y-0.21413
G01 X0.45374 Y-0.26618
G01 X0.45472 Y-0.26712
G01 X0.45472 Y-0.29682
G01 X0.45276 Y-0.29483
G01 X0.45276 Y-0.26712
G01 X0.45374 Y-0.26618
G04 P0 ( dwell for no time -- G64 should not smooth over this point )
G00 Z0.07874 ( retract )

G00 X0.49114 Y-0.26102 ( rapid move to begin. )
G01 F3.93701
G01 Z-0.00787
G04 P0 ( dwell for no time -- G64 should not smooth over this point )
G01 F7.87402
G01 X0.49114 Y-0.26102
G01 X0.49311 Y-0.26102
G01 X0.49311 Y-0.21929
G01 X0.49377 Y-0.21710
G01 X0.49486 Y-0.21602
G01 X0.49705 Y-0.21535
G01 X0.52264 Y-0.21535
G01 X0.52542 Y-0.21651
G01 X0.52657 Y-0.21929
G01 X0.52657 Y-0.24547
G01 X0.68543 Y-0.40433
G01 X0.79212 Y-0.40433
G01 X0.79629 Y-0.39647
G01 X0.80207 Y-0.39006
G01 X0.80773 Y-0.38594
G01 X0.81483 Y-0.38269
G01 X0.82327 Y-0.38089
G01 X0.83027 Y-0.38089
G01 X0.83793 Y-0.38243
G01 X0.84582 Y-0.38594
G01 X0.85209 Y-0.39061
G01 X0.85677 Y-0.39581
G01 X0.86143 Y-0.40433
G01 X0.96811 Y-0.40433
G01 X1.12697 Y-0.24547
G01 X1.12697 Y-0.21929
G01 X1.12812 Y-0.21651
G01 X1.13091 Y-0.21535
G01 X1.15650 Y-0.21535
G01 X1.15868 Y-0.21602
G01 X1.15977 Y-0.21710
G01 X1.16043 Y-0.21929
G01 X1.16043 Y-0.26102
G01 X1.15928 Y-0.26381
G01 X1.15650 Y-0.26496
G01 X1.14646 Y-0.26496
G01 X0.98178 Y-0.42934
G01 X0.97873 Y-0.43097
G01 X0.97382 Y-0.43189
G01 X0.86143 Y-0.43189
G01 X0.85725 Y-0.43975
G01 X0.85148 Y-0.44616
G01 X0.84510 Y-0.45069
G01 X0.83871 Y-0.45353
G01 X0.83027 Y-0.45533
G01 X0.82327 Y-0.45533
G01 X0.81561 Y-0.45379
G01 X0.80773 Y-0.45028
G01 X0.80145 Y-0.44561
G01 X0.79677 Y-0.44041
G01 X0.79212 Y-0.43189
G01 X0.67972 Y-0.43189
G01 X0.67666 Y-0.43153
G01 X0.67240 Y-0.42977
G01 X0.50709 Y-0.26496
G01 X0.49628 Y-0.26488
G01 X0.49426 Y-0.26381
G01 X0.49311 Y-0.26102
G04 P0 ( dwell for no time -- G64 should not smooth over this point )
G00 Z0.07874 ( retract )

G00 X0.49114 Y-0.26618 ( rapid move to begin. )
G01 F3.93701
G01 Z-0.00787
G04 P0 ( dwell for no time -- G64 should not smooth over this point )
G01 F7.87402
G01 X0.49114 Y-0.26618
G01 X0.49267 Y-0.26757
G01 X0.49551 Y-0.26875
G01 X0.50546 Y-0.26890
G01 X0.66926 Y-0.43238
G01 X0.67367 Y-0.43474
G01 X0.67972 Y-0.43583
G01 X0.78948 Y-0.43583
G01 X0.79333 Y-0.44241
G01 X0.79853 Y-0.44825
G01 X0.80610 Y-0.45391
G01 X0.81323 Y-0.45713
G01 X0.82164 Y-0.45909
G01 X0.83109 Y-0.45922
G01 X0.83954 Y-0.45743
G01 X0.84813 Y-0.45346
G01 X0.85501 Y-0.44825
G01 X0.86021 Y-0.44241
G01 X0.86406 Y-0.43583
G01 X0.97382 Y-0.43583
G01 X0.97987 Y-0.43474
G01 X0.98428 Y-0.43238
G01 X1.14809 Y-0.26890
G01 X1.15803 Y-0.26875
G01 X1.16206 Y-0.26659
G01 X1.16342 Y-0.26470
G01 X1.16388 Y-0.26102
G01 X1.16388 Y-0.21929
G01 X1.16338 Y-0.35910
G01 X1.13432 Y-0.38816
G01 X1.13081 Y-0.39321
G01 X1.12966 Y-0.39648
G01 X1.12913 Y-0.40069
G01 X1.12936 Y-0.43576
G01 X1.13081 Y-0.44055
G01 X1.13380 Y-0.44503
G01 X1.16338 Y-0.47466
G01 X1.16338 Y-0.48091
G01 X1.16240 Y-0.48185
G04 P0 ( dwell for no time -- G64 should not smooth over this point )
G00 Z0.07874 ( retract )

G00 X1.20177 Y-0.61535 ( rapid move to begin. )
G01 F3.93701
G01 Z-0.00787
G04 P0 ( dwell for no time -- G64 should not smooth over this point )
G01 F7.87402
G01 X1.20177 Y-0.61535
G01 X1.20292 Y-0.61814
G01 X1.20494 Y-0.61921
G01 X1.23207 Y-0.61921
G01 X1.23408 Y-0.61814
G01 X1.23516 Y-0.61612
G01 X1.23524 Y-0.60827
G01 X1.43695 Y-0.60806
G01 X1.44027 Y-0.60705
G01 X1.44410 Y-0.60449
G01 X1.46887 Y-0.57975
G01 X1.47136 Y-0.58238
G01 X1.47702 Y-0.58650
G01 X1.48490 Y-0.59001
G01 X1.49215 Y-0.59153
G01 X1.49956 Y-0.59155
G01 X1.50722 Y-0.59001
G01 X1.51440 Y-0.58691
G01 X1.52138 Y-0.58183
G01 X1.52655 Y-0.57597
G01 X1.53038 Y-0.56916
G01 X1.53254 Y-0.56250
G01 X1.53346 Y-0.55433
G01 X1.53254 Y-0.54616
G01 X1.53004 Y-0.53875
G01 X1.52632 Y-0.53235
G01 X1.52138 Y-0.52683
G01 X1.51440 Y-0.52175
G01 X1.50722 Y-0.51865
G01 X1.49997 Y-0.51713
G01 X1.49215 Y-0.51713
G01 X1.48490 Y-0.51865
G01 X1.47702 Y-0.52216
G01 X1.47074 Y-0.52683
G01 X1.46558 Y-0.53269
G01 X1.46175 Y-0.53950
G01 X1.45948 Y-0.54655
G01 X1.45903 Y-0.55062
G01 X1.42894 Y-0.58071
G01 X1.23524 Y-0.58071
G01 X1.23516 Y-0.57285
G01 X1.23408 Y-0.57084
G01 X1.23280 Y-0.56998
G01 X1.20494 Y-0.56976
G01 X1.20292 Y-0.57084
G01 X1.20177 Y-0.57362
G01 X1.20177 Y-0.61535
G01 X1.19783 Y-0.61535
G01 X1.19843 Y-0.61837
G01 X1.20014 Y-0.62092
G01 X1.20417 Y-0.62308
G01 X1.23130 Y-0.62323
G01 X1.23567 Y-0.62190
G01 X1.23785 Y-0.61973
G01 X1.23902 Y-0.61689
G01 X1.23917 Y-0.61220
G01 X1.43464 Y-0.61220
G01 X1.43885 Y-0.61168
G01 X1.44382 Y-0.60962
G01 X1.44660 Y-0.60753
G01 X1.46882 Y-0.58537
G01 X1.47539 Y-0.59013
G01 X1.48252 Y-0.59335
G01 X1.49174 Y-0.59544
G01 X1.50038 Y-0.59544
G01 X1.50804 Y-0.59386
G01 X1.51742 Y-0.58968
G01 X1.52431 Y-0.58447
G01 X1.52899 Y-0.57927
G01 X1.53412 Y-0.57037
G01 X1.53663 Y-0.56211
G01 X1.53740 Y-0.55433
G01 X1.53663 Y-0.54655
G01 X1.53412 Y-0.53829
G01 X1.52995 Y-0.53072
G01 X1.52308 Y-0.52309
G01 X1.51673 Y-0.51853
G01 X1.50804 Y-0.51480
G01 X1.50038 Y-0.51322
G01 X1.49174 Y-0.51322
G01 X1.48408 Y-0.51480
G01 X1.47613 Y-0.51816
G01 X1.46782 Y-0.52419
G01 X1.46262 Y-0.53003
G01 X1.45867 Y-0.53678
G01 X1.45584 Y-0.54494
G01 X1.45526 Y-0.54882
G01 X1.42731 Y-0.57677
G01 X1.23917 Y-0.57677
G01 X1.23857 Y-0.57061
G01 X1.23687 Y-0.56805
G01 X1.23431 Y-0.56635
G01 X1.23130 Y-0.56575
G01 X1.20417 Y-0.56590
G01 X1.20014 Y-0.56805
G01 X1.19799 Y-0.57208
G01 X1.19783 Y-0.61535
G04 P0 ( dwell for no time -- G64 should not smooth over this point )
G00 Z0.07874 ( retract )

G00 X1.16240 Y-0.53390 ( rapid move to begin. )
G01 F3.93701
G01 Z-0.00787
G04 P0 ( dwell for no time -- G64 should not smooth over this point )
G01 F7.87402
G01 X1.16240 Y-0.53390
G01 X1.16529 Y-0.53601
G01 X1.16831 Y-0.53661
G01 X1.19390 Y-0.53661
G01 X1.19691 Y-0.53601
G01 X1.19980 Y-0.53390
G01 X1.19980 Y-0.48185
G01 X1.19882 Y-0.48091
G01 X1.19882 Y-0.46732
G01 X1.19829 Y-0.46312
G01 X1.19623 Y-0.45814
G01 X1.19415 Y-0.45537
G01 X1.16457 Y-0.42545
G01 X1.17788 Y-0.41213
G01 X1.18156 Y-0.40671
G01 X1.18110 Y-0.38597
G04 P0 ( dwell for no time -- G64 should not smooth over this point )
G00 Z0.07874 ( retract )

G00 X1.18119 Y-0.38589 ( rapid move to begin. )
G01 F3.93701
G01 Z-0.00787
G04 P0 ( dwell for no time -- G64 should not smooth over this point )
G01 F7.87402
G01 X1.18119 Y-0.38589
G01 X1.18282 Y-0.38480
G01 X1.18119 Y-0.38589
G04 P0 ( dwell for no time -- G64 should not smooth over this point )
G00 Z0.07874 ( retract )

G00 X1.18282 Y-0.38480 ( rapid move to begin. )
G01 F3.93701
G01 Z-0.00787
G04 P0 ( dwell for no time -- G64 should not smooth over this point )
G01 F7.87402
G01 X1.18282 Y-0.38480
G01 X1.18731 Y-0.38387
G01 X1.19024 Y-0.38163
G01 X1.19289 Y-0.38052
G01 X1.19901 Y-0.38009
G01 X1.20469 Y-0.38239
G01 X1.22973 Y-0.40739
G01 X1.23208 Y-0.41305
G01 X1.23228 Y-0.42736
G01 X1.24547 Y-0.44055
G01 X1.46141 Y-0.44055
G01 X1.46580 Y-0.43235
G01 X1.47074 Y-0.42683
G01 X1.47702 Y-0.42216
G01 X1.48412 Y-0.41891
G01 X1.49215 Y-0.41713
G01 X1.49956 Y-0.41711
G01 X1.50722 Y-0.41865
G01 X1.51077 Y-0.42014
G01 X1.56102 Y-0.36988
G01 X1.56102 Y-0.34665
G01 X1.44450 Y-0.23014
G01 X1.43843 Y-0.22566
G01 X1.43124 Y-0.22244
G01 X1.23917 Y-0.22244
G01 X1.23857 Y-0.21628
G01 X1.23687 Y-0.21372
G01 X1.23431 Y-0.21202
G01 X1.23130 Y-0.21142
G01 X1.20417 Y-0.21157
G01 X1.20133 Y-0.21274
G01 X1.19916 Y-0.21492
G01 X1.19833 Y-0.21929
G04 P0 ( dwell for no time -- G64 should not smooth over this point )
G00 Z0.07874 ( retract )

G00 X1.20177 Y-0.26102 ( rapid move to begin. )
G01 F3.93701
G01 Z-0.00787
G04 P0 ( dwell for no time -- G64 should not smooth over this point )
G01 F7.87402
G01 X1.20177 Y-0.26102
G01 X1.20292 Y-0.26381
G01 X1.20494 Y-0.26488
G01 X1.23207 Y-0.26488
G01 X1.23408 Y-0.26381
G01 X1.23516 Y-0.26179
G01 X1.23524 Y-0.25394
G01 X1.42933 Y-0.25394
G01 X1.48228 Y-0.30689
G01 X1.48228 Y-0.31693
G01 X1.46183 Y-0.31700
G01 X1.45981 Y-0.31808
G01 X1.45874 Y-0.32010
G01 X1.45866 Y-0.38780
G01 X1.45932 Y-0.38998
G01 X1.46109 Y-0.39143
G01 X1.46260 Y-0.39173
G01 X1.52953 Y-0.39173
G01 X1.53171 Y-0.39107
G01 X1.53280 Y-0.38998
G01 X1.53346 Y-0.38780
G01 X1.53346 Y-0.32087
G01 X1.53297 Y-0.31900
G01 X1.52953 Y-0.31620
G01 X1.52179 Y-0.31299
G01 X1.51378 Y-0.31299
G01 X1.51378 Y-0.30498
G01 X1.51056 Y-0.29779
G01 X1.50607 Y-0.29172
G01 X1.44475 Y-0.23039
G04 P0 ( dwell for no time -- G64 should not smooth over this point )
G00 Z0.07874 ( retract )

G00 X1.44721 Y-0.23285 ( rapid move to begin. )
G01 F3.93701
G01 Z-0.00787
G04 P0 ( dwell for no time -- G64 should not smooth over this point )
G01 F7.87402
G01 X1.44721 Y-0.23285
G01 X1.50668 Y-0.29260
G01 X1.44734 Y-0.23299
G04 P0 ( dwell for no time -- G64 should not smooth over this point )
G00 Z0.07874 ( retract )

G00 X1.51056 Y-0.29779 ( rapid move to begin. )
G01 F3.93701
G01 Z-0.00787
G04 P0 ( dwell for no time -- G64 should not smooth over this point )
G01 F7.87402
G01 X1.51056 Y-0.29779
G01 X1.50668 Y-0.29260
G01 X1.50963 Y-0.29888
G01 X1.50984 Y-0.31693
G01 X1.52953 Y-0.31693
G01 X1.53139 Y-0.31742
G01 X1.53420 Y-0.32087
G01 X1.53740 Y-0.32860
G01 X1.53739 Y-0.38790
G01 X1.53431 Y-0.39258
G01 X1.52953 Y-0.39567
G01 X1.46260 Y-0.39567
G01 X1.45958 Y-0.39507
G01 X1.45703 Y-0.39336
G01 X1.45532 Y-0.39081
G01 X1.45472 Y-0.38780
G01 X1.45487 Y-0.31933
G01 X1.45703 Y-0.31530
G01 X1.46106 Y-0.31314
G01 X1.47835 Y-0.31299
G01 X1.47835 Y-0.30852
G01 X1.42770 Y-0.25787
G01 X1.23917 Y-0.25787
G01 X1.23902 Y-0.26256
G01 X1.23785 Y-0.26540
G01 X1.23567 Y-0.26757
G01 X1.23283 Y-0.26875
G01 X1.20417 Y-0.26875
G01 X1.20133 Y-0.26757
G01 X1.19881 Y-0.26472
G01 X1.19833 Y-0.26102
G01 X1.19882 Y-0.26480
G01 X1.19859 Y-0.36913
G01 X1.19595 Y-0.37604
G01 X1.18283 Y-0.38480
G01 X1.19600 Y-0.37601
G01 X1.20242 Y-0.37691
G01 X1.20717 Y-0.37933
G01 X1.23155 Y-0.40340
G01 X1.23454 Y-0.40787
G01 X1.23569 Y-0.41115
G01 X1.23622 Y-0.42573
G01 X1.24710 Y-0.43661
G01 X1.45877 Y-0.43661
G01 X1.46262 Y-0.43003
G01 X1.46904 Y-0.42309
G01 X1.47470 Y-0.41898
G01 X1.48252 Y-0.41531
G01 X1.49174 Y-0.41322
G01 X1.49956 Y-0.41318
G01 X1.50990 Y-0.41544
G01 X1.52977 Y-0.39557
G01 X1.53431 Y-0.39258
G04 P0 ( dwell for no time -- G64 should not smooth over this point )
G00 Z0.07874 ( retract )

G00 X1.53730 Y-0.38804 ( rapid move to begin. )
G01 F3.93701
G01 Z-0.00787
G04 P0 ( dwell for no time -- G64 should not smooth over this point )
G01 F7.87402
G01 X1.53730 Y-0.38804
G01 X1.55709 Y-0.36825
G01 X1.55709 Y-0.34828
G01 X1.53740 Y-0.32860
G04 P0 ( dwell for no time -- G64 should not smooth over this point )
G00 Z0.07874 ( retract )

G00 X1.52179 Y-0.31299 ( rapid move to begin. )
G01 F3.93701
G01 Z-0.00787
G04 P0 ( dwell for no time -- G64 should not smooth over this point )
G01 F7.87402
G01 X1.52179 Y-0.31299
G01 X1.51378 Y-0.30498
G04 P0 ( dwell for no time -- G64 should not smooth over this point )
G00 Z0.07874 ( retract )

G00 X1.43124 Y-0.22244 ( rapid move to begin. )
G01 F3.93701
G01 Z-0.00787
G04 P0 ( dwell for no time -- G64 should not smooth over this point )
G01 F7.87402
G01 X1.43124 Y-0.22244
G01 X1.38006 Y-0.17126
G01 X1.23917 Y-0.17126
G01 X1.23902 Y-0.17594
G01 X1.23785 Y-0.17878
G01 X1.23567 Y-0.18096
G01 X1.23283 Y-0.18213
G01 X1.20571 Y-0.18228
G01 X1.20133 Y-0.18096
G01 X1.19980 Y-0.17957
G04 P0 ( dwell for no time -- G64 should not smooth over this point )
G00 Z0.07874 ( retract )

G00 X1.16240 Y-0.17957 ( rapid move to begin. )
G01 F3.93701
G01 Z-0.00787
G04 P0 ( dwell for no time -- G64 should not smooth over this point )
G01 F7.87402
G01 X1.16240 Y-0.17957
G01 X1.16338 Y-0.18051
G01 X1.16338 Y-0.21552
G01 X1.16388 Y-0.21929
G01 X1.16304 Y-0.21492
G01 X1.16087 Y-0.21274
G01 X1.15803 Y-0.21157
G01 X1.13091 Y-0.21142
G01 X1.12789 Y-0.21202
G01 X1.12534 Y-0.21372
G01 X1.12363 Y-0.21628
G01 X1.12303 Y-0.21929
G01 X1.12303 Y-0.24384
G01 X0.96648 Y-0.40039
G01 X0.86406 Y-0.40039
G01 X0.86021 Y-0.39381
G01 X0.85501 Y-0.38797
G01 X0.84744 Y-0.38231
G01 X0.83875 Y-0.37858
G01 X0.83109 Y-0.37700
G01 X0.82327 Y-0.37695
G01 X0.81400 Y-0.37879
G01 X0.80541 Y-0.38276
G01 X0.79853 Y-0.38797
G01 X0.79385 Y-0.39317
G01 X0.78948 Y-0.40039
G01 X0.68706 Y-0.40039
G01 X0.53051 Y-0.24384
G01 X0.53036 Y-0.21776
G01 X0.52918 Y-0.21492
G01 X0.52701 Y-0.21274
G01 X0.52264 Y-0.21142
G01 X0.49705 Y-0.21142
G01 X0.49403 Y-0.21202
G01 X0.49114 Y-0.21413
G04 P0 ( dwell for no time -- G64 should not smooth over this point )
G00 Z0.07874 ( retract )

G00 X0.49311 Y-0.17441 ( rapid move to begin. )
G01 F3.93701
G01 Z-0.00787
G04 P0 ( dwell for no time -- G64 should not smooth over this point )
G01 F7.87402
G01 X0.49311 Y-0.17441
G01 X0.49426 Y-0.17719
G01 X0.49628 Y-0.17827
G01 X0.50709 Y-0.17835
G01 X0.65901 Y-0.32977
G01 X0.66327 Y-0.33153
G01 X0.66634 Y-0.33189
G01 X0.79212 Y-0.33189
G01 X0.79677 Y-0.34041
G01 X0.80145 Y-0.34561
G01 X0.80773 Y-0.35028
G01 X0.81561 Y-0.35379
G01 X0.82327 Y-0.35533
G01 X0.83027 Y-0.35533
G01 X0.83871 Y-0.35353
G01 X0.84510 Y-0.35069
G01 X0.85148 Y-0.34616
G01 X0.85725 Y-0.33975
G01 X0.86143 Y-0.33189
G01 X0.98720 Y-0.33189
G01 X0.99211 Y-0.33097
G01 X0.99517 Y-0.32934
G01 X1.14646 Y-0.17835
G01 X1.15650 Y-0.17835
G01 X1.15928 Y-0.17719
G01 X1.16043 Y-0.17441
G01 X1.16043 Y-0.13268
G01 X1.15977 Y-0.13049
G01 X1.15800 Y-0.12904
G01 X1.15650 Y-0.12874
G01 X1.13091 Y-0.12874
G01 X1.12812 Y-0.12989
G01 X1.12697 Y-0.13268
G01 X1.12697 Y-0.15886
G01 X0.98150 Y-0.30433
G01 X0.86143 Y-0.30433
G01 X0.85677 Y-0.29580
G01 X0.85209 Y-0.29061
G01 X0.84582 Y-0.28594
G01 X0.83793 Y-0.28243
G01 X0.83027 Y-0.28089
G01 X0.82327 Y-0.28089
G01 X0.81483 Y-0.28269
G01 X0.80773 Y-0.28594
G01 X0.80207 Y-0.29006
G01 X0.79629 Y-0.29647
G01 X0.79212 Y-0.30433
G01 X0.67205 Y-0.30433
G01 X0.52657 Y-0.15886
G01 X0.52657 Y-0.13268
G01 X0.52542 Y-0.12989
G01 X0.52264 Y-0.12874
G01 X0.49705 Y-0.12874
G01 X0.49554 Y-0.12904
G01 X0.49377 Y-0.13049
G01 X0.49311 Y-0.13268
G01 X0.49311 Y-0.17441
G01 X0.48992 Y-0.17441
G01 X0.48993 Y-0.17580
G01 X0.48967 Y-0.13253
G01 X0.48966 Y-0.17441
G04 P0 ( dwell for no time -- G64 should not smooth over this point )
G00 Z0.07874 ( retract )

G00 X0.48967 Y-0.13253 ( rapid move to begin. )
G01 F3.93701
G01 Z-0.00787
G04 P0 ( dwell for no time -- G64 should not smooth over this point )
G01 F7.87402
G01 X0.48967 Y-0.13253
G01 X0.49261 Y-0.12813
G01 X0.49808 Y-0.12480
G01 X0.52264 Y-0.12480
G01 X0.52701 Y-0.12613
G01 X0.52918 Y-0.12830
G01 X0.53036 Y-0.13114
G01 X0.53051 Y-0.15723
G01 X0.67368 Y-0.30039
G01 X0.78948 Y-0.30039
G01 X0.79385 Y-0.29317
G01 X0.79853 Y-0.28797
G01 X0.80541 Y-0.28276
G01 X0.81400 Y-0.27879
G01 X0.82327 Y-0.27695
G01 X0.83109 Y-0.27700
G01 X0.83875 Y-0.27858
G01 X0.84744 Y-0.28231
G01 X0.85501 Y-0.28797
G01 X0.86021 Y-0.29381
G01 X0.86406 Y-0.30039
G01 X0.97987 Y-0.30039
G01 X1.12303 Y-0.15723
G01 X1.12303 Y-0.13268
G01 X1.12363 Y-0.12966
G01 X1.12534 Y-0.12711
G01 X1.12789 Y-0.12540
G01 X1.13091 Y-0.12480
G01 X1.15650 Y-0.12480
G01 X1.15951 Y-0.12540
G01 X1.16240 Y-0.12752
G01 X1.16240 Y-0.17957
G01 X1.16087 Y-0.18096
G01 X1.15803 Y-0.18213
G01 X1.14809 Y-0.18228
G01 X0.99767 Y-0.33238
G01 X0.99326 Y-0.33474
G01 X0.98720 Y-0.33583
G01 X0.86406 Y-0.33583
G01 X0.86021 Y-0.34241
G01 X0.85501 Y-0.34825
G01 X0.84813 Y-0.35346
G01 X0.83954 Y-0.35742
G01 X0.83109 Y-0.35922
G01 X0.82164 Y-0.35909
G01 X0.81323 Y-0.35713
G01 X0.80610 Y-0.35391
G01 X0.79853 Y-0.34825
G01 X0.79333 Y-0.34241
G01 X0.78948 Y-0.33583
G01 X0.66634 Y-0.33583
G01 X0.66029 Y-0.33474
G01 X0.65587 Y-0.33238
G01 X0.50546 Y-0.18228
G01 X0.49551 Y-0.18213
G01 X0.49267 Y-0.18096
G01 X0.49050 Y-0.17878
G01 X0.48993 Y-0.17580
G01 X0.49016 Y-0.21319
G01 X0.49114 Y-0.21413
G01 X0.49114 Y-0.26618
G01 X0.49016 Y-0.26712
G01 X0.49016 Y-0.29791
G01 X0.49110 Y-0.30267
G01 X0.49110 Y-0.31578
G01 X0.48961 Y-0.32217
G01 X0.48586 Y-0.32754
G01 X0.48155 Y-0.33068
G01 X0.47313 Y-0.33262
G01 X0.46845 Y-0.33018
G01 X0.47313 Y-0.33262
G01 X0.48671 Y-0.34652
G01 X0.48848 Y-0.34951
G01 X0.48993 Y-0.35430
G01 X0.49015 Y-0.48331
G01 X0.49267 Y-0.48046
G01 X0.49705 Y-0.47913
G01 X0.52264 Y-0.47913
G01 X0.52565 Y-0.47973
G01 X0.52821 Y-0.48144
G01 X0.52991 Y-0.48399
G01 X0.53051 Y-0.49016
G01 X0.79656 Y-0.49016
G01 X0.79975 Y-0.48687
G01 X0.80684 Y-0.48194
G01 X0.81400 Y-0.47879
G01 X0.82327 Y-0.47695
G01 X0.83109 Y-0.47700
G01 X0.84032 Y-0.47909
G01 X0.84813 Y-0.48276
G01 X0.85443 Y-0.48739
G01 X0.85698 Y-0.49016
G01 X1.12303 Y-0.49016
G01 X1.12318 Y-0.48547
G01 X1.12436 Y-0.48263
G01 X1.12653 Y-0.48046
G01 X1.12937 Y-0.47929
G01 X1.15650 Y-0.47913
G01 X1.15951 Y-0.47973
G01 X1.16240 Y-0.48185
G01 X1.16240 Y-0.53390
G01 X1.15951 Y-0.53601
G01 X1.15650 Y-0.53661
G01 X1.13091 Y-0.53661
G01 X1.12789 Y-0.53601
G01 X1.12534 Y-0.53431
G01 X1.12363 Y-0.53175
G01 X1.12303 Y-0.52559
G01 X0.86736 Y-0.52559
G01 X0.86416 Y-0.53566
G01 X0.86021 Y-0.54241
G01 X0.85379 Y-0.54935
G01 X0.84744 Y-0.55391
G01 X0.84032 Y-0.55713
G01 X0.83191 Y-0.55909
G01 X0.82327 Y-0.55927
G01 X0.81323 Y-0.55713
G01 X0.80541 Y-0.55346
G01 X0.79911 Y-0.54883
G01 X0.79385 Y-0.54305
G01 X0.78938 Y-0.53566
G01 X0.78618 Y-0.52559
G01 X0.53051 Y-0.52559
G01 X0.53036 Y-0.53028
G01 X0.52918 Y-0.53311
G01 X0.52701 Y-0.53529
G01 X0.52264 Y-0.53661
G01 X0.49551 Y-0.53646
G01 X0.49267 Y-0.53529
G01 X0.49050 Y-0.53311
G01 X0.48966 Y-0.52874
G01 X0.49311 Y-0.52874
G01 X0.49311 Y-0.48701
G01 X0.49426 Y-0.48422
G01 X0.49705 Y-0.48307
G01 X0.52414 Y-0.48337
G01 X0.52542 Y-0.48422
G01 X0.52650 Y-0.48624
G01 X0.52657 Y-0.49409
G01 X0.79831 Y-0.49409
G01 X0.80175 Y-0.49032
G01 X0.80844 Y-0.48553
G01 X0.81521 Y-0.48254
G01 X0.82327 Y-0.48089
G01 X0.83109 Y-0.48098
G01 X0.83871 Y-0.48269
G01 X0.84582 Y-0.48594
G01 X0.85148 Y-0.49006
G01 X0.85523 Y-0.49409
G01 X1.12697 Y-0.49409
G01 X1.12704 Y-0.48624
G01 X1.12812 Y-0.48422
G01 X1.12940 Y-0.48337
G01 X1.15650 Y-0.48307
G01 X1.15928 Y-0.48422
G01 X1.16043 Y-0.48701
G01 X1.16043 Y-0.52874
G01 X1.15928 Y-0.53152
G01 X1.15726 Y-0.53260
G01 X1.12940 Y-0.53238
G01 X1.12812 Y-0.53152
G01 X1.12704 Y-0.52951
G01 X1.12697 Y-0.52165
G01 X0.86378 Y-0.52165
G01 X0.86336 Y-0.52586
G01 X0.86094 Y-0.53332
G01 X0.85725 Y-0.53975
G01 X0.85209 Y-0.54561
G01 X0.84510 Y-0.55069
G01 X0.83833 Y-0.55368
G01 X0.83068 Y-0.55531
G01 X0.82286 Y-0.55531
G01 X0.81521 Y-0.55368
G01 X0.80844 Y-0.55069
G01 X0.80207 Y-0.54616
G01 X0.79677 Y-0.54041
G01 X0.79279 Y-0.53369
G01 X0.79018 Y-0.52586
G01 X0.78976 Y-0.52165
G01 X0.52657 Y-0.52165
G01 X0.52650 Y-0.52951
G01 X0.52542 Y-0.53152
G01 X0.52341 Y-0.53260
G01 X0.49628 Y-0.53260
G01 X0.49426 Y-0.53152
G01 X0.49311 Y-0.52874
G04 P0 ( dwell for no time -- G64 should not smooth over this point )
G00 Z0.07874 ( retract )

G00 X0.48966 Y-0.48701 ( rapid move to begin. )
G01 F3.93701
G01 Z-0.00787
G04 P0 ( dwell for no time -- G64 should not smooth over this point )
G01 F7.87402
G01 X0.48966 Y-0.48701
G01 X0.49015 Y-0.48331
G01 X0.48966 Y-0.48701
G01 X0.48966 Y-0.52874
G01 X0.49016 Y-0.53602
G01 X0.48907 Y-0.54207
G01 X0.48671 Y-0.54649
G01 X0.46924 Y-0.56423
G01 X0.46632 Y-0.56605
G01 X0.45728 Y-0.56754
G01 X0.45374 Y-0.56871
G04 P0 ( dwell for no time -- G64 should not smooth over this point )
G00 Z0.07874 ( retract )

G00 X0.42777 Y-0.53661 ( rapid move to begin. )
G01 F3.93701
G01 Z-0.00787
G04 P0 ( dwell for no time -- G64 should not smooth over this point )
G01 F7.87402
G01 X0.42777 Y-0.53661
G01 X0.43525 Y-0.53515
G01 X0.45048 Y-0.53476
G01 X0.45324 Y-0.53221
G01 X0.45521 Y-0.52889
G01 X0.45509 Y-0.48634
G01 X0.45521 Y-0.52889
G04 P0 ( dwell for no time -- G64 should not smooth over this point )
G00 Z0.07874 ( retract )

G00 X0.49114 Y-0.56847 ( rapid move to begin. )
G01 F3.93701
G01 Z-0.00787
G04 P0 ( dwell for no time -- G64 should not smooth over this point )
G01 F7.87402
G01 X0.49114 Y-0.56847
G01 X0.49403 Y-0.56635
G01 X0.49705 Y-0.56575
G01 X0.52264 Y-0.56575
G01 X0.52565 Y-0.56635
G01 X0.52821 Y-0.56805
G01 X0.52991 Y-0.57061
G01 X0.53051 Y-0.57677
G01 X0.80315 Y-0.57677
G01 X0.80736 Y-0.57730
G01 X0.81245 Y-0.57944
G01 X0.82245 Y-0.57700
G01 X0.83027 Y-0.57695
G01 X0.83875 Y-0.57858
G01 X0.84813 Y-0.58276
G01 X0.85501 Y-0.58797
G01 X0.85970 Y-0.59317
G01 X0.86406 Y-0.60039
G01 X1.11274 Y-0.60039
G01 X1.12303 Y-0.59010
G01 X1.12318 Y-0.57208
G01 X1.12534 Y-0.56805
G01 X1.12789 Y-0.56635
G01 X1.13091 Y-0.56575
G01 X1.15803 Y-0.56590
G01 X1.16087 Y-0.56707
G01 X1.16304 Y-0.56925
G01 X1.16437 Y-0.57362
G01 X1.16437 Y-0.61535
G01 X1.16304 Y-0.61973
G01 X1.16087 Y-0.62190
G01 X1.15803 Y-0.62308
G01 X1.14002 Y-0.62323
G01 X1.13054 Y-0.63238
G01 X1.12428 Y-0.63530
G01 X1.12008 Y-0.63583
G01 X0.86406 Y-0.63583
G01 X0.86021 Y-0.64241
G01 X0.85501 Y-0.64825
G01 X0.84813 Y-0.65346
G01 X0.84032 Y-0.65713
G01 X0.83027 Y-0.65926
G01 X0.82164 Y-0.65909
G01 X0.81323 Y-0.65713
G01 X0.80541 Y-0.65346
G01 X0.79853 Y-0.64825
G01 X0.79288 Y-0.64172
G01 X0.78871 Y-0.63415
G01 X0.78621 Y-0.62589
G01 X0.78543 Y-0.61811
G01 X0.78601 Y-0.61220
G01 X0.53051 Y-0.61220
G01 X0.52991 Y-0.61837
G01 X0.52821 Y-0.62092
G01 X0.52565 Y-0.62263
G01 X0.52264 Y-0.62323
G01 X0.49551 Y-0.62308
G01 X0.49267 Y-0.62190
G01 X0.49114 Y-0.62051
G04 P0 ( dwell for no time -- G64 should not smooth over this point )
G00 Z0.07874 ( retract )

G00 X0.49311 Y-0.61535 ( rapid move to begin. )
G01 F3.93701
G01 Z-0.00787
G04 P0 ( dwell for no time -- G64 should not smooth over this point )
G01 F7.87402
G01 X0.49311 Y-0.61535
G01 X0.49426 Y-0.61814
G01 X0.49628 Y-0.61921
G01 X0.52341 Y-0.61921
G01 X0.52542 Y-0.61814
G01 X0.52650 Y-0.61612
G01 X0.52657 Y-0.60827
G01 X0.79085 Y-0.60827
G01 X0.78937 Y-0.61811
G01 X0.79019 Y-0.62589
G01 X0.79279 Y-0.63369
G01 X0.79677 Y-0.64041
G01 X0.80207 Y-0.64616
G01 X0.80844 Y-0.65069
G01 X0.81483 Y-0.65353
G01 X0.82286 Y-0.65531
G01 X0.83068 Y-0.65531
G01 X0.83871 Y-0.65353
G01 X0.84510 Y-0.65069
G01 X0.85148 Y-0.64616
G01 X0.85725 Y-0.63975
G01 X0.86143 Y-0.63189
G01 X1.12314 Y-0.63153
G01 X1.12804 Y-0.62934
G01 X1.13838 Y-0.61929
G01 X1.15650 Y-0.61929
G01 X1.15868 Y-0.61863
G01 X1.15977 Y-0.61754
G01 X1.16043 Y-0.61535
G01 X1.16036 Y-0.57285
G01 X1.15868 Y-0.57035
G01 X1.15650 Y-0.56968
G01 X1.13091 Y-0.56968
G01 X1.12872 Y-0.57035
G01 X1.12763 Y-0.57143
G01 X1.12697 Y-0.57362
G01 X1.12697 Y-0.59173
G01 X1.11437 Y-0.60433
G01 X0.86143 Y-0.60433
G01 X0.85725 Y-0.59647
G01 X0.85148 Y-0.59006
G01 X0.84582 Y-0.58594
G01 X0.83871 Y-0.58269
G01 X0.83068 Y-0.58091
G01 X0.82246 Y-0.58098
G01 X0.81521 Y-0.58254
G01 X0.81192 Y-0.58398
G01 X0.80806 Y-0.58163
G01 X0.80315 Y-0.58071
G01 X0.52657 Y-0.58071
G01 X0.52650 Y-0.57285
G01 X0.52542 Y-0.57084
G01 X0.52341 Y-0.56976
G01 X0.49628 Y-0.56976
G01 X0.49426 Y-0.57084
G01 X0.49318 Y-0.57285
G01 X0.49311 Y-0.61535
G01 X0.49114 Y-0.61535
G04 P0 ( dwell for no time -- G64 should not smooth over this point )
G00 Z0.07874 ( retract )

G00 X0.45374 Y-0.62051 ( rapid move to begin. )
G01 F3.93701
G01 Z-0.00787
G04 P0 ( dwell for no time -- G64 should not smooth over this point )
G01 F7.87402
G01 X0.45374 Y-0.62051
G01 X0.45472 Y-0.62145
G01 X0.45472 Y-0.65595
G01 X0.45275 Y-0.65673
G01 X0.45276 Y-0.67706
G01 X0.39557 Y-0.73425
G01 X0.24193 Y-0.73425
G01 X0.09252 Y-0.58484
G01 X0.09252 Y-0.39941
G01 X0.10571 Y-0.38622
G01 X0.12282 Y-0.38622
G01 X0.12748 Y-0.39475
G01 X0.13277 Y-0.40049
G01 X0.13915 Y-0.40502
G01 X0.14632 Y-0.40812
G01 X0.15357 Y-0.40964
G01 X0.16139 Y-0.40964
G01 X0.16864 Y-0.40812
G01 X0.17653 Y-0.40461
G01 X0.18251 Y-0.40024
G01 X0.18748 Y-0.39475
G01 X0.19180 Y-0.38727
G01 X0.19413 Y-0.37981
G01 X0.19486 Y-0.37285
G01 X0.19406 Y-0.36466
G01 X0.19180 Y-0.35761
G01 X0.18748 Y-0.35014
G01 X0.18219 Y-0.34439
G01 X0.17618 Y-0.34005
G01 X0.16942 Y-0.33702
G01 X0.16139 Y-0.33524
G01 X0.15357 Y-0.33524
G01 X0.14632 Y-0.33676
G01 X0.13843 Y-0.34027
G01 X0.13245 Y-0.34465
G01 X0.12748 Y-0.35014
G01 X0.12282 Y-0.35866
G01 X0.10000 Y-0.35866
G01 X0.09438 Y-0.35988
G01 X0.09026 Y-0.36270
G01 X0.07874 Y-0.37421
G01 X0.06496 Y-0.36043
G01 X0.06496 Y-0.16972
G01 X0.08694 Y-0.14774
G01 X0.08413 Y-0.15186
G01 X0.08291 Y-0.15748
G01 X0.08291 Y-0.21165
G01 X0.07898 Y-0.21165
G04 P0 ( dwell for no time -- G64 should not smooth over this point )
G00 Z0.07874 ( retract )

G00 X0.08291 Y-0.21165 ( rapid move to begin. )
G01 F3.93701
G01 Z-0.00787
G04 P0 ( dwell for no time -- G64 should not smooth over this point )
G01 F7.87402
G01 X0.08291 Y-0.21165
G01 X0.08383 Y-0.21656
G01 X0.08669 Y-0.22111
G01 X0.12316 Y-0.25761
G01 X0.12083 Y-0.26507
G01 X0.12008 Y-0.27244
G01 X0.12083 Y-0.27981
G01 X0.12331 Y-0.28765
G01 X0.12748 Y-0.29474
G01 X0.13216 Y-0.29994
G01 X0.13843 Y-0.30461
G01 X0.14554 Y-0.30786
G01 X0.15398 Y-0.30966
G01 X0.16139 Y-0.30964
G01 X0.16864 Y-0.30812
G01 X0.17618 Y-0.30483
G01 X0.18219 Y-0.30050
G01 X0.18748 Y-0.29474
G01 X0.19165 Y-0.28765
G01 X0.19413 Y-0.27981
G01 X0.19488 Y-0.27244
G01 X0.19406 Y-0.26466
G01 X0.19146 Y-0.25686
G01 X0.18774 Y-0.25046
G01 X0.18280 Y-0.24494
G01 X0.17618 Y-0.24005
G01 X0.16942 Y-0.23702
G01 X0.16139 Y-0.23524
G01 X0.15398 Y-0.23522
G01 X0.14632 Y-0.23676
G01 X0.14277 Y-0.23825
G01 X0.11047 Y-0.20594
G01 X0.11047 Y-0.16319
G01 X0.13862 Y-0.13504
G01 X0.36457 Y-0.13504
G01 X0.39282 Y-0.16329
G01 X0.39694 Y-0.16611
G01 X0.40217 Y-0.16730
G01 X0.41831 Y-0.16732
G01 X0.41838 Y-0.17518
G01 X0.41946 Y-0.17719
G01 X0.42148 Y-0.17827
G01 X0.44783 Y-0.17835
G01 X0.45062 Y-0.17719
G01 X0.45177 Y-0.17441
G01 X0.45177 Y-0.13268
G01 X0.45111 Y-0.13049
G01 X0.44934 Y-0.12904
G01 X0.44783 Y-0.12874
G01 X0.42148 Y-0.12882
G01 X0.41946 Y-0.12989
G01 X0.41838 Y-0.13191
G01 X0.41831 Y-0.13976
G01 X0.40827 Y-0.13976
G01 X0.37973 Y-0.11126
G01 X0.37590 Y-0.10869
G01 X0.37066 Y-0.10750
G01 X0.12985 Y-0.10784
G01 X0.12534 Y-0.10985
G01 X0.08694 Y-0.14774
G04 P0 ( dwell for no time -- G64 should not smooth over this point )
G00 Z0.07874 ( retract )

G00 X0.08219 Y-0.15409 ( rapid move to begin. )
G01 F3.93701
G01 Z-0.00787
G04 P0 ( dwell for no time -- G64 should not smooth over this point )
G01 F7.87402
G01 X0.08219 Y-0.15409
G01 X0.08690 Y-0.14779
G01 X0.08219 Y-0.15409
G01 X0.07898 Y-0.16128
G04 P0 ( dwell for no time -- G64 should not smooth over this point )
G00 Z0.07874 ( retract )

G00 X0.08695 Y-0.14774 ( rapid move to begin. )
G01 F3.93701
G01 Z-0.00787
G04 P0 ( dwell for no time -- G64 should not smooth over this point )
G01 F7.87402
G01 X0.08695 Y-0.14774
G01 X0.14217 Y-0.09252
G01 X0.48583 Y-0.09252
G01 X0.46244 Y-0.11594
G01 X0.45958 Y-0.12048
G01 X0.45866 Y-0.12539
G01 X0.45866 Y-0.21549
G01 X0.45637 Y-0.21710
G01 X0.45571 Y-0.21929
G01 X0.45571 Y-0.26102
G01 X0.45637 Y-0.26321
G01 X0.45866 Y-0.26482
G01 X0.45866 Y-0.30246
G01 X0.45919 Y-0.30604
G01 X0.45765 Y-0.30721
G01 X0.45766 Y-0.32270
G01 X0.46845 Y-0.33018
G01 X0.45766 Y-0.32270
G04 P0 ( dwell for no time -- G64 should not smooth over this point )
G00 Z0.07874 ( retract )

G00 X0.45472 Y-0.29682 ( rapid move to begin. )
G01 F3.93701
G01 Z-0.00787
G04 P0 ( dwell for no time -- G64 should not smooth over this point )
G01 F7.87402
G01 X0.45472 Y-0.29682
G01 X0.45770 Y-0.30551
G01 X0.45766 Y-0.32267
G01 X0.45996 Y-0.32428
G01 X0.46381 Y-0.32480
G01 X0.46917 Y-0.32806
G01 X0.47445 Y-0.32869
G01 X0.47995 Y-0.32708
G01 X0.48294 Y-0.32491
G01 X0.48601 Y-0.32056
G01 X0.48718 Y-0.31537
G01 X0.48719 Y-0.30306
G01 X0.48622 Y-0.29857
G01 X0.48622 Y-0.26482
G01 X0.48851 Y-0.26321
G01 X0.48917 Y-0.26102
G01 X0.48917 Y-0.21929
G01 X0.48851 Y-0.21710
G01 X0.48622 Y-0.21549
G01 X0.48622 Y-0.13110
G01 X0.52480 Y-0.09252
G01 X0.72854 Y-0.09252
G01 X0.76630 Y-0.12976
G01 X0.76871 Y-0.13097
G01 X0.77324 Y-0.13187
G01 X0.78937 Y-0.13189
G01 X0.78937 Y-0.15157
G01 X0.78967 Y-0.15308
G01 X0.79112 Y-0.15485
G01 X0.79331 Y-0.15551
G01 X0.81299 Y-0.15551
G01 X0.81299 Y-0.18358
G01 X0.80810 Y-0.18571
G01 X0.80175 Y-0.19032
G01 X0.79677 Y-0.19581
G01 X0.79279 Y-0.20253
G01 X0.79012 Y-0.21074
G01 X0.78937 Y-0.21811
G01 X0.79019 Y-0.22589
G01 X0.79246 Y-0.23294
G01 X0.79629 Y-0.23975
G01 X0.80207 Y-0.24616
G01 X0.80844 Y-0.25069
G01 X0.81521 Y-0.25368
G01 X0.82246 Y-0.25524
G01 X0.83027 Y-0.25533
G01 X0.83833 Y-0.25368
G01 X0.84510 Y-0.25069
G01 X0.85209 Y-0.24561
G01 X0.85725 Y-0.23975
G01 X0.86109 Y-0.23294
G01 X0.86335 Y-0.22589
G01 X0.86415 Y-0.21852
G01 X0.86325 Y-0.20994
G01 X0.86109 Y-0.20328
G01 X0.85725 Y-0.19647
G01 X0.85148 Y-0.19006
G01 X0.84545 Y-0.18571
G01 X0.84055 Y-0.18358
G01 X0.84055 Y-0.15551
G01 X0.86024 Y-0.15551
G01 X0.86242 Y-0.15485
G01 X0.86351 Y-0.15376
G01 X0.86417 Y-0.15157
G01 X0.86417 Y-0.13189
G01 X0.88031 Y-0.13187
G01 X0.88298 Y-0.13153
G01 X0.88724 Y-0.12976
G01 X0.92500 Y-0.09252
G01 X1.14114 Y-0.09252
G01 X1.16732 Y-0.11870
G01 X1.16732 Y-0.12888
G01 X1.16503 Y-0.13049
G01 X1.16437 Y-0.13268
G01 X1.16437 Y-0.17441
G01 X1.16503 Y-0.17660
G01 X1.16732 Y-0.17821
G01 X1.16732 Y-0.36073
G01 X1.13711 Y-0.39095
G01 X1.13428 Y-0.39507
G01 X1.13307 Y-0.40069
G01 X1.13328 Y-0.43538
G01 X1.13428 Y-0.43869
G01 X1.13685 Y-0.44253
G01 X1.16732 Y-0.47303
G01 X1.16732 Y-0.48321
G01 X1.16503 Y-0.48482
G01 X1.16437 Y-0.48701
G01 X1.16437 Y-0.52874
G01 X1.16503 Y-0.53093
G01 X1.16612 Y-0.53201
G01 X1.16831 Y-0.53268
G01 X1.19390 Y-0.53268
G01 X1.19668 Y-0.53152
G01 X1.19783 Y-0.52874
G01 X1.19783 Y-0.48701
G01 X1.19717 Y-0.48482
G01 X1.19488 Y-0.48321
G01 X1.19488 Y-0.46732
G01 X1.19396 Y-0.46241
G01 X1.19084 Y-0.45758
G01 X1.16063 Y-0.42736
G01 X1.16063 Y-0.42382
G01 X1.17510 Y-0.40935
G01 X1.17712 Y-0.40675
G01 X1.17864 Y-0.40305
G01 X1.18110 Y-0.40146
G01 X1.18108 Y-0.38595
G01 X1.19233 Y-0.37440
G01 X1.19396 Y-0.37135
G01 X1.19486 Y-0.36682
G01 X1.19488 Y-0.17821
G01 X1.19717 Y-0.17660
G01 X1.19783 Y-0.17441
G01 X1.19783 Y-0.13268
G01 X1.19717 Y-0.13049
G01 X1.19488 Y-0.12888
G01 X1.19486 Y-0.11261
G01 X1.19367 Y-0.10737
G01 X1.19084 Y-0.10325
G01 X1.17613 Y-0.08854
G01 X1.17933 Y-0.08779
G01 X1.18108 Y-0.08645
G01 X1.18108 Y-0.07099
G01 X1.18108 Y-0.08645
G04 P0 ( dwell for no time -- G64 should not smooth over this point )
G00 Z0.07874 ( retract )

G00 X1.18109 Y-0.07100 ( rapid move to begin. )
G01 F3.93701
G01 Z-0.00787
G04 P0 ( dwell for no time -- G64 should not smooth over this point )
G01 F7.87402
G01 X1.18109 Y-0.07100
G01 X1.18110 Y-0.06616
G01 X1.18565 Y-0.06501
G01 X1.19148 Y-0.06188
G01 X1.19675 Y-0.06105
G01 X1.20320 Y-0.06220
G01 X1.20938 Y-0.06621
G01 X1.23155 Y-0.08844
G01 X1.23454 Y-0.09291
G01 X1.23599 Y-0.09770
G01 X1.23622 Y-0.12658
G01 X1.23857 Y-0.12966
G01 X1.23917 Y-0.13583
G01 X1.38740 Y-0.13583
G01 X1.39160 Y-0.13635
G01 X1.39658 Y-0.13842
G01 X1.39993 Y-0.14102
G01 X1.58785 Y-0.32899
G01 X1.59143 Y-0.33489
G01 X1.59248 Y-0.34017
G01 X1.59252 Y-0.37559
G01 X1.59143 Y-0.38164
G01 X1.58993 Y-0.38477
G01 X1.58733 Y-0.38812
G01 X1.53487 Y-0.44058
G01 X1.53663 Y-0.44655
G01 X1.53736 Y-0.45351
G01 X1.53628 Y-0.46372
G01 X1.53412 Y-0.47037
G01 X1.52995 Y-0.47794
G01 X1.52308 Y-0.48557
G01 X1.51673 Y-0.49013
G01 X1.50804 Y-0.49386
G01 X1.50038 Y-0.49544
G01 X1.49256 Y-0.49549
G01 X1.48408 Y-0.49386
G01 X1.47470 Y-0.48968
G01 X1.46782 Y-0.48447
G01 X1.46262 Y-0.47863
G01 X1.45877 Y-0.47205
G01 X1.23622 Y-0.47165
G01 X1.23622 Y-0.48091
G01 X1.23857 Y-0.48399
G01 X1.23917 Y-0.48701
G01 X1.23917 Y-0.52874
G01 X1.23785 Y-0.53311
G01 X1.23567 Y-0.53529
G01 X1.23130 Y-0.53661
G01 X1.20571 Y-0.53661
G01 X1.20270 Y-0.53601
G01 X1.20014 Y-0.53431
G01 X1.19980 Y-0.48185
G01 X1.20079 Y-0.48091
G01 X1.20079 Y-0.42269
G01 X1.18546 Y-0.40737
G01 X1.18163 Y-0.40649
G01 X1.18145 Y-0.40169
G01 X1.18374 Y-0.40315
G01 X1.18715 Y-0.40348
G01 X1.20472 Y-0.42106
G01 X1.20472 Y-0.48321
G01 X1.20243 Y-0.48482
G01 X1.20177 Y-0.48701
G01 X1.20207 Y-0.53025
G01 X1.20352 Y-0.53201
G01 X1.20571 Y-0.53268
G01 X1.23207 Y-0.53260
G01 X1.23408 Y-0.53152
G01 X1.23524 Y-0.52874
G01 X1.23524 Y-0.48701
G01 X1.23457 Y-0.48482
G01 X1.23228 Y-0.48321
G01 X1.23228 Y-0.46588
G01 X1.23670 Y-0.46775
G01 X1.23976 Y-0.46811
G01 X1.46141 Y-0.46811
G01 X1.46580 Y-0.47631
G01 X1.47074 Y-0.48183
G01 X1.47702 Y-0.48650
G01 X1.48412 Y-0.48975
G01 X1.49215 Y-0.49153
G01 X1.49997 Y-0.49153
G01 X1.50722 Y-0.49001
G01 X1.51440 Y-0.48691
G01 X1.52077 Y-0.48238
G01 X1.52606 Y-0.47663
G01 X1.53038 Y-0.46916
G01 X1.53271 Y-0.46170
G01 X1.53346 Y-0.45433
G01 X1.53271 Y-0.44696
G01 X1.53038 Y-0.43950
G01 X1.58455 Y-0.38533
G01 X1.58737 Y-0.38121
G01 X1.58858 Y-0.37559
G01 X1.58837 Y-0.33864
G01 X1.58737 Y-0.33532
G01 X1.58455 Y-0.33120
G01 X1.39536 Y-0.14232
G01 X1.39231 Y-0.14068
G01 X1.38740 Y-0.13976
G01 X1.23524 Y-0.13976
G01 X1.23516 Y-0.13191
G01 X1.23408 Y-0.12989
G01 X1.23228 Y-0.12888
G01 X1.23228 Y-0.10039
G01 X1.23107 Y-0.09477
G01 X1.22825 Y-0.09065
G01 X1.20629 Y-0.06872
G01 X1.20179 Y-0.06588
G01 X1.19572 Y-0.06502
G01 X1.19097 Y-0.06629
G01 X1.18729 Y-0.06892
G01 X1.18412 Y-0.06918
G01 X1.18111 Y-0.07099
G01 X1.18113 Y-0.08982
G01 X1.18112 Y-0.08648
G01 X1.18339 Y-0.08806
G01 X1.18720 Y-0.08857
G01 X1.20472 Y-0.10610
G01 X1.20472 Y-0.12888
G01 X1.20243 Y-0.13049
G01 X1.20177 Y-0.13268
G01 X1.20177 Y-0.17441
G01 X1.20292 Y-0.17719
G01 X1.20571 Y-0.17835
G01 X1.23280 Y-0.17805
G01 X1.23408 Y-0.17719
G01 X1.23516 Y-0.17518
G01 X1.23524 Y-0.16732
G01 X1.38169 Y-0.16732
G01 X1.44478 Y-0.23041
G01 X1.43995 Y-0.22730
G01 X1.43504 Y-0.22638
G01 X1.23524 Y-0.22638
G01 X1.23516 Y-0.21852
G01 X1.23408 Y-0.21651
G01 X1.23280 Y-0.21565
G01 X1.20494 Y-0.21543
G01 X1.20292 Y-0.21651
G01 X1.20185 Y-0.21852
G01 X1.20177 Y-0.26102
G01 X1.19833 Y-0.26102
G01 X1.19882 Y-0.18051
G01 X1.19980 Y-0.17957
G01 X1.19980 Y-0.12752
G01 X1.19882 Y-0.12658
G01 X1.19882 Y-0.11299
G01 X1.19829 Y-0.10879
G01 X1.19714 Y-0.10551
G01 X1.19440 Y-0.10135
G01 X1.18558 Y-0.09246
G01 X1.18113 Y-0.08982
G04 P0 ( dwell for no time -- G64 should not smooth over this point )
G00 Z0.07874 ( retract )

G00 X1.18558 Y-0.09246 ( rapid move to begin. )
G01 F3.93701
G01 Z-0.00787
G04 P0 ( dwell for no time -- G64 should not smooth over this point )
G01 F7.87402
G01 X1.18558 Y-0.09246
G01 X1.20079 Y-0.10773
G01 X1.20079 Y-0.12658
G01 X1.19980 Y-0.12752
G04 P0 ( dwell for no time -- G64 should not smooth over this point )
G00 Z0.07874 ( retract )

G00 X1.16240 Y-0.12752 ( rapid move to begin. )
G01 F3.93701
G01 Z-0.00787
G04 P0 ( dwell for no time -- G64 should not smooth over this point )
G01 F7.87402
G01 X1.16240 Y-0.12752
G01 X1.16338 Y-0.12658
G01 X1.16338 Y-0.12033
G01 X1.13951 Y-0.09646
G01 X0.92663 Y-0.09646
G01 X0.89038 Y-0.13238
G01 X0.88597 Y-0.13474
G01 X0.88261 Y-0.13560
G01 X0.86811 Y-0.13583
G01 X0.86796 Y-0.15311
G01 X0.86678 Y-0.15595
G01 X0.86461 Y-0.15812
G01 X0.86024 Y-0.15945
G01 X0.84449 Y-0.15945
G01 X0.84449 Y-0.18098
G01 X0.84813 Y-0.18276
G01 X0.85501 Y-0.18797
G01 X0.86021 Y-0.19381
G01 X0.86416 Y-0.20056
G01 X0.86733 Y-0.21033
G01 X0.86811 Y-0.21811
G01 X0.86733 Y-0.22589
G01 X0.86416 Y-0.23566
G01 X0.86021 Y-0.24241
G01 X0.85501 Y-0.24825
G01 X0.84813 Y-0.25346
G01 X0.84032 Y-0.25713
G01 X0.83027 Y-0.25927
G01 X0.82245 Y-0.25922
G01 X0.81400 Y-0.25743
G01 X0.80684 Y-0.25428
G01 X0.79975 Y-0.24935
G01 X0.79288 Y-0.24172
G01 X0.78871 Y-0.23415
G01 X0.78634 Y-0.22670
G01 X0.78543 Y-0.21811
G01 X0.78621 Y-0.21033
G01 X0.78901 Y-0.20130
G01 X0.79288 Y-0.19450
G01 X0.79853 Y-0.18797
G01 X0.80541 Y-0.18276
G01 X0.80905 Y-0.18098
G01 X0.80905 Y-0.15945
G01 X0.79331 Y-0.15945
G01 X0.78893 Y-0.15812
G01 X0.78676 Y-0.15595
G01 X0.78558 Y-0.15311
G01 X0.78543 Y-0.13583
G01 X0.77093 Y-0.13560
G01 X0.76757 Y-0.13474
G01 X0.76316 Y-0.13238
G01 X0.72691 Y-0.09646
G01 X0.52643 Y-0.09646
G01 X0.49808 Y-0.12480

G04 P0 ( dwell for no time -- G64 should not smooth over this point )
G00 Z0.394 ( retract )

M5 ( Spindle off. )
G04 P1.000000
M9 ( Coolant off. )
M2 ( Program end. )

