( pcb2gcode 2.0.0 )
( Software-independent Gcode )

G94 ( Inches per minute feed rate. )
G20 ( Units == INCHES. )

G90 ( Absolute coordinates. )
G00 S1000 ( RPM spindle speed. )
G64 P0.00040 ( set maximum deviation from commanded toolpath )
G01 F7.87402 ( Feedrate. )


G00 Z0.39370 (Retract to tool change height)
T0
M5      (Spindle stop.)
G04 P1.00000 (Wait for spindle to stop)
(MSG, Change tool bit to mill diameter 0.00787in)
M6      (Tool change.)
M0      (Temporary machine stop.)
M3 ( Spindle on clockwise. )
G04 P1.00000 (Wait for spindle to get up to speed)
G04 P0 ( dwell for no time -- G64 should not smooth over this point )
G00 Z0.07874 ( retract )

G00 X0.09059 Y-0.09721 ( rapid move to begin. )
G01 F3.93701
G01 Z-0.00787
G04 P0 ( dwell for no time -- G64 should not smooth over this point )
G01 F7.87402
G01 X0.09059 Y-0.09721
G01 X0.09145 Y-0.10663
G01 X0.09383 Y-0.11407
G01 X0.09845 Y-0.12233
G01 X0.10423 Y-0.12875
G01 X0.11122 Y-0.13383
G01 X0.11835 Y-0.13705
G01 X0.12757 Y-0.13914
G01 X0.13539 Y-0.13919
G01 X0.14543 Y-0.13705
G01 X0.15256 Y-0.13383
G01 X0.16013 Y-0.12817
G01 X0.16578 Y-0.12164
G01 X0.16965 Y-0.11485
G01 X0.17232 Y-0.10663
G01 X0.17319 Y-0.09721
G01 X0.17232 Y-0.08944
G01 X0.16928 Y-0.08048
G01 X0.16533 Y-0.07373
G01 X0.16013 Y-0.06789
G01 X0.15256 Y-0.06223
G01 X0.14543 Y-0.05901
G01 X0.13621 Y-0.05692
G01 X0.12839 Y-0.05688
G01 X0.11835 Y-0.05901
G01 X0.11053 Y-0.06268
G01 X0.10365 Y-0.06789
G01 X0.09800 Y-0.07442
G01 X0.09413 Y-0.08122
G01 X0.09145 Y-0.08944
G01 X0.09059 Y-0.09721
G01 X0.09449 Y-0.09803
G01 X0.09524 Y-0.09066
G01 X0.09757 Y-0.08320
G01 X0.10163 Y-0.07605
G01 X0.10718 Y-0.06998
G01 X0.11319 Y-0.06564
G01 X0.11995 Y-0.06261
G01 X0.12839 Y-0.06081
G01 X0.13580 Y-0.06083
G01 X0.14305 Y-0.06235
G01 X0.15022 Y-0.06545
G01 X0.15721 Y-0.07053
G01 X0.16215 Y-0.07605
G01 X0.16587 Y-0.08245
G01 X0.16837 Y-0.08986
G01 X0.16929 Y-0.09803
G01 X0.16847 Y-0.10581
G01 X0.16587 Y-0.11361
G01 X0.16189 Y-0.12033
G01 X0.15660 Y-0.12609
G01 X0.15059 Y-0.13042
G01 X0.14383 Y-0.13345
G01 X0.13580 Y-0.13523
G01 X0.12798 Y-0.13523
G01 X0.11995 Y-0.13345
G01 X0.11284 Y-0.13020
G01 X0.10686 Y-0.12583
G01 X0.10141 Y-0.11967
G01 X0.09791 Y-0.11361
G01 X0.09541 Y-0.10620
G01 X0.09449 Y-0.09803
G04 P0 ( dwell for no time -- G64 should not smooth over this point )
G00 Z0.07874 ( retract )

G00 X0.09451 Y-0.19844 ( rapid move to begin. )
G01 F3.93701
G01 Z-0.00787
G04 P0 ( dwell for no time -- G64 should not smooth over this point )
G01 F7.87402
G01 X0.09451 Y-0.19844
G01 X0.09541 Y-0.18986
G01 X0.09791 Y-0.18245
G01 X0.10141 Y-0.17639
G01 X0.10686 Y-0.17024
G01 X0.11284 Y-0.16587
G01 X0.12033 Y-0.16246
G01 X0.12798 Y-0.16083
G01 X0.13580 Y-0.16083
G01 X0.14345 Y-0.16246
G01 X0.15094 Y-0.16587
G01 X0.15721 Y-0.17053
G01 X0.16215 Y-0.17605
G01 X0.16587 Y-0.18245
G01 X0.16837 Y-0.18986
G01 X0.16927 Y-0.19762
G01 X0.16847 Y-0.20581
G01 X0.16587 Y-0.21361
G01 X0.16189 Y-0.22034
G01 X0.15692 Y-0.22583
G01 X0.15094 Y-0.23020
G01 X0.14345 Y-0.23360
G01 X0.13539 Y-0.23525
G01 X0.12798 Y-0.23523
G01 X0.12033 Y-0.23360
G01 X0.11284 Y-0.23020
G01 X0.10686 Y-0.22583
G01 X0.10189 Y-0.22034
G01 X0.09757 Y-0.21286
G01 X0.09531 Y-0.20581
G01 X0.09451 Y-0.19844
G01 X0.09059 Y-0.19885
G01 X0.09167 Y-0.18864
G01 X0.09450 Y-0.18048
G01 X0.09896 Y-0.17309
G01 X0.10423 Y-0.16731
G01 X0.11122 Y-0.16223
G01 X0.11991 Y-0.15850
G01 X0.12839 Y-0.15688
G01 X0.13702 Y-0.15705
G01 X0.14466 Y-0.15872
G01 X0.15325 Y-0.16268
G01 X0.15955 Y-0.16731
G01 X0.16533 Y-0.17373
G01 X0.16928 Y-0.18048
G01 X0.17232 Y-0.18944
G01 X0.17319 Y-0.19721
G01 X0.17245 Y-0.20581
G01 X0.16965 Y-0.21485
G01 X0.16578 Y-0.22164
G01 X0.16013 Y-0.22817
G01 X0.15256 Y-0.23383
G01 X0.14543 Y-0.23705
G01 X0.13539 Y-0.23919
G01 X0.12757 Y-0.23914
G01 X0.11911 Y-0.23735
G01 X0.11122 Y-0.23383
G01 X0.10365 Y-0.22817
G01 X0.09845 Y-0.22233
G01 X0.09383 Y-0.21407
G01 X0.09145 Y-0.20663
G01 X0.09059 Y-0.19885
G04 P0 ( dwell for no time -- G64 should not smooth over this point )
G00 Z0.07874 ( retract )

G00 X0.09059 Y-0.29721 ( rapid move to begin. )
G01 F3.93701
G01 Z-0.00787
G04 P0 ( dwell for no time -- G64 should not smooth over this point )
G01 F7.87402
G01 X0.09059 Y-0.29721
G01 X0.09145 Y-0.28944
G01 X0.09450 Y-0.28048
G01 X0.09896 Y-0.27309
G01 X0.10423 Y-0.26731
G01 X0.11195 Y-0.26186
G01 X0.11911 Y-0.25872
G01 X0.12757 Y-0.25692
G01 X0.13407 Y-0.25688
G01 X0.14942 Y-0.24211
G01 X0.15411 Y-0.23944
G01 X0.15923 Y-0.23772
G01 X0.16535 Y-0.23701
G01 X0.32520 Y-0.23701
G01 X0.33132 Y-0.23772
G01 X0.33985 Y-0.24125
G01 X0.34468 Y-0.24508
G01 X0.41319 Y-0.31358
G01 X0.41701 Y-0.31842
G01 X0.41942 Y-0.32325
G01 X0.42122 Y-0.33230
G01 X0.42126 Y-0.38307
G01 X0.42054 Y-0.38920
G01 X0.41701 Y-0.39772
G01 X0.41319 Y-0.40256
G01 X0.38819 Y-0.42756
G01 X0.38463 Y-0.43052
G01 X0.38019 Y-0.43307
G01 X0.31527 Y-0.43307
G04 P0 ( dwell for no time -- G64 should not smooth over this point )
G00 Z0.07874 ( retract )

G00 X0.31084 Y-0.38563 ( rapid move to begin. )
G01 F3.93701
G01 Z-0.00787
G04 P0 ( dwell for no time -- G64 should not smooth over this point )
G01 F7.87402
G01 X0.31084 Y-0.38563
G01 X0.32093 Y-0.38342
G01 X0.33197 Y-0.38276
G01 X0.32093 Y-0.38342
G04 P0 ( dwell for no time -- G64 should not smooth over this point )
G00 Z0.07874 ( retract )

G00 X0.31084 Y-0.48051 ( rapid move to begin. )
G01 F3.93701
G01 Z-0.00787
G04 P0 ( dwell for no time -- G64 should not smooth over this point )
G01 F7.87402
G01 X0.31084 Y-0.48051
G01 X0.30761 Y-0.47775
G01 X0.29626 Y-0.47775
G01 X0.29189 Y-0.47643
G01 X0.28971 Y-0.47426
G01 X0.28854 Y-0.47142
G01 X0.28839 Y-0.44626
G01 X0.28971 Y-0.44188
G01 X0.29325 Y-0.43899
G01 X0.29626 Y-0.43839
G01 X0.30761 Y-0.43839
G01 X0.31126 Y-0.43533
G01 X0.31527 Y-0.43307
G01 X0.31126 Y-0.43082
G01 X0.30761 Y-0.42775
G01 X0.29472 Y-0.42760
G01 X0.29069 Y-0.42545
G01 X0.28898 Y-0.42290
G01 X0.28839 Y-0.41988
G01 X0.28839 Y-0.39626
G01 X0.28971 Y-0.39188
G01 X0.29189 Y-0.38971
G01 X0.29626 Y-0.38838
G01 X0.30761 Y-0.38838
G01 X0.31084 Y-0.38563
G01 X0.18327 Y-0.38563
G01 X0.17304 Y-0.39585
G01 X0.17211 Y-0.40742
G01 X0.16928 Y-0.41558
G01 X0.16481 Y-0.42297
G01 X0.15891 Y-0.42927
G01 X0.15256 Y-0.43383
G01 X0.14543 Y-0.43705
G01 X0.13702 Y-0.43901
G01 X0.12757 Y-0.43914
G01 X0.11991 Y-0.43756
G01 X0.11122 Y-0.43383
G01 X0.10487 Y-0.42927
G01 X0.09845 Y-0.42233
G01 X0.09450 Y-0.41558
G01 X0.09145 Y-0.40663
G01 X0.09059 Y-0.39885
G04 P0 ( dwell for no time -- G64 should not smooth over this point )
G00 Z0.07874 ( retract )

G00 X0.09449 Y-0.29803 ( rapid move to begin. )
G01 F3.93701
G01 Z-0.00787
G04 P0 ( dwell for no time -- G64 should not smooth over this point )
G01 F7.87402
G01 X0.09449 Y-0.29803
G01 X0.09541 Y-0.28986
G01 X0.09772 Y-0.28282
G01 X0.10141 Y-0.27639
G01 X0.10686 Y-0.27024
G01 X0.11284 Y-0.26587
G01 X0.11995 Y-0.26261
G01 X0.12798 Y-0.26083
G01 X0.13567 Y-0.26084
G01 X0.15192 Y-0.24516
G01 X0.15596 Y-0.24291
G01 X0.16037 Y-0.24149
G01 X0.16535 Y-0.24094
G01 X0.32520 Y-0.24094
G01 X0.33018 Y-0.24149
G01 X0.33799 Y-0.24473
G01 X0.34190 Y-0.24786
G01 X0.41040 Y-0.31637
G01 X0.41354 Y-0.32028
G01 X0.41678 Y-0.32809
G01 X0.41732 Y-0.33307
G01 X0.41732 Y-0.38307
G01 X0.41678 Y-0.38805
G01 X0.41536 Y-0.39246
G01 X0.41311 Y-0.39650
G01 X0.41040 Y-0.39977
G01 X0.38540 Y-0.42477
G01 X0.38149 Y-0.42791
G01 X0.37368 Y-0.43115
G01 X0.36870 Y-0.43169
G01 X0.32677 Y-0.43169
G01 X0.32227 Y-0.43124
G01 X0.31680 Y-0.42946
G01 X0.31257 Y-0.42692
G01 X0.30917 Y-0.42382
G01 X0.29549 Y-0.42374
G01 X0.29347 Y-0.42267
G01 X0.29262 Y-0.42139
G01 X0.29232 Y-0.39626
G01 X0.29299 Y-0.39407
G01 X0.29407 Y-0.39299
G01 X0.29626 Y-0.39232
G01 X0.30919 Y-0.39232
G01 X0.31289 Y-0.38896
G01 X0.31680 Y-0.38668
G01 X0.32227 Y-0.38490
G01 X0.35892 Y-0.38445
G01 X0.37008 Y-0.37329
G01 X0.37008 Y-0.34286
G01 X0.31541 Y-0.28819
G01 X0.17514 Y-0.28819
G01 X0.16893 Y-0.29440
G01 X0.16927 Y-0.29844
G01 X0.16837 Y-0.30621
G01 X0.16606 Y-0.31324
G01 X0.16189 Y-0.32033
G01 X0.15692 Y-0.32583
G01 X0.15022 Y-0.33061
G01 X0.14345 Y-0.33360
G01 X0.13580 Y-0.33523
G01 X0.12798 Y-0.33523
G01 X0.12073 Y-0.33371
G01 X0.11319 Y-0.33042
G01 X0.10718 Y-0.32609
G01 X0.10189 Y-0.32033
G01 X0.09772 Y-0.31324
G01 X0.09541 Y-0.30621
G01 X0.09449 Y-0.29803
G01 X0.09059 Y-0.29721
G01 X0.09167 Y-0.30742
G01 X0.09450 Y-0.31558
G01 X0.09845 Y-0.32233
G01 X0.10365 Y-0.32817
G01 X0.11053 Y-0.33338
G01 X0.11991 Y-0.33756
G01 X0.12757 Y-0.33914
G01 X0.13621 Y-0.33914
G01 X0.14466 Y-0.33735
G01 X0.15182 Y-0.33420
G01 X0.15955 Y-0.32875
G01 X0.16481 Y-0.32297
G01 X0.16928 Y-0.31558
G01 X0.17211 Y-0.30742
G01 X0.17304 Y-0.29585
G01 X0.17677 Y-0.29213
G01 X0.31378 Y-0.29213
G01 X0.36614 Y-0.34449
G01 X0.36614 Y-0.37166
G01 X0.36214 Y-0.37587
G01 X0.35882 Y-0.37760
G01 X0.34593 Y-0.37776
G01 X0.34269 Y-0.38051
G01 X0.33197 Y-0.38276
G01 X0.34269 Y-0.38051
G01 X0.35729 Y-0.38051
G01 X0.36254 Y-0.37525
G01 X0.36501 Y-0.37142
G01 X0.36501 Y-0.34472
G01 X0.36214 Y-0.34027
G01 X0.35988 Y-0.33886
G01 X0.34593 Y-0.33838
G01 X0.34228 Y-0.33533
G01 X0.33721 Y-0.33260
G01 X0.33250 Y-0.33111
G01 X0.32759 Y-0.33055
G01 X0.17185 Y-0.33051
G01 X0.16724 Y-0.33093
G01 X0.16060 Y-0.33294
G01 X0.15592 Y-0.33562
G01 X0.13407 Y-0.35688
G01 X0.12757 Y-0.35692
G01 X0.11911 Y-0.35872
G01 X0.11195 Y-0.36186
G01 X0.10423 Y-0.36731
G01 X0.09800 Y-0.37442
G01 X0.09383 Y-0.38199
G01 X0.09145 Y-0.38944
G01 X0.09059 Y-0.39885
G01 X0.09449 Y-0.39803
G01 X0.09541 Y-0.38986
G01 X0.09772 Y-0.38282
G01 X0.10141 Y-0.37639
G01 X0.10686 Y-0.37024
G01 X0.11284 Y-0.36586
G01 X0.11995 Y-0.36261
G01 X0.12798 Y-0.36083
G01 X0.13569 Y-0.36083
G01 X0.15543 Y-0.34111
G01 X0.15906 Y-0.33823
G01 X0.16687 Y-0.33500
G01 X0.17185 Y-0.33445
G01 X0.32677 Y-0.33445
G01 X0.33168 Y-0.33497
G01 X0.33675 Y-0.33668
G01 X0.34098 Y-0.33922
G01 X0.34437 Y-0.34232
G01 X0.35805 Y-0.34240
G01 X0.36007 Y-0.34347
G01 X0.36092 Y-0.34475
G01 X0.36122 Y-0.36988
G01 X0.36056 Y-0.37207
G01 X0.35805 Y-0.37374
G01 X0.34435 Y-0.37382
G01 X0.34031 Y-0.37740
G01 X0.33599 Y-0.37980
G01 X0.33168 Y-0.38118
G01 X0.32677 Y-0.38169
G01 X0.18163 Y-0.38169
G01 X0.16893 Y-0.39440
G01 X0.16929 Y-0.39803
G01 X0.16837 Y-0.40620
G01 X0.16606 Y-0.41324
G01 X0.16189 Y-0.42034
G01 X0.15660 Y-0.42608
G01 X0.15059 Y-0.43042
G01 X0.14383 Y-0.43345
G01 X0.13621 Y-0.43516
G01 X0.12798 Y-0.43523
G01 X0.12073 Y-0.43371
G01 X0.11319 Y-0.43042
G01 X0.10718 Y-0.42608
G01 X0.10189 Y-0.42034
G01 X0.09772 Y-0.41324
G01 X0.09541 Y-0.40620
G01 X0.09449 Y-0.39803
G04 P0 ( dwell for no time -- G64 should not smooth over this point )
G00 Z0.07874 ( retract )

G00 X0.09449 Y-0.49803 ( rapid move to begin. )
G01 F3.93701
G01 Z-0.00787
G04 P0 ( dwell for no time -- G64 should not smooth over this point )
G01 F7.87402
G01 X0.09449 Y-0.49803
G01 X0.09541 Y-0.48986
G01 X0.09772 Y-0.48282
G01 X0.10141 Y-0.47639
G01 X0.10686 Y-0.47024
G01 X0.11356 Y-0.46545
G01 X0.12073 Y-0.46235
G01 X0.12798 Y-0.46083
G01 X0.13580 Y-0.46083
G01 X0.14383 Y-0.46261
G01 X0.15059 Y-0.46564
G01 X0.15660 Y-0.46998
G01 X0.16215 Y-0.47605
G01 X0.16661 Y-0.48445
G01 X0.32677 Y-0.48445
G01 X0.33168 Y-0.48496
G01 X0.33599 Y-0.48634
G01 X0.34031 Y-0.48873
G01 X0.34437 Y-0.49232
G01 X0.35728 Y-0.49232
G01 X0.36007 Y-0.49347
G01 X0.36122 Y-0.49626
G01 X0.36114 Y-0.52065
G01 X0.36007 Y-0.52267
G01 X0.35805 Y-0.52374
G01 X0.34435 Y-0.52382
G01 X0.34098 Y-0.52692
G01 X0.33638 Y-0.52965
G01 X0.33208 Y-0.53107
G01 X0.32718 Y-0.53167
G01 X0.14779 Y-0.53169
G01 X0.14345 Y-0.53360
G01 X0.13621 Y-0.53516
G01 X0.12798 Y-0.53523
G01 X0.12073 Y-0.53371
G01 X0.11356 Y-0.53061
G01 X0.10686 Y-0.52583
G01 X0.10141 Y-0.51967
G01 X0.09772 Y-0.51324
G01 X0.09541 Y-0.50621
G01 X0.09449 Y-0.49803
G01 X0.09059 Y-0.49885
G04 P0 ( dwell for no time -- G64 should not smooth over this point )
G00 Z0.07874 ( retract )

G00 X0.09449 Y-0.59803 ( rapid move to begin. )
G01 F3.93701
G01 Z-0.00787
G04 P0 ( dwell for no time -- G64 should not smooth over this point )
G01 F7.87402
G01 X0.09449 Y-0.59803
G01 X0.09541 Y-0.60620
G01 X0.09772 Y-0.61324
G01 X0.10141 Y-0.61967
G01 X0.10657 Y-0.62553
G01 X0.11356 Y-0.63061
G01 X0.12073 Y-0.63371
G01 X0.12798 Y-0.63523
G01 X0.13580 Y-0.63523
G01 X0.14383 Y-0.63345
G01 X0.15094 Y-0.63020
G01 X0.15660 Y-0.62609
G01 X0.16070 Y-0.62165
G01 X0.34685 Y-0.62165
G01 X0.35108 Y-0.62126
G01 X0.35553 Y-0.61999
G01 X0.35964 Y-0.61787
G01 X0.36355 Y-0.61473
G01 X0.41066 Y-0.56760
G01 X0.41536 Y-0.56057
G01 X0.41678 Y-0.55616
G01 X0.41730 Y-0.55157
G01 X0.41732 Y-0.48307
G01 X0.41692 Y-0.47884
G01 X0.41565 Y-0.47439
G01 X0.41354 Y-0.47028
G01 X0.41040 Y-0.46637
G01 X0.38512 Y-0.44111
G01 X0.38149 Y-0.43823
G01 X0.37738 Y-0.43612
G01 X0.36909 Y-0.43447
G01 X0.32677 Y-0.43445
G01 X0.32227 Y-0.43490
G01 X0.31680 Y-0.43668
G01 X0.31289 Y-0.43896
G01 X0.30919 Y-0.44232
G01 X0.29549 Y-0.44240
G01 X0.29347 Y-0.44348
G01 X0.29240 Y-0.44549
G01 X0.29232 Y-0.46988
G01 X0.29299 Y-0.47207
G01 X0.29407 Y-0.47315
G01 X0.29626 Y-0.47382
G01 X0.30917 Y-0.47382
G01 X0.31257 Y-0.47692
G01 X0.31680 Y-0.47946
G01 X0.32227 Y-0.48124
G01 X0.35892 Y-0.48169
G01 X0.37008 Y-0.49285
G01 X0.37008 Y-0.54140
G01 X0.33707 Y-0.57441
G01 X0.16070 Y-0.57441
G01 X0.15692 Y-0.57024
G01 X0.15094 Y-0.56586
G01 X0.14383 Y-0.56261
G01 X0.13580 Y-0.56083
G01 X0.12798 Y-0.56083
G01 X0.12073 Y-0.56235
G01 X0.11356 Y-0.56545
G01 X0.10657 Y-0.57053
G01 X0.10163 Y-0.57605
G01 X0.09772 Y-0.58282
G01 X0.09541 Y-0.58986
G01 X0.09449 Y-0.59803
G01 X0.09055 Y-0.59803
G01 X0.09145 Y-0.60663
G01 X0.09383 Y-0.61408
G01 X0.09896 Y-0.62297
G01 X0.10423 Y-0.62875
G01 X0.11195 Y-0.63421
G01 X0.11991 Y-0.63756
G01 X0.12757 Y-0.63914
G01 X0.13621 Y-0.63914
G01 X0.14543 Y-0.63705
G01 X0.15325 Y-0.63338
G01 X0.15891 Y-0.62927
G01 X0.16245 Y-0.62559
G01 X0.34685 Y-0.62559
G01 X0.35146 Y-0.62517
G01 X0.35667 Y-0.62375
G01 X0.36150 Y-0.62134
G01 X0.36634 Y-0.61752
G01 X0.41319 Y-0.57067
G01 X0.41615 Y-0.56711
G01 X0.41883 Y-0.56243
G01 X0.42054 Y-0.55731
G01 X0.42126 Y-0.55118
G01 X0.42126 Y-0.48307
G01 X0.42084 Y-0.47846
G01 X0.41942 Y-0.47325
G01 X0.41701 Y-0.46842
G01 X0.41319 Y-0.46358
G01 X0.38819 Y-0.43858
G01 X0.38463 Y-0.43562
G01 X0.38019 Y-0.43307
G04 P0 ( dwell for no time -- G64 should not smooth over this point )
G00 Z0.07874 ( retract )

G00 X0.50098 Y-0.46988 ( rapid move to begin. )
G01 F3.93701
G01 Z-0.00787
G04 P0 ( dwell for no time -- G64 should not smooth over this point )
G01 F7.87402
G01 X0.50098 Y-0.46988
G01 X0.50492 Y-0.46988
G01 X0.50492 Y-0.44626
G01 X0.50607 Y-0.44348
G01 X0.50886 Y-0.44232
G01 X0.52179 Y-0.44232
G01 X0.52583 Y-0.43873
G01 X0.52976 Y-0.43649
G01 X0.53406 Y-0.43507
G01 X0.53937 Y-0.43445
G01 X0.62697 Y-0.43445
G01 X0.63195 Y-0.43500
G01 X0.63636 Y-0.43641
G01 X0.64040 Y-0.43866
G01 X0.64367 Y-0.44137
G01 X0.75801 Y-0.55571
G01 X0.76572 Y-0.55572
G01 X0.77375 Y-0.55749
G01 X0.78014 Y-0.56034
G01 X0.78652 Y-0.56486
G01 X0.79181 Y-0.57061
G01 X0.79613 Y-0.57808
G01 X0.79839 Y-0.58514
G01 X0.79919 Y-0.59332
G01 X0.79829 Y-0.60109
G01 X0.79598 Y-0.60813
G01 X0.79181 Y-0.61522
G01 X0.78652 Y-0.62097
G01 X0.78014 Y-0.62549
G01 X0.77375 Y-0.62834
G01 X0.76531 Y-0.63013
G01 X0.75790 Y-0.63011
G01 X0.75025 Y-0.62848
G01 X0.74348 Y-0.62549
G01 X0.73710 Y-0.62097
G01 X0.73181 Y-0.61522
G01 X0.72750 Y-0.60774
G01 X0.72516 Y-0.60028
G01 X0.72441 Y-0.59291
G01 X0.72477 Y-0.58928
G01 X0.61718 Y-0.48169
G01 X0.53937 Y-0.48169
G01 X0.53487 Y-0.48124
G01 X0.52939 Y-0.47946
G01 X0.52516 Y-0.47692
G01 X0.52179 Y-0.47382
G01 X0.50735 Y-0.47352
G01 X0.50558 Y-0.47207
G01 X0.50492 Y-0.46988
G04 P0 ( dwell for no time -- G64 should not smooth over this point )
G00 Z0.07874 ( retract )

G00 X0.52795 Y-0.48311 ( rapid move to begin. )
G01 F3.93701
G01 Z-0.00787
G04 P0 ( dwell for no time -- G64 should not smooth over this point )
G01 F7.87402
G01 X0.52795 Y-0.48311
G01 X0.54256 Y-0.48318
G01 X0.55519 Y-0.48563
G01 X0.55858 Y-0.48839
G01 X0.56988 Y-0.48839
G01 X0.57290 Y-0.48899
G01 X0.57545 Y-0.49069
G01 X0.57760 Y-0.49472
G01 X0.57776 Y-0.51988
G01 X0.57716 Y-0.52289
G01 X0.57545 Y-0.52545
G01 X0.57290 Y-0.52716
G01 X0.56693 Y-0.52775
G01 X0.56693 Y-0.66535
G01 X0.72047 Y-0.66535
G01 X0.72107 Y-0.65643
G01 X0.72278 Y-0.65388
G01 X0.72533 Y-0.65217
G01 X0.72835 Y-0.65157
G01 X0.76418 Y-0.65157
G01 X0.84526 Y-0.57054
G01 X0.84952 Y-0.56724
G01 X0.85435 Y-0.56483
G01 X0.85956 Y-0.56341
G01 X0.86417 Y-0.56299
G01 X0.86477 Y-0.55407
G01 X0.86648 Y-0.55152
G01 X0.87051 Y-0.54936
G01 X0.93898 Y-0.54921
G01 X0.94193 Y-0.55315
G01 X0.94291 Y-0.55709
G01 X0.94176 Y-0.55430
G01 X0.93898 Y-0.55315
G01 X0.87128 Y-0.55322
G01 X0.86926 Y-0.55430
G01 X0.86818 Y-0.55632
G01 X0.86811 Y-0.56693
G01 X0.85995 Y-0.56733
G01 X0.85550 Y-0.56860
G01 X0.85138 Y-0.57071
G01 X0.84776 Y-0.57359
G01 X0.76581 Y-0.65551
G01 X0.72684 Y-0.65581
G01 X0.72507 Y-0.65726
G01 X0.72449 Y-0.65868
G01 X0.72441 Y-0.66929
G01 X0.56299 Y-0.66929
G01 X0.56299 Y-0.52382
G01 X0.57065 Y-0.52374
G01 X0.57207 Y-0.52316
G01 X0.57352 Y-0.52139
G01 X0.57374 Y-0.49549
G01 X0.57266 Y-0.49347
G01 X0.57065 Y-0.49240
G01 X0.55683 Y-0.49232
G01 X0.55081 Y-0.48743
G01 X0.54667 Y-0.48560
G01 X0.54143 Y-0.48456
G01 X0.53649 Y-0.48464
G01 X0.53168 Y-0.48575
G01 X0.52721 Y-0.48784
G01 X0.52191 Y-0.49232
G01 X0.50809 Y-0.49240
G01 X0.50607 Y-0.49347
G01 X0.50500 Y-0.49549
G01 X0.50522 Y-0.52139
G01 X0.50667 Y-0.52316
G01 X0.50809 Y-0.52374
G01 X0.51575 Y-0.52382
G01 X0.51575 Y-0.66929
G01 X0.37323 Y-0.66929
G01 X0.36900 Y-0.66969
G01 X0.36455 Y-0.67096
G01 X0.35869 Y-0.67441
G01 X0.16070 Y-0.67441
G01 X0.15660 Y-0.66998
G01 X0.15094 Y-0.66587
G01 X0.14383 Y-0.66261
G01 X0.13580 Y-0.66083
G01 X0.12839 Y-0.66081
G01 X0.12073 Y-0.66235
G01 X0.11319 Y-0.66564
G01 X0.10718 Y-0.66998
G01 X0.10308 Y-0.67441
G01 X0.08418 Y-0.67443
G01 X0.07589 Y-0.67608
G01 X0.07177 Y-0.67819
G01 X0.06786 Y-0.68133
G01 X0.01676 Y-0.73243
G01 X0.01362 Y-0.73634
G01 X0.01151 Y-0.74045
G01 X0.01024 Y-0.74490
G01 X0.00984 Y-0.74913
G01 X0.00984 Y-0.85039
G01 X0.00590 Y-0.85039
G01 X0.00632 Y-0.85501
G01 X0.00774 Y-0.86021
G01 X0.01101 Y-0.86633
G01 X0.03366 Y-0.88957
G01 X0.03850 Y-0.89339
G01 X0.04337 Y-0.89581
G01 X0.06507 Y-0.91752
G01 X0.06992 Y-0.92134
G01 X0.07474 Y-0.92375
G01 X0.07995 Y-0.92517
G01 X0.10132 Y-0.92559
G01 X0.10423 Y-0.92875
G01 X0.11195 Y-0.93420
G01 X0.11991 Y-0.93756
G01 X0.12839 Y-0.93919
G01 X0.13621 Y-0.93914
G01 X0.14543 Y-0.93705
G01 X0.15325 Y-0.93338
G01 X0.15891 Y-0.92927
G01 X0.16245 Y-0.92559
G01 X1.39947 Y-0.92559
G01 X1.40344 Y-0.92993
G01 X1.40974 Y-0.93456
G01 X1.41756 Y-0.93823
G01 X1.42678 Y-0.94032
G01 X1.43328 Y-0.94037
G01 X1.53012 Y-1.03720
G01 X1.53496 Y-1.04103
G01 X1.54348 Y-1.04456
G01 X1.54961 Y-1.04527
G01 X1.77362 Y-1.04527
G01 X1.77377 Y-1.05272
G01 X1.77495 Y-1.05556
G01 X1.77712 Y-1.05773
G01 X1.78150 Y-1.05906
G01 X1.84996 Y-1.05890
G01 X1.85280 Y-1.05773
G01 X1.85570 Y-1.05419
G01 X1.85630 Y-1.04527
G01 X1.92126 Y-1.04527
G01 X1.92141 Y-1.05272
G01 X1.92259 Y-1.05556
G01 X1.92476 Y-1.05773
G01 X1.92913 Y-1.05906
G01 X1.99606 Y-1.05906
G01 X2.00044 Y-1.05773
G01 X2.00261 Y-1.05556
G01 X2.00379 Y-1.05272
G01 X2.00394 Y-0.98425
G01 X2.00334 Y-0.98124
G01 X2.00163 Y-0.97868
G01 X1.99760 Y-0.97653
G01 X1.92760 Y-0.97653
G01 X1.92476 Y-0.97770
G01 X1.92186 Y-0.98124
G01 X1.92126 Y-0.99016
G01 X1.85630 Y-0.99016
G01 X1.85615 Y-0.98272
G01 X1.85497 Y-0.97988
G01 X1.85280 Y-0.97770
G01 X1.84842 Y-0.97638
G01 X1.78150 Y-0.97638
G01 X1.77712 Y-0.97770
G01 X1.77495 Y-0.97988
G01 X1.77377 Y-0.98272
G01 X1.77362 Y-0.99016
G01 X1.56102 Y-0.99016
G01 X1.47226 Y-0.90139
G01 X1.47167 Y-0.89143
G01 X1.46887 Y-0.88240
G01 X1.46499 Y-0.87560
G01 X1.45935 Y-0.86907
G01 X1.45104 Y-0.86304
G01 X1.44308 Y-0.85968
G01 X1.43542 Y-0.85810
G01 X1.42678 Y-0.85810
G01 X1.41756 Y-0.86019
G01 X1.41043 Y-0.86341
G01 X1.40408 Y-0.86797
G01 X1.40160 Y-0.87047
G01 X0.16245 Y-0.87047
G01 X0.15955 Y-0.86731
G01 X0.15325 Y-0.86268
G01 X0.14543 Y-0.85901
G01 X0.13621 Y-0.85692
G01 X0.12839 Y-0.85688
G01 X0.11991 Y-0.85850
G01 X0.11195 Y-0.86186
G01 X0.10487 Y-0.86679
G01 X0.10132 Y-0.87047
G01 X0.09598 Y-0.87047
G01 X0.07552 Y-0.85007
G01 X0.07126 Y-0.84677
G01 X0.06639 Y-0.84435
G01 X0.06102 Y-0.83898
G01 X0.06102 Y-0.76055
G01 X0.09598 Y-0.72559
G01 X0.10132 Y-0.72559
G01 X0.10423 Y-0.72875
G01 X0.11195 Y-0.73420
G01 X0.11991 Y-0.73756
G01 X0.12839 Y-0.73919
G01 X0.13621 Y-0.73914
G01 X0.14543 Y-0.73705
G01 X0.15325 Y-0.73338
G01 X0.15891 Y-0.72927
G01 X0.16245 Y-0.72559
G01 X0.36811 Y-0.72559
G01 X0.37272 Y-0.72517
G01 X0.37793 Y-0.72375
G01 X0.38406 Y-0.72047
G01 X0.72047 Y-0.72047
G01 X0.72107 Y-0.72939
G01 X0.72397 Y-0.73292
G01 X0.72681 Y-0.73410
G01 X0.79681 Y-0.73410
G01 X0.80084 Y-0.73194
G01 X0.80300 Y-0.72791
G01 X0.80315 Y-0.69055
G01 X0.86543 Y-0.62826
G01 X0.86767 Y-0.63056
G01 X0.87205 Y-0.63189
G01 X0.93898 Y-0.63189
G01 X0.93898 Y-0.74843
G01 X0.92327 Y-0.76413
G01 X0.91852 Y-0.76382
G01 X0.91317 Y-0.76450
G01 X0.90464 Y-0.76803
G01 X0.89980 Y-0.77185
G01 X0.87835 Y-0.79331
G01 X0.35984 Y-0.79331
G01 X0.34152 Y-0.77558
G01 X0.33541 Y-0.77231
G01 X0.33020 Y-0.77089
G01 X0.32559 Y-0.77047
G01 X0.16245 Y-0.77047
G01 X0.15955 Y-0.76731
G01 X0.15325 Y-0.76268
G01 X0.14543 Y-0.75901
G01 X0.13621 Y-0.75692
G01 X0.12757 Y-0.75692
G01 X0.11835 Y-0.75901
G01 X0.11122 Y-0.76223
G01 X0.10487 Y-0.76679
G01 X0.09845 Y-0.77373
G01 X0.09413 Y-0.78122
G01 X0.09167 Y-0.78864
G01 X0.09055 Y-0.79803
G01 X0.09145 Y-0.80663
G01 X0.09383 Y-0.81407
G01 X0.09896 Y-0.82297
G01 X0.10423 Y-0.82875
G01 X0.11195 Y-0.83420
G01 X0.11991 Y-0.83756
G01 X0.12675 Y-0.83901
G01 X0.13621 Y-0.83914
G01 X0.14543 Y-0.83705
G01 X0.15325 Y-0.83338
G01 X0.15891 Y-0.82927
G01 X0.16245 Y-0.82559
G01 X0.31417 Y-0.82559
G01 X0.32894 Y-0.84035
G01 X0.33378 Y-0.84418
G01 X0.34230 Y-0.84771
G01 X0.34842 Y-0.84842
G01 X0.88976 Y-0.84842
G01 X0.89589 Y-0.84771
G01 X0.90441 Y-0.84418
G01 X0.90925 Y-0.84035
G01 X0.92319 Y-0.82642
G01 X1.40054 Y-0.82677
G01 X1.40344 Y-0.82993
G01 X1.41117 Y-0.83539
G01 X1.41912 Y-0.83874
G01 X1.42760 Y-0.84037
G01 X1.43542 Y-0.84032
G01 X1.44465 Y-0.83823
G01 X1.45246 Y-0.83456
G01 X1.45812 Y-0.83045
G01 X1.46167 Y-0.82677
G01 X1.71063 Y-0.82677
G01 X1.72795 Y-0.84409
G01 X1.72837 Y-0.86288
G01 X1.73038 Y-0.86951
G01 X1.73306 Y-0.87420
G01 X1.77381 Y-0.91554
G01 X1.77474 Y-0.92711
G01 X1.77720 Y-0.93453
G01 X1.78204 Y-0.94266
G01 X1.78730 Y-0.94844
G01 X1.79360 Y-0.95307
G01 X1.80298 Y-0.95725
G01 X1.81146 Y-0.95887
G01 X1.81928 Y-0.95883
G01 X1.82694 Y-0.95725
G01 X1.83563 Y-0.95352
G01 X1.84198 Y-0.94895
G01 X1.84840 Y-0.94201
G01 X1.85235 Y-0.93526
G01 X1.85518 Y-0.92711
G01 X1.85626 Y-0.91689
G01 X1.85518 Y-0.90833
G01 X1.85272 Y-0.90090
G01 X1.84885 Y-0.89411
G01 X1.84262 Y-0.88699
G01 X1.83563 Y-0.88192
G01 X1.82850 Y-0.87870
G01 X1.81928 Y-0.87660
G01 X1.81278 Y-0.87656
G01 X1.79645 Y-0.86024
G01 X1.87575 Y-0.86024
G01 X1.87631 Y-0.86439
G01 X1.87802 Y-0.86951
G01 X1.88314 Y-0.87718
G01 X1.92145 Y-0.91554
G01 X1.92238 Y-0.92711
G01 X1.92521 Y-0.93526
G01 X1.92915 Y-0.94201
G01 X1.93494 Y-0.94844
G01 X1.94124 Y-0.95307
G01 X1.95062 Y-0.95725
G01 X1.95910 Y-0.95887
G01 X1.96692 Y-0.95883
G01 X1.97458 Y-0.95725
G01 X1.98327 Y-0.95352
G01 X1.98962 Y-0.94895
G01 X1.99604 Y-0.94201
G01 X1.99999 Y-0.93526
G01 X2.00282 Y-0.92711
G01 X2.00389 Y-0.91854
G01 X2.00316 Y-0.90994
G01 X2.00066 Y-0.90167
G01 X1.99604 Y-0.89342
G01 X1.99026 Y-0.88699
G01 X1.98327 Y-0.88192
G01 X1.97614 Y-0.87870
G01 X1.96692 Y-0.87660
G01 X1.96042 Y-0.87656
G01 X1.93071 Y-0.84685
G01 X1.93071 Y-0.84409
G01 X1.96042 Y-0.81438
G01 X1.96692 Y-0.81434
G01 X1.97614 Y-0.81225
G01 X1.98327 Y-0.80903
G01 X1.98962 Y-0.80447
G01 X1.99649 Y-0.79683
G01 X2.00066 Y-0.78927
G01 X2.00282 Y-0.78262
G01 X2.00394 Y-0.77323
G01 X2.00316 Y-0.76545
G01 X2.00066 Y-0.75718
G01 X1.99604 Y-0.74893
G01 X1.99084 Y-0.74309
G01 X1.98327 Y-0.73743
G01 X1.97458 Y-0.73370
G01 X1.96692 Y-0.73212
G01 X1.95828 Y-0.73212
G01 X1.94905 Y-0.73421
G01 X1.94193 Y-0.73743
G01 X1.93435 Y-0.74309
G01 X1.92915 Y-0.74893
G01 X1.92454 Y-0.75718
G01 X1.92203 Y-0.76545
G01 X1.92145 Y-0.77541
G01 X1.89173 Y-0.80512
G01 X1.84109 Y-0.80512
G01 X1.84840 Y-0.79753
G01 X1.85302 Y-0.78927
G01 X1.85518 Y-0.78262
G01 X1.85626 Y-0.77405
G01 X1.85518 Y-0.76384
G01 X1.85272 Y-0.75641
G01 X1.84885 Y-0.74962
G01 X1.84262 Y-0.74251
G01 X1.83563 Y-0.73743
G01 X1.82850 Y-0.73421
G01 X1.81846 Y-0.73207
G01 X1.81064 Y-0.73212
G01 X1.80142 Y-0.73421
G01 X1.79429 Y-0.73743
G01 X1.78672 Y-0.74309
G01 X1.78152 Y-0.74893
G01 X1.77690 Y-0.75718
G01 X1.77440 Y-0.76545
G01 X1.77381 Y-0.77541
G01 X1.75551 Y-0.79370
G01 X1.73798 Y-0.77676
G01 X1.73329 Y-0.77408
G01 X1.72666 Y-0.77207
G01 X1.72205 Y-0.77165
G01 X1.46167 Y-0.77165
G01 X1.45876 Y-0.76849
G01 X1.45104 Y-0.76304
G01 X1.44308 Y-0.75968
G01 X1.43460 Y-0.75806
G01 X1.42678 Y-0.75810
G01 X1.41756 Y-0.76019
G01 X1.40974 Y-0.76386
G01 X1.40408 Y-0.76797
G01 X1.40054 Y-0.77165
G01 X0.99136 Y-0.77165
G01 X0.99338 Y-0.76597
G01 X0.99409 Y-0.75984
G01 X0.99409 Y-0.16126
G01 X0.99368 Y-0.15665
G01 X0.99167 Y-0.15001
G01 X0.98654 Y-0.14234
G01 X0.94287 Y-0.09862
G01 X0.93932 Y-0.09566
G01 X0.93463 Y-0.09298
G01 X0.92951 Y-0.09127
G01 X0.92416 Y-0.09059
G01 X0.83661 Y-0.09055
G01 X0.83049 Y-0.09127
G01 X0.82196 Y-0.09480
G01 X0.81713 Y-0.09862
G01 X0.76399 Y-0.15176
G01 X0.75749 Y-0.15180
G01 X0.74904 Y-0.15360
G01 X0.74188 Y-0.15674
G01 X0.73415 Y-0.16219
G01 X0.72792 Y-0.16931
G01 X0.72375 Y-0.17687
G01 X0.72137 Y-0.18432
G01 X0.72066 Y-0.19509
G01 X0.58524 Y-0.33051
G01 X0.53937 Y-0.33051
G01 X0.53364 Y-0.33111
G01 X0.52743 Y-0.33327
G01 X0.52021 Y-0.33838
G01 X0.50886 Y-0.33838
G01 X0.50584 Y-0.33898
G01 X0.50231 Y-0.34188
G01 X0.50098 Y-0.34626
G01 X0.50113 Y-0.37142
G01 X0.50329 Y-0.37545
G01 X0.50584 Y-0.37716
G01 X0.50886 Y-0.37776
G01 X0.52021 Y-0.37776
G01 X0.52386 Y-0.38082
G01 X0.52787 Y-0.38307
G01 X0.52386 Y-0.38533
G01 X0.52021 Y-0.38838
G01 X0.50732 Y-0.38854
G01 X0.50448 Y-0.38971
G01 X0.50231 Y-0.39188
G01 X0.50098 Y-0.39626
G01 X0.50098 Y-0.41988
G01 X0.50113 Y-0.42142
G01 X0.50329 Y-0.42545
G01 X0.50584 Y-0.42716
G01 X0.50886 Y-0.42775
G01 X0.52021 Y-0.42775
G01 X0.52386 Y-0.43082
G01 X0.52787 Y-0.43307
G01 X0.52386 Y-0.43533
G01 X0.52021 Y-0.43839
G01 X0.50732 Y-0.43854
G01 X0.50448 Y-0.43971
G01 X0.50231 Y-0.44188
G01 X0.50098 Y-0.44626
G01 X0.50098 Y-0.46988
G01 X0.50113 Y-0.47142
G01 X0.50329 Y-0.47545
G01 X0.50584 Y-0.47716
G01 X0.50886 Y-0.47775
G01 X0.52021 Y-0.47775
G01 X0.52386 Y-0.48081
G01 X0.52795 Y-0.48311
G01 X0.52490 Y-0.48465
G01 X0.52016 Y-0.48839
G01 X0.50732 Y-0.48854
G01 X0.50329 Y-0.49069
G01 X0.50113 Y-0.49472
G01 X0.50098 Y-0.51988
G01 X0.50158 Y-0.52289
G01 X0.50329 Y-0.52545
G01 X0.50584 Y-0.52716
G01 X0.51181 Y-0.52775
G01 X0.51181 Y-0.66535
G01 X0.37323 Y-0.66535
G01 X0.36862 Y-0.66577
G01 X0.36341 Y-0.66719
G01 X0.35728 Y-0.67047
G01 X0.16245 Y-0.67047
G01 X0.15955 Y-0.66731
G01 X0.15325 Y-0.66268
G01 X0.14543 Y-0.65901
G01 X0.13621 Y-0.65692
G01 X0.12839 Y-0.65688
G01 X0.11991 Y-0.65850
G01 X0.11195 Y-0.66186
G01 X0.10487 Y-0.66679
G01 X0.10132 Y-0.67047
G01 X0.08379 Y-0.67051
G01 X0.07474 Y-0.67231
G01 X0.06992 Y-0.67472
G01 X0.06507 Y-0.67854
G01 X0.01398 Y-0.72964
G01 X0.01015 Y-0.73448
G01 X0.00774 Y-0.73931
G01 X0.00632 Y-0.74452
G01 X0.00590 Y-0.74913
G01 X0.00590 Y-0.85039
G04 P0 ( dwell for no time -- G64 should not smooth over this point )
G00 Z0.07874 ( retract )

G00 X0.09055 Y-1.03150 ( rapid move to begin. )
G01 F3.93701
G01 Z-0.00787
G04 P0 ( dwell for no time -- G64 should not smooth over this point )
G01 F7.87402
G01 X0.09055 Y-1.03150
G01 X0.09055 Y-0.96457
G01 X0.09115 Y-0.96155
G01 X0.09286 Y-0.95900
G01 X0.09541 Y-0.95729
G01 X0.09842 Y-0.95669
G01 X0.16535 Y-0.95669
G01 X0.16837 Y-0.95729
G01 X0.17092 Y-0.95900
G01 X0.17263 Y-0.96155
G01 X0.17323 Y-0.96457
G01 X0.17323 Y-1.03150
G01 X0.17263 Y-1.03451
G01 X0.17092 Y-1.03706
G01 X0.16837 Y-1.03877
G01 X0.16535 Y-1.03937
G01 X0.09842 Y-1.03937
G01 X0.09541 Y-1.03877
G01 X0.09286 Y-1.03706
G01 X0.09115 Y-1.03451
G01 X0.09055 Y-1.03150
G01 X0.09449 Y-1.03150
G01 X0.09449 Y-0.96457
G01 X0.09564 Y-0.96178
G01 X0.09842 Y-0.96063
G01 X0.16535 Y-0.96063
G01 X0.16814 Y-0.96178
G01 X0.16929 Y-0.96457
G01 X0.16929 Y-1.03150
G01 X0.16814 Y-1.03428
G01 X0.16535 Y-1.03543
G01 X0.09842 Y-1.03543
G01 X0.09564 Y-1.03428
G01 X0.09449 Y-1.03150
G04 P0 ( dwell for no time -- G64 should not smooth over this point )
G00 Z0.07874 ( retract )

G00 X0.00984 Y-0.85039 ( rapid move to begin. )
G01 F3.93701
G01 Z-0.00787
G04 P0 ( dwell for no time -- G64 should not smooth over this point )
G01 F7.87402
G01 X0.00984 Y-0.85039
G01 X0.01039 Y-0.85538
G01 X0.01180 Y-0.85978
G01 X0.01405 Y-0.86383
G01 X0.01676 Y-0.86710
G01 X0.03645 Y-0.88678
G01 X0.04036 Y-0.88992
G01 X0.04546 Y-0.89233
G01 X0.07113 Y-0.91744
G01 X0.07517 Y-0.91969
G01 X0.08034 Y-0.92126
G01 X0.10308 Y-0.92165
G01 X0.10718 Y-0.92609
G01 X0.11319 Y-0.93042
G01 X0.12073 Y-0.93371
G01 X0.12798 Y-0.93523
G01 X0.13580 Y-0.93523
G01 X0.14383 Y-0.93345
G01 X0.15094 Y-0.93020
G01 X0.15660 Y-0.92609
G01 X0.16070 Y-0.92165
G01 X1.40123 Y-0.92165
G01 X1.40607 Y-0.92701
G01 X1.41206 Y-0.93138
G01 X1.41916 Y-0.93463
G01 X1.42719 Y-0.93641
G01 X1.43488 Y-0.93640
G01 X1.53290 Y-1.03442
G01 X1.53681 Y-1.03756
G01 X1.54462 Y-1.04079
G01 X1.54961 Y-1.04134
G01 X1.77756 Y-1.04134
G01 X1.77763 Y-1.05195
G01 X1.77931 Y-1.05445
G01 X1.78150 Y-1.05512
G01 X1.84919 Y-1.05504
G01 X1.85121 Y-1.05396
G01 X1.85229 Y-1.05195
G01 X1.85236 Y-1.04134
G01 X1.92520 Y-1.04134
G01 X1.92527 Y-1.05195
G01 X1.92635 Y-1.05396
G01 X1.92837 Y-1.05504
G01 X1.99606 Y-1.05512
G01 X1.99825 Y-1.05445
G01 X1.99970 Y-1.05269
G01 X2.00000 Y-0.98425
G01 X1.99934 Y-0.98206
G01 X1.99683 Y-0.98039
G01 X1.92837 Y-0.98039
G01 X1.92635 Y-0.98147
G01 X1.92527 Y-0.98348
G01 X1.92520 Y-0.99409
G01 X1.85236 Y-0.99409
G01 X1.85229 Y-0.98348
G01 X1.85121 Y-0.98147
G01 X1.84919 Y-0.98039
G01 X1.78150 Y-0.98031
G01 X1.77931 Y-0.98098
G01 X1.77763 Y-0.98348
G01 X1.77756 Y-0.99409
G01 X1.55939 Y-0.99409
G01 X1.46814 Y-0.90285
G01 X1.46848 Y-0.89880
G01 X1.46775 Y-0.89184
G01 X1.46542 Y-0.88438
G01 X1.46158 Y-0.87757
G01 X1.45642 Y-0.87171
G01 X1.44944 Y-0.86663
G01 X1.44226 Y-0.86353
G01 X1.43501 Y-0.86201
G01 X1.42719 Y-0.86201
G01 X1.41916 Y-0.86379
G01 X1.41206 Y-0.86705
G01 X1.40640 Y-0.87116
G01 X1.40335 Y-0.87441
G01 X0.16070 Y-0.87441
G01 X0.15660 Y-0.86998
G01 X0.15094 Y-0.86586
G01 X0.14383 Y-0.86261
G01 X0.13580 Y-0.86083
G01 X0.12839 Y-0.86081
G01 X0.12073 Y-0.86235
G01 X0.11319 Y-0.86564
G01 X0.10718 Y-0.86998
G01 X0.10308 Y-0.87441
G01 X0.09435 Y-0.87441
G01 X0.07303 Y-0.85311
G01 X0.06940 Y-0.85024
G01 X0.06430 Y-0.84783
G01 X0.05709 Y-0.84061
G01 X0.05709 Y-0.75892
G01 X0.09435 Y-0.72165
G01 X0.10308 Y-0.72165
G01 X0.10718 Y-0.72608
G01 X0.11319 Y-0.73042
G01 X0.12073 Y-0.73371
G01 X0.12839 Y-0.73525
G01 X0.13580 Y-0.73523
G01 X0.14383 Y-0.73345
G01 X0.15094 Y-0.73020
G01 X0.15660 Y-0.72608
G01 X0.16070 Y-0.72165
G01 X0.36811 Y-0.72165
G01 X0.37234 Y-0.72126
G01 X0.37679 Y-0.71998
G01 X0.38265 Y-0.71654
G01 X0.72441 Y-0.71654
G01 X0.72449 Y-0.72715
G01 X0.72556 Y-0.72916
G01 X0.72758 Y-0.73024
G01 X0.79604 Y-0.73024
G01 X0.79855 Y-0.72857
G01 X0.79921 Y-0.72638
G01 X0.79921 Y-0.68892
G01 X0.86811 Y-0.62002
G01 X0.86841 Y-0.62552
G01 X0.86986 Y-0.62729
G01 X0.87205 Y-0.62795
G01 X0.93898 Y-0.62795
G01 X0.94116 Y-0.62729
G01 X0.94247 Y-0.62579
G01 X0.94193 Y-0.62795
G01 X0.93898 Y-0.63189
G04 P0 ( dwell for no time -- G64 should not smooth over this point )
G00 Z0.07874 ( retract )

G00 X0.94247 Y-0.62579 ( rapid move to begin. )
G01 F3.93701
G01 Z-0.00787
G04 P0 ( dwell for no time -- G64 should not smooth over this point )
G01 F7.87402
G01 X0.94247 Y-0.62579
G01 X0.94291 Y-0.62401
G01 X0.94291 Y-0.48656
G01 X0.94210 Y-0.49833
G01 X0.93983 Y-0.50538
G01 X0.93599 Y-0.51219
G01 X0.93083 Y-0.51805
G01 X0.92456 Y-0.52272
G01 X0.91707 Y-0.52612
G01 X0.90942 Y-0.52775
G01 X0.90201 Y-0.52777
G01 X0.89357 Y-0.52597
G01 X0.88646 Y-0.52272
G01 X0.88019 Y-0.51805
G01 X0.87503 Y-0.51219
G01 X0.87120 Y-0.50538
G01 X0.86893 Y-0.49833
G01 X0.86811 Y-0.49055
G01 X0.86893 Y-0.48277
G01 X0.87153 Y-0.47497
G01 X0.87551 Y-0.46825
G01 X0.88048 Y-0.46276
G01 X0.88646 Y-0.45838
G01 X0.89395 Y-0.45498
G01 X0.90160 Y-0.45335
G01 X0.90929 Y-0.45336
G01 X0.94291 Y-0.41974
G01 X0.94291 Y-0.17104
G01 X0.91360 Y-0.14173
G01 X0.84640 Y-0.14173
G01 X0.79885 Y-0.18928
G01 X0.79921 Y-0.19291
G01 X0.79846 Y-0.20028
G01 X0.79613 Y-0.20774
G01 X0.79229 Y-0.21455
G01 X0.78684 Y-0.22071
G01 X0.78014 Y-0.22549
G01 X0.77337 Y-0.22848
G01 X0.76572 Y-0.23011
G01 X0.75801 Y-0.23012
G01 X0.61336 Y-0.37477
G01 X0.60945 Y-0.37791
G01 X0.60164 Y-0.38115
G01 X0.59704 Y-0.38167
G01 X0.53896 Y-0.38167
G01 X0.53406 Y-0.38107
G01 X0.52976 Y-0.37965
G01 X0.52516 Y-0.37692
G01 X0.52177 Y-0.37382
G01 X0.50735 Y-0.37352
G01 X0.50558 Y-0.37207
G01 X0.50492 Y-0.36988
G01 X0.50492 Y-0.34626
G01 X0.50558 Y-0.34407
G01 X0.50735 Y-0.34262
G01 X0.52179 Y-0.34232
G01 X0.52516 Y-0.33922
G01 X0.52976 Y-0.33649
G01 X0.53406 Y-0.33507
G01 X0.53896 Y-0.33447
G01 X0.58687 Y-0.33445
G01 X0.72477 Y-0.19655
G01 X0.72441 Y-0.19291
G01 X0.72516 Y-0.18554
G01 X0.72750 Y-0.17808
G01 X0.73133 Y-0.17127
G01 X0.73678 Y-0.16512
G01 X0.74348 Y-0.16034
G01 X0.75025 Y-0.15734
G01 X0.75790 Y-0.15572
G01 X0.76561 Y-0.15571
G01 X0.81991 Y-0.10141
G01 X0.82382 Y-0.09827
G01 X0.83163 Y-0.09503
G01 X0.83661 Y-0.09449
G01 X0.92377 Y-0.09451
G01 X0.92837 Y-0.09503
G01 X0.93277 Y-0.09645
G01 X0.93682 Y-0.09870
G01 X0.94009 Y-0.10141
G01 X0.98350 Y-0.14484
G01 X0.98819 Y-0.15187
G01 X0.98961 Y-0.15628
G01 X0.99014 Y-0.16087
G01 X0.99016 Y-0.75984
G01 X0.98976 Y-0.76407
G01 X0.98849 Y-0.76852
G01 X0.98405 Y-0.77559
G01 X1.40229 Y-0.77559
G01 X1.40640 Y-0.77116
G01 X1.41206 Y-0.76705
G01 X1.41916 Y-0.76379
G01 X1.42719 Y-0.76201
G01 X1.43460 Y-0.76199
G01 X1.44226 Y-0.76353
G01 X1.44944 Y-0.76663
G01 X1.45613 Y-0.77142
G01 X1.45992 Y-0.77559
G01 X1.72627 Y-0.77599
G01 X1.73144 Y-0.77755
G01 X1.73548 Y-0.77980
G01 X1.75551 Y-0.79927
G01 X1.77792 Y-0.77686
G01 X1.77756 Y-0.77323
G01 X1.77831 Y-0.76586
G01 X1.78064 Y-0.75840
G01 X1.78470 Y-0.75124
G01 X1.78964 Y-0.74572
G01 X1.79591 Y-0.74106
G01 X1.80302 Y-0.73781
G01 X1.81105 Y-0.73603
G01 X1.81846 Y-0.73601
G01 X1.82612 Y-0.73755
G01 X1.83329 Y-0.74065
G01 X1.84028 Y-0.74572
G01 X1.84544 Y-0.75159
G01 X1.84928 Y-0.75840
G01 X1.85144 Y-0.76505
G01 X1.85234 Y-0.77282
G01 X1.85144 Y-0.78140
G01 X1.84894 Y-0.78881
G01 X1.84522 Y-0.79521
G01 X1.84028 Y-0.80073
G01 X1.83401 Y-0.80539
G01 X1.82542 Y-0.80905
G01 X1.89336 Y-0.80905
G01 X1.92556 Y-0.77686
G01 X1.92522 Y-0.77282
G01 X1.92595 Y-0.76586
G01 X1.92828 Y-0.75840
G01 X1.93234 Y-0.75124
G01 X1.93728 Y-0.74572
G01 X1.94426 Y-0.74065
G01 X1.95144 Y-0.73755
G01 X1.95869 Y-0.73603
G01 X1.96691 Y-0.73610
G01 X1.97454 Y-0.73781
G01 X1.98164 Y-0.74106
G01 X1.98792 Y-0.74572
G01 X1.99308 Y-0.75159
G01 X1.99691 Y-0.75840
G01 X1.99925 Y-0.76586
G01 X2.00000 Y-0.77323
G01 X1.99925 Y-0.78060
G01 X1.99691 Y-0.78806
G01 X1.99260 Y-0.79553
G01 X1.98792 Y-0.80073
G01 X1.98164 Y-0.80539
G01 X1.97376 Y-0.80891
G01 X1.96651 Y-0.81042
G01 X1.95880 Y-0.81043
G01 X1.92677 Y-0.84246
G01 X1.92677 Y-0.84848
G01 X1.95880 Y-0.88051
G01 X1.96691 Y-0.88058
G01 X1.97376 Y-0.88204
G01 X1.98093 Y-0.88514
G01 X1.98730 Y-0.88966
G01 X1.99286 Y-0.89573
G01 X1.99691 Y-0.90289
G01 X1.99925 Y-0.91035
G01 X2.00000 Y-0.91772
G01 X1.99925 Y-0.92509
G01 X1.99691 Y-0.93254
G01 X1.99286 Y-0.93970
G01 X1.98730 Y-0.94577
G01 X1.98093 Y-0.95029
G01 X1.97376 Y-0.95339
G01 X1.96651 Y-0.95491
G01 X1.95869 Y-0.95491
G01 X1.95144 Y-0.95339
G01 X1.94426 Y-0.95029
G01 X1.93789 Y-0.94577
G01 X1.93234 Y-0.93970
G01 X1.92828 Y-0.93254
G01 X1.92595 Y-0.92509
G01 X1.92520 Y-0.91772
G01 X1.92556 Y-0.91408
G01 X1.88374 Y-0.87170
G01 X1.88149 Y-0.86766
G01 X1.88007 Y-0.86325
G01 X1.87953 Y-0.85630
G01 X1.78695 Y-0.85630
G01 X1.81116 Y-0.88051
G01 X1.81887 Y-0.88052
G01 X1.82690 Y-0.88229
G01 X1.83401 Y-0.88555
G01 X1.83999 Y-0.88992
G01 X1.84496 Y-0.89541
G01 X1.84894 Y-0.90214
G01 X1.85161 Y-0.91035
G01 X1.85236 Y-0.91772
G01 X1.85161 Y-0.92509
G01 X1.84928 Y-0.93254
G01 X1.84522 Y-0.93970
G01 X1.83967 Y-0.94577
G01 X1.83329 Y-0.95029
G01 X1.82612 Y-0.95339
G01 X1.81928 Y-0.95485
G01 X1.81105 Y-0.95491
G01 X1.80302 Y-0.95314
G01 X1.79663 Y-0.95029
G01 X1.79025 Y-0.94577
G01 X1.78496 Y-0.94002
G01 X1.78098 Y-0.93330
G01 X1.77848 Y-0.92589
G01 X1.77756 Y-0.91772
G01 X1.77792 Y-0.91408
G01 X1.73610 Y-0.87170
G01 X1.73356 Y-0.86694
G01 X1.73229 Y-0.86249
G01 X1.73189 Y-0.84246
G01 X1.71226 Y-0.82283
G01 X1.45992 Y-0.82283
G01 X1.45581 Y-0.82727
G01 X1.45015 Y-0.83138
G01 X1.44304 Y-0.83464
G01 X1.43501 Y-0.83641
G01 X1.42760 Y-0.83643
G01 X1.41994 Y-0.83489
G01 X1.41277 Y-0.83179
G01 X1.40607 Y-0.82701
G01 X1.40229 Y-0.82283
G01 X0.92717 Y-0.82283
G01 X0.92185 Y-0.82219
G01 X0.90320 Y-0.84028
G01 X0.89844 Y-0.84282
G01 X0.89399 Y-0.84409
G01 X0.88976 Y-0.84449
G01 X0.34842 Y-0.84449
G01 X0.34420 Y-0.84409
G01 X0.33975 Y-0.84282
G01 X0.33499 Y-0.84028
G01 X0.31581 Y-0.82165
G01 X0.16070 Y-0.82165
G01 X0.15660 Y-0.82608
G01 X0.15094 Y-0.83020
G01 X0.14383 Y-0.83345
G01 X0.13580 Y-0.83523
G01 X0.12839 Y-0.83525
G01 X0.12073 Y-0.83371
G01 X0.11319 Y-0.83042
G01 X0.10686 Y-0.82583
G01 X0.10189 Y-0.82034
G01 X0.09757 Y-0.81286
G01 X0.09524 Y-0.80540
G01 X0.09449 Y-0.79803
G01 X0.09055 Y-0.79803
G04 P0 ( dwell for no time -- G64 should not smooth over this point )
G00 Z0.07874 ( retract )

G00 X0.09055 Y-0.59803 ( rapid move to begin. )
G01 F3.93701
G01 Z-0.00787
G04 P0 ( dwell for no time -- G64 should not smooth over this point )
G01 F7.87402
G01 X0.09055 Y-0.59803
G01 X0.09167 Y-0.58864
G01 X0.09413 Y-0.58122
G01 X0.09845 Y-0.57373
G01 X0.10365 Y-0.56789
G01 X0.11195 Y-0.56186
G01 X0.11991 Y-0.55850
G01 X0.12757 Y-0.55692
G01 X0.13621 Y-0.55692
G01 X0.14543 Y-0.55901
G01 X0.15325 Y-0.56268
G01 X0.15955 Y-0.56731
G01 X0.16245 Y-0.57047
G01 X0.33543 Y-0.57047
G01 X0.36614 Y-0.53977
G01 X0.36614 Y-0.49449
G01 X0.35729 Y-0.48563
G01 X0.34270 Y-0.48563
G01 X0.33197 Y-0.48338
G01 X0.32093 Y-0.48272
G01 X0.31084 Y-0.48051
G01 X0.16929 Y-0.48051
G01 X0.16481 Y-0.47309
G01 X0.16013 Y-0.46789
G01 X0.15325 Y-0.46268
G01 X0.14543 Y-0.45901
G01 X0.13621 Y-0.45692
G01 X0.12757 Y-0.45692
G01 X0.11911 Y-0.45872
G01 X0.11195 Y-0.46186
G01 X0.10423 Y-0.46731
G01 X0.09800 Y-0.47442
G01 X0.09383 Y-0.48199
G01 X0.09145 Y-0.48944
G01 X0.09059 Y-0.49885
G01 X0.09145 Y-0.50663
G01 X0.09383 Y-0.51407
G01 X0.09896 Y-0.52297
G01 X0.10423 Y-0.52875
G01 X0.11053 Y-0.53338
G01 X0.11991 Y-0.53756
G01 X0.12757 Y-0.53914
G01 X0.13539 Y-0.53919
G01 X0.14387 Y-0.53756
G01 X0.14863 Y-0.53563
G01 X0.32759 Y-0.53559
G01 X0.33330 Y-0.53481
G01 X0.33798 Y-0.53325
G01 X0.34228 Y-0.53082
G01 X0.34593 Y-0.52775
G01 X0.35728 Y-0.52775
G01 X0.36030 Y-0.52716
G01 X0.36383 Y-0.52426
G01 X0.36516 Y-0.51988
G01 X0.36501 Y-0.49472
G01 X0.36214 Y-0.49027
G01 X0.35882 Y-0.48854
G01 X0.34593 Y-0.48839
G01 X0.34280 Y-0.48566
G01 X0.33808 Y-0.48436
G01 X0.33144 Y-0.48330
G01 X0.32093 Y-0.48272
G04 P0 ( dwell for no time -- G64 should not smooth over this point )
G00 Z0.07874 ( retract )

G00 X0.09449 Y-0.79803 ( rapid move to begin. )
G01 F3.93701
G01 Z-0.00787
G04 P0 ( dwell for no time -- G64 should not smooth over this point )
G01 F7.87402
G01 X0.09449 Y-0.79803
G01 X0.09541 Y-0.78986
G01 X0.09772 Y-0.78282
G01 X0.10163 Y-0.77605
G01 X0.10657 Y-0.77053
G01 X0.11356 Y-0.76545
G01 X0.12073 Y-0.76235
G01 X0.12839 Y-0.76081
G01 X0.13580 Y-0.76083
G01 X0.14383 Y-0.76261
G01 X0.15094 Y-0.76587
G01 X0.15660 Y-0.76998
G01 X0.16070 Y-0.77441
G01 X0.32982 Y-0.77481
G01 X0.33498 Y-0.77637
G01 X0.33902 Y-0.77862
G01 X0.35821 Y-0.79724
G01 X0.87998 Y-0.79724
G01 X0.90259 Y-0.77463
G01 X0.90650 Y-0.77150
G01 X0.91061 Y-0.76938
G01 X0.91507 Y-0.76811
G01 X0.91968 Y-0.76773
G01 X0.92461 Y-0.76836
G01 X0.94291 Y-0.75006
G01 X0.94291 Y-0.62401
G04 P0 ( dwell for no time -- G64 should not smooth over this point )
G00 Z0.07874 ( retract )

G00 X0.93898 Y-0.54921 ( rapid move to begin. )
G01 F3.93701
G01 Z-0.00787
G04 P0 ( dwell for no time -- G64 should not smooth over this point )
G01 F7.87402
G01 X0.93898 Y-0.54921
G01 X0.93898 Y-0.51482
G01 X0.93253 Y-0.52179
G01 X0.92618 Y-0.52635
G01 X0.91905 Y-0.52957
G01 X0.90901 Y-0.53171
G01 X0.90038 Y-0.53153
G01 X0.89353 Y-0.53008
G01 X0.88415 Y-0.52590
G01 X0.87785 Y-0.52127
G01 X0.87259 Y-0.51549
G01 X0.86745 Y-0.50660
G01 X0.86508 Y-0.49915
G01 X0.86417 Y-0.49055
G01 X0.86508 Y-0.48196
G01 X0.86745 Y-0.47451
G01 X0.87207 Y-0.46625
G01 X0.87785 Y-0.45983
G01 X0.88558 Y-0.45438
G01 X0.89274 Y-0.45123
G01 X0.90119 Y-0.44944
G01 X0.90769 Y-0.44939
G01 X0.93898 Y-0.41811
G01 X0.93898 Y-0.41475
G01 X0.94118 Y-0.40642
G01 X0.93893 Y-0.41487
G01 X0.93376 Y-0.42069
G01 X0.92687 Y-0.42590
G01 X0.91749 Y-0.43008
G01 X0.90983 Y-0.43166
G01 X0.90201 Y-0.43171
G01 X0.89353 Y-0.43008
G01 X0.88484 Y-0.42635
G01 X0.87785 Y-0.42127
G01 X0.87495 Y-0.41811
G01 X0.79450 Y-0.41811
G01 X0.78947 Y-0.42363
G01 X0.78175 Y-0.42909
G01 X0.77458 Y-0.43223
G01 X0.76531 Y-0.43407
G01 X0.75749 Y-0.43402
G01 X0.74827 Y-0.43193
G01 X0.74114 Y-0.42871
G01 X0.73357 Y-0.42305
G01 X0.72837 Y-0.41721
G01 X0.72375 Y-0.40896
G01 X0.72137 Y-0.40151
G01 X0.72047 Y-0.39291
G01 X0.72137 Y-0.38432
G01 X0.72375 Y-0.37687
G01 X0.72837 Y-0.36862
G01 X0.73415 Y-0.36219
G01 X0.74045 Y-0.35756
G01 X0.74983 Y-0.35338
G01 X0.75749 Y-0.35180
G01 X0.76531 Y-0.35176
G01 X0.77379 Y-0.35338
G01 X0.78248 Y-0.35711
G01 X0.79025 Y-0.36299
G01 X0.87495 Y-0.36299
G01 X0.87785 Y-0.35983
G01 X0.88558 Y-0.35438
G01 X0.89274 Y-0.35124
G01 X0.90201 Y-0.34940
G01 X0.90983 Y-0.34944
G01 X0.91905 Y-0.35153
G01 X0.92618 Y-0.35475
G01 X0.93376 Y-0.36041
G01 X0.93914 Y-0.36698
G01 X0.93898 Y-0.31475
G01 X0.94133 Y-0.30587
G01 X0.93893 Y-0.31488
G01 X0.93376 Y-0.32069
G01 X0.92687 Y-0.32590
G01 X0.91749 Y-0.33008
G01 X0.90983 Y-0.33166
G01 X0.90201 Y-0.33171
G01 X0.89353 Y-0.33008
G01 X0.88484 Y-0.32635
G01 X0.87707 Y-0.32047
G01 X0.79238 Y-0.32047
G01 X0.78883 Y-0.32415
G01 X0.78175 Y-0.32909
G01 X0.77458 Y-0.33223
G01 X0.76531 Y-0.33407
G01 X0.75749 Y-0.33403
G01 X0.74827 Y-0.33193
G01 X0.74114 Y-0.32871
G01 X0.73357 Y-0.32305
G01 X0.72837 Y-0.31721
G01 X0.72375 Y-0.30896
G01 X0.72137 Y-0.30151
G01 X0.72047 Y-0.29291
G01 X0.72137 Y-0.28432
G01 X0.72375 Y-0.27687
G01 X0.72837 Y-0.26861
G01 X0.73415 Y-0.26219
G01 X0.74045 Y-0.25756
G01 X0.74983 Y-0.25338
G01 X0.75749 Y-0.25180
G01 X0.76531 Y-0.25176
G01 X0.77379 Y-0.25338
G01 X0.78248 Y-0.25711
G01 X0.78883 Y-0.26167
G01 X0.79238 Y-0.26535
G01 X0.87282 Y-0.26535
G01 X0.87785 Y-0.25983
G01 X0.88558 Y-0.25438
G01 X0.89274 Y-0.25123
G01 X0.90201 Y-0.24940
G01 X0.90983 Y-0.24944
G01 X0.91905 Y-0.25153
G01 X0.92618 Y-0.25475
G01 X0.93376 Y-0.26041
G01 X0.93914 Y-0.26698
G01 X0.93898 Y-0.21475
G01 X0.93253 Y-0.22179
G01 X0.92545 Y-0.22673
G01 X0.91829 Y-0.22987
G01 X0.90983 Y-0.23166
G01 X0.90201 Y-0.23171
G01 X0.89274 Y-0.22987
G01 X0.88558 Y-0.22673
G01 X0.87849 Y-0.22179
G01 X0.87207 Y-0.21485
G01 X0.86812 Y-0.20810
G01 X0.86529 Y-0.19994
G01 X0.86417 Y-0.19055
G01 X0.86508 Y-0.18196
G01 X0.86812 Y-0.17300
G01 X0.87259 Y-0.16561
G01 X0.87849 Y-0.15931
G01 X0.88558 Y-0.15438
G01 X0.89353 Y-0.15102
G01 X0.90201 Y-0.14940
G01 X0.90983 Y-0.14944
G01 X0.91728 Y-0.15098
G01 X0.91197 Y-0.14567
G01 X0.84803 Y-0.14567
G01 X0.80296 Y-0.19073
G01 X0.80225 Y-0.20151
G01 X0.79987 Y-0.20896
G01 X0.79525 Y-0.21721
G01 X0.79005 Y-0.22305
G01 X0.78317 Y-0.22826
G01 X0.77458 Y-0.23223
G01 X0.76613 Y-0.23403
G01 X0.75963 Y-0.23407
G01 X0.61614 Y-0.37756
G01 X0.61260 Y-0.38051
G01 X0.60598 Y-0.38219
G01 X0.59717 Y-0.38306
G01 X0.52787 Y-0.38307
G04 P0 ( dwell for no time -- G64 should not smooth over this point )
G00 Z0.07874 ( retract )

G00 X0.50098 Y-0.41988 ( rapid move to begin. )
G01 F3.93701
G01 Z-0.00787
G04 P0 ( dwell for no time -- G64 should not smooth over this point )
G01 F7.87402
G01 X0.50098 Y-0.41988
G01 X0.50492 Y-0.41988
G01 X0.50492 Y-0.39626
G01 X0.50607 Y-0.39348
G01 X0.50886 Y-0.39232
G01 X0.52177 Y-0.39232
G01 X0.52516 Y-0.38922
G01 X0.52939 Y-0.38668
G01 X0.53487 Y-0.38490
G01 X0.53937 Y-0.38445
G01 X0.67697 Y-0.38445
G01 X0.68195 Y-0.38500
G01 X0.68976 Y-0.38823
G01 X0.69367 Y-0.39137
G01 X0.75803 Y-0.45572
G01 X0.76613 Y-0.45578
G01 X0.77375 Y-0.45749
G01 X0.78014 Y-0.46033
G01 X0.78652 Y-0.46486
G01 X0.79181 Y-0.47061
G01 X0.79613 Y-0.47808
G01 X0.79839 Y-0.48514
G01 X0.79919 Y-0.49332
G01 X0.79839 Y-0.50069
G01 X0.79579 Y-0.50849
G01 X0.79181 Y-0.51522
G01 X0.78652 Y-0.52097
G01 X0.78014 Y-0.52549
G01 X0.77375 Y-0.52834
G01 X0.76531 Y-0.53013
G01 X0.75749 Y-0.53004
G01 X0.75025 Y-0.52848
G01 X0.74348 Y-0.52549
G01 X0.73710 Y-0.52097
G01 X0.73181 Y-0.51522
G01 X0.72764 Y-0.50813
G01 X0.72516 Y-0.50028
G01 X0.72441 Y-0.49291
G01 X0.72477 Y-0.48928
G01 X0.66718 Y-0.43169
G01 X0.53896 Y-0.43167
G01 X0.53406 Y-0.43107
G01 X0.52976 Y-0.42965
G01 X0.52516 Y-0.42692
G01 X0.52179 Y-0.42382
G01 X0.50735 Y-0.42352
G01 X0.50558 Y-0.42207
G01 X0.50492 Y-0.41988
G04 P0 ( dwell for no time -- G64 should not smooth over this point )
G00 Z0.07874 ( retract )

G00 X0.52787 Y-0.43307 ( rapid move to begin. )
G01 F3.93701
G01 Z-0.00787
G04 P0 ( dwell for no time -- G64 should not smooth over this point )
G01 F7.87402
G01 X0.52787 Y-0.43307
G01 X0.62697 Y-0.43307
G01 X0.63630 Y-0.43395
G01 X0.64292 Y-0.43563
G01 X0.64646 Y-0.43858
G01 X0.75963 Y-0.55176
G01 X0.76695 Y-0.55193
G01 X0.77379 Y-0.55338
G01 X0.78175 Y-0.55674
G01 X0.78947 Y-0.56219
G01 X0.79473 Y-0.56797
G01 X0.79987 Y-0.57687
G01 X0.80237 Y-0.58513
G01 X0.80315 Y-0.59291
G01 X0.80237 Y-0.60069
G01 X0.79920 Y-0.61046
G01 X0.79525 Y-0.61721
G01 X0.78883 Y-0.62415
G01 X0.78248 Y-0.62871
G01 X0.77379 Y-0.63244
G01 X0.76531 Y-0.63407
G01 X0.75667 Y-0.63390
G01 X0.74983 Y-0.63244
G01 X0.74188 Y-0.62909
G01 X0.73357 Y-0.62305
G01 X0.72792 Y-0.61652
G01 X0.72442 Y-0.61046
G01 X0.72137 Y-0.60151
G01 X0.72066 Y-0.59073
G01 X0.61555 Y-0.48563
G01 X0.55519 Y-0.48563
G01 X0.54256 Y-0.48318
G04 P0 ( dwell for no time -- G64 should not smooth over this point )
G00 Z0.07874 ( retract )

G00 X0.61260 Y-0.38051 ( rapid move to begin. )
G01 F3.93701
G01 Z-0.00787
G04 P0 ( dwell for no time -- G64 should not smooth over this point )
G01 F7.87402
G01 X0.61260 Y-0.38051
G01 X0.67697 Y-0.38051
G01 X0.68309 Y-0.38123
G01 X0.69162 Y-0.38476
G01 X0.69646 Y-0.38858
G01 X0.75963 Y-0.45176
G01 X0.76613 Y-0.45180
G01 X0.77535 Y-0.45389
G01 X0.78248 Y-0.45711
G01 X0.79005 Y-0.46277
G01 X0.79570 Y-0.46931
G01 X0.79987 Y-0.47687
G01 X0.80203 Y-0.48352
G01 X0.80315 Y-0.49291
G01 X0.80203 Y-0.50230
G01 X0.79987 Y-0.50896
G01 X0.79570 Y-0.51652
G01 X0.78947 Y-0.52363
G01 X0.78317 Y-0.52826
G01 X0.77458 Y-0.53223
G01 X0.76695 Y-0.53390
G01 X0.75831 Y-0.53407
G01 X0.74983 Y-0.53244
G01 X0.74045 Y-0.52826
G01 X0.73415 Y-0.52363
G01 X0.72889 Y-0.51785
G01 X0.72442 Y-0.51046
G01 X0.72159 Y-0.50230
G01 X0.72066 Y-0.49073
G01 X0.66555 Y-0.43563
G01 X0.64292 Y-0.43563
G04 P0 ( dwell for no time -- G64 should not smooth over this point )
G00 Z0.07874 ( retract )

G00 X0.72047 Y-0.39291 ( rapid move to begin. )
G01 F3.93701
G01 Z-0.00787
G04 P0 ( dwell for no time -- G64 should not smooth over this point )
G01 F7.87402
G01 X0.72047 Y-0.39291
G01 X0.72441 Y-0.39291
G01 X0.72523 Y-0.40069
G01 X0.72750 Y-0.40774
G01 X0.73133 Y-0.41455
G01 X0.73649 Y-0.42042
G01 X0.74348 Y-0.42549
G01 X0.75025 Y-0.42848
G01 X0.75749 Y-0.43005
G01 X0.76613 Y-0.43005
G01 X0.77337 Y-0.42848
G01 X0.78014 Y-0.42549
G01 X0.78684 Y-0.42071
G01 X0.79251 Y-0.41417
G01 X0.87670 Y-0.41417
G01 X0.88080 Y-0.41861
G01 X0.88646 Y-0.42272
G01 X0.89395 Y-0.42612
G01 X0.90201 Y-0.42777
G01 X0.90983 Y-0.42768
G01 X0.91667 Y-0.42623
G01 X0.92385 Y-0.42313
G01 X0.93022 Y-0.41861
G01 X0.93599 Y-0.41219
G01 X0.93983 Y-0.40538
G01 X0.94199 Y-0.39872
G01 X0.94289 Y-0.39014
G01 X0.94210 Y-0.38277
G01 X0.93983 Y-0.37572
G01 X0.93599 Y-0.36891
G01 X0.93083 Y-0.36305
G01 X0.92385 Y-0.35797
G01 X0.91707 Y-0.35498
G01 X0.90983 Y-0.35342
G01 X0.90160 Y-0.35335
G01 X0.89357 Y-0.35513
G01 X0.88646 Y-0.35838
G01 X0.88048 Y-0.36276
G01 X0.87670 Y-0.36693
G01 X0.78850 Y-0.36693
G01 X0.78086 Y-0.36075
G01 X0.77297 Y-0.35724
G01 X0.76531 Y-0.35569
G01 X0.75790 Y-0.35572
G01 X0.75065 Y-0.35724
G01 X0.74276 Y-0.36075
G01 X0.73678 Y-0.36512
G01 X0.73181 Y-0.37061
G01 X0.72750 Y-0.37809
G01 X0.72523 Y-0.38514
G01 X0.72441 Y-0.39291
G04 P0 ( dwell for no time -- G64 should not smooth over this point )
G00 Z0.07874 ( retract )

G00 X0.72047 Y-0.29291 ( rapid move to begin. )
G01 F3.93701
G01 Z-0.00787
G04 P0 ( dwell for no time -- G64 should not smooth over this point )
G01 F7.87402
G01 X0.72047 Y-0.29291
G01 X0.72441 Y-0.29291
G01 X0.72523 Y-0.30069
G01 X0.72750 Y-0.30774
G01 X0.73133 Y-0.31455
G01 X0.73649 Y-0.32042
G01 X0.74348 Y-0.32549
G01 X0.75025 Y-0.32848
G01 X0.75749 Y-0.33004
G01 X0.76531 Y-0.33013
G01 X0.77375 Y-0.32834
G01 X0.78086 Y-0.32508
G01 X0.78684 Y-0.32071
G01 X0.79062 Y-0.31654
G01 X0.87882 Y-0.31654
G01 X0.88646 Y-0.32272
G01 X0.89435 Y-0.32623
G01 X0.90201 Y-0.32777
G01 X0.90983 Y-0.32768
G01 X0.91667 Y-0.32623
G01 X0.92385 Y-0.32313
G01 X0.93022 Y-0.31861
G01 X0.93599 Y-0.31219
G01 X0.93983 Y-0.30538
G01 X0.94199 Y-0.29873
G01 X0.94289 Y-0.29014
G01 X0.94210 Y-0.28277
G01 X0.93983 Y-0.27572
G01 X0.93599 Y-0.26891
G01 X0.93083 Y-0.26305
G01 X0.92385 Y-0.25797
G01 X0.91707 Y-0.25498
G01 X0.90983 Y-0.25342
G01 X0.90119 Y-0.25342
G01 X0.89395 Y-0.25498
G01 X0.88718 Y-0.25797
G01 X0.88048 Y-0.26276
G01 X0.87481 Y-0.26929
G01 X0.79062 Y-0.26929
G01 X0.78652 Y-0.26486
G01 X0.78086 Y-0.26075
G01 X0.77337 Y-0.25734
G01 X0.76531 Y-0.25570
G01 X0.75790 Y-0.25572
G01 X0.75065 Y-0.25723
G01 X0.74276 Y-0.26075
G01 X0.73678 Y-0.26512
G01 X0.73181 Y-0.27061
G01 X0.72750 Y-0.27809
G01 X0.72523 Y-0.28514
G01 X0.72441 Y-0.29291
G04 P0 ( dwell for no time -- G64 should not smooth over this point )
G00 Z0.07874 ( retract )

G00 X0.86417 Y-0.19055 ( rapid move to begin. )
G01 F3.93701
G01 Z-0.00787
G04 P0 ( dwell for no time -- G64 should not smooth over this point )
G01 F7.87402
G01 X0.86417 Y-0.19055
G01 X0.86811 Y-0.19055
G01 X0.86893 Y-0.19833
G01 X0.87120 Y-0.20538
G01 X0.87551 Y-0.21285
G01 X0.88080 Y-0.21860
G01 X0.88646 Y-0.22272
G01 X0.89357 Y-0.22597
G01 X0.90160 Y-0.22775
G01 X0.90983 Y-0.22768
G01 X0.91745 Y-0.22597
G01 X0.92456 Y-0.22272
G01 X0.93022 Y-0.21860
G01 X0.93599 Y-0.21219
G01 X0.93983 Y-0.20538
G01 X0.94216 Y-0.19792
G01 X0.94285 Y-0.19128
G01 X0.94133 Y-0.20587
G01 X0.93898 Y-0.21475
G04 P0 ( dwell for no time -- G64 should not smooth over this point )
G00 Z0.07874 ( retract )

G00 X0.94133 Y-0.20587 ( rapid move to begin. )
G01 F3.93701
G01 Z-0.00787
G04 P0 ( dwell for no time -- G64 should not smooth over this point )
G01 F7.87402
G01 X0.94133 Y-0.20587
G01 X0.94290 Y-0.19096
G01 X0.94244 Y-0.18223
G04 P0 ( dwell for no time -- G64 should not smooth over this point )
G00 Z0.07874 ( retract )

G00 X0.94054 Y-0.17203 ( rapid move to begin. )
G01 F3.93701
G01 Z-0.00787
G04 P0 ( dwell for no time -- G64 should not smooth over this point )
G01 F7.87402
G01 X0.94054 Y-0.17203
G01 X0.93190 Y-0.16208
G01 X0.92474 Y-0.15597
G04 P0 ( dwell for no time -- G64 should not smooth over this point )
G00 Z0.07874 ( retract )

G00 X0.91728 Y-0.15098 ( rapid move to begin. )
G01 F3.93701
G01 Z-0.00787
G04 P0 ( dwell for no time -- G64 should not smooth over this point )
G01 F7.87402
G01 X0.91728 Y-0.15098
G01 X0.92474 Y-0.15597
G01 X0.93136 Y-0.16162
G01 X0.94054 Y-0.17203
G01 X0.94244 Y-0.18223
G01 X0.94288 Y-0.19053
G01 X0.94216 Y-0.18318
G01 X0.93983 Y-0.17572
G01 X0.93599 Y-0.16891
G01 X0.93054 Y-0.16276
G01 X0.92385 Y-0.15797
G01 X0.91707 Y-0.15498
G01 X0.90983 Y-0.15342
G01 X0.90201 Y-0.15333
G01 X0.89395 Y-0.15498
G01 X0.88646 Y-0.15838
G01 X0.88019 Y-0.16305
G01 X0.87503 Y-0.16891
G01 X0.87153 Y-0.17497
G01 X0.86893 Y-0.18277
G01 X0.86811 Y-0.19055
G04 P0 ( dwell for no time -- G64 should not smooth over this point )
G00 Z0.07874 ( retract )

G00 X0.94133 Y-0.27523 ( rapid move to begin. )
G01 F3.93701
G01 Z-0.00787
G04 P0 ( dwell for no time -- G64 should not smooth over this point )
G01 F7.87402
G01 X0.94133 Y-0.27523
G01 X0.93914 Y-0.26698
G01 X0.94133 Y-0.27523
G01 X0.94290 Y-0.29014
G01 X0.94254 Y-0.29796
G01 X0.94133 Y-0.30587
G04 P0 ( dwell for no time -- G64 should not smooth over this point )
G00 Z0.07874 ( retract )

G00 X0.94133 Y-0.37523 ( rapid move to begin. )
G01 F3.93701
G01 Z-0.00787
G04 P0 ( dwell for no time -- G64 should not smooth over this point )
G01 F7.87402
G01 X0.94133 Y-0.37523
G01 X0.93914 Y-0.36698
G01 X0.94133 Y-0.37523
G01 X0.94290 Y-0.39014
G01 X0.94246 Y-0.39844
G01 X0.94118 Y-0.40642
G01 X0.94244 Y-0.39887
G01 X0.94290 Y-0.39014
G04 P0 ( dwell for no time -- G64 should not smooth over this point )
G00 Z0.07874 ( retract )

G00 X1.11417 Y-0.29291 ( rapid move to begin. )
G01 F3.93701
G01 Z-0.00787
G04 P0 ( dwell for no time -- G64 should not smooth over this point )
G01 F7.87402
G01 X1.11417 Y-0.29291
G01 X1.11495 Y-0.30069
G01 X1.11745 Y-0.30896
G01 X1.12259 Y-0.31785
G01 X1.12785 Y-0.32363
G01 X1.13484 Y-0.32871
G01 X1.14353 Y-0.33244
G01 X1.15119 Y-0.33403
G01 X1.15983 Y-0.33403
G01 X1.16749 Y-0.33244
G01 X1.17545 Y-0.32909
G01 X1.17893 Y-0.32677
G01 X1.38976 Y-0.32677
G01 X1.38992 Y-0.33421
G01 X1.39109 Y-0.33705
G01 X1.39326 Y-0.33922
G01 X1.39764 Y-0.34055
G01 X1.46457 Y-0.34055
G01 X1.46894 Y-0.33922
G01 X1.47111 Y-0.33705
G01 X1.47229 Y-0.33421
G01 X1.47244 Y-0.26575
G01 X1.47111 Y-0.26137
G01 X1.46894 Y-0.25920
G01 X1.46610 Y-0.25803
G01 X1.39610 Y-0.25803
G01 X1.39207 Y-0.26018
G01 X1.39036 Y-0.26273
G01 X1.38976 Y-0.27165
G01 X1.19074 Y-0.27165
G01 X1.18897 Y-0.26864
G01 X1.18317 Y-0.26219
G01 X1.17545 Y-0.25674
G01 X1.16749 Y-0.25338
G01 X1.16065 Y-0.25193
G01 X1.15119 Y-0.25180
G01 X1.14274 Y-0.25360
G01 X1.13558 Y-0.25674
G01 X1.12849 Y-0.26167
G01 X1.12259 Y-0.26797
G01 X1.11745 Y-0.27687
G01 X1.11495 Y-0.28513
G01 X1.11417 Y-0.29291
G01 X1.11811 Y-0.29291
G01 X1.11886 Y-0.28554
G01 X1.12120 Y-0.27809
G01 X1.12525 Y-0.27093
G01 X1.13019 Y-0.26541
G01 X1.13718 Y-0.26033
G01 X1.14435 Y-0.25723
G01 X1.15160 Y-0.25572
G01 X1.15983 Y-0.25578
G01 X1.16667 Y-0.25723
G01 X1.17385 Y-0.26033
G01 X1.18083 Y-0.26541
G01 X1.18578 Y-0.27094
G01 X1.18845 Y-0.27559
G01 X1.39370 Y-0.27559
G01 X1.39378 Y-0.26498
G01 X1.39485 Y-0.26296
G01 X1.39687 Y-0.26189
G01 X1.46534 Y-0.26189
G01 X1.46784 Y-0.26356
G01 X1.46850 Y-0.26575
G01 X1.46850 Y-0.33268
G01 X1.46784 Y-0.33486
G01 X1.46534 Y-0.33654
G01 X1.39687 Y-0.33654
G01 X1.39485 Y-0.33546
G01 X1.39378 Y-0.33344
G01 X1.39370 Y-0.32283
G01 X1.17765 Y-0.32283
G01 X1.17385 Y-0.32549
G01 X1.16667 Y-0.32859
G01 X1.15942 Y-0.33011
G01 X1.15160 Y-0.33011
G01 X1.14435 Y-0.32859
G01 X1.13718 Y-0.32549
G01 X1.13048 Y-0.32071
G01 X1.12503 Y-0.31455
G01 X1.12134 Y-0.30812
G01 X1.11903 Y-0.30109
G01 X1.11811 Y-0.29291
G04 P0 ( dwell for no time -- G64 should not smooth over this point )
G00 Z0.07874 ( retract )

G00 X1.11811 Y-0.39291 ( rapid move to begin. )
G01 F3.93701
G01 Z-0.00787
G04 P0 ( dwell for no time -- G64 should not smooth over this point )
G01 F7.87402
G01 X1.11811 Y-0.39291
G01 X1.11903 Y-0.40109
G01 X1.12134 Y-0.40813
G01 X1.12503 Y-0.41455
G01 X1.13019 Y-0.42042
G01 X1.13718 Y-0.42549
G01 X1.14435 Y-0.42859
G01 X1.15119 Y-0.43005
G01 X1.15942 Y-0.43011
G01 X1.16745 Y-0.42834
G01 X1.17456 Y-0.42508
G01 X1.18022 Y-0.42097
G01 X1.18432 Y-0.41653
G01 X1.39817 Y-0.41653
G01 X1.40084 Y-0.42118
G01 X1.40578 Y-0.42672
G01 X1.41277 Y-0.43179
G01 X1.41994 Y-0.43489
G01 X1.42678 Y-0.43634
G01 X1.43501 Y-0.43641
G01 X1.44226 Y-0.43489
G01 X1.44944 Y-0.43179
G01 X1.45642 Y-0.42672
G01 X1.46136 Y-0.42120
G01 X1.46508 Y-0.41479
G01 X1.46775 Y-0.40658
G01 X1.46850 Y-0.39921
G01 X1.46758 Y-0.39104
G01 X1.46527 Y-0.38400
G01 X1.46110 Y-0.37691
G01 X1.45613 Y-0.37142
G01 X1.44944 Y-0.36663
G01 X1.44226 Y-0.36353
G01 X1.43460 Y-0.36199
G01 X1.42719 Y-0.36201
G01 X1.41994 Y-0.36353
G01 X1.41277 Y-0.36663
G01 X1.40897 Y-0.36929
G01 X1.18432 Y-0.36929
G01 X1.18054 Y-0.36512
G01 X1.17456 Y-0.36075
G01 X1.16745 Y-0.35749
G01 X1.15942 Y-0.35572
G01 X1.15160 Y-0.35572
G01 X1.14435 Y-0.35724
G01 X1.13718 Y-0.36034
G01 X1.13019 Y-0.36541
G01 X1.12525 Y-0.37093
G01 X1.12120 Y-0.37809
G01 X1.11886 Y-0.38554
G01 X1.11811 Y-0.39291
G01 X1.11417 Y-0.39291
G01 X1.11495 Y-0.40069
G01 X1.11745 Y-0.40896
G01 X1.12259 Y-0.41785
G01 X1.12785 Y-0.42363
G01 X1.13484 Y-0.42871
G01 X1.14353 Y-0.43244
G01 X1.15119 Y-0.43402
G01 X1.15983 Y-0.43402
G01 X1.16905 Y-0.43193
G01 X1.17687 Y-0.42826
G01 X1.18253 Y-0.42415
G01 X1.18608 Y-0.42047
G01 X1.39587 Y-0.42047
G01 X1.39764 Y-0.42349
G01 X1.40344 Y-0.42993
G01 X1.41043 Y-0.43501
G01 X1.41912 Y-0.43874
G01 X1.42760 Y-0.44037
G01 X1.43542 Y-0.44032
G01 X1.44465 Y-0.43823
G01 X1.45177 Y-0.43501
G01 X1.45935 Y-0.42935
G01 X1.46454 Y-0.42351
G01 X1.46916 Y-0.41526
G01 X1.47167 Y-0.40699
G01 X1.47244 Y-0.39921
G01 X1.47132 Y-0.38982
G01 X1.46887 Y-0.38240
G01 X1.46499 Y-0.37561
G01 X1.45935 Y-0.36907
G01 X1.45104 Y-0.36304
G01 X1.44308 Y-0.35968
G01 X1.43542 Y-0.35810
G01 X1.42678 Y-0.35810
G01 X1.41912 Y-0.35968
G01 X1.41117 Y-0.36304
G01 X1.40769 Y-0.36535
G01 X1.18608 Y-0.36535
G01 X1.18317 Y-0.36219
G01 X1.17545 Y-0.35674
G01 X1.16749 Y-0.35338
G01 X1.15901 Y-0.35176
G01 X1.15119 Y-0.35180
G01 X1.14274 Y-0.35360
G01 X1.13415 Y-0.35756
G01 X1.12727 Y-0.36278
G01 X1.12207 Y-0.36862
G01 X1.11745 Y-0.37687
G01 X1.11529 Y-0.38352
G01 X1.11417 Y-0.39291
G04 P0 ( dwell for no time -- G64 should not smooth over this point )
G00 Z0.07874 ( retract )

G00 X1.11811 Y-0.49291 ( rapid move to begin. )
G01 F3.93701
G01 Z-0.00787
G04 P0 ( dwell for no time -- G64 should not smooth over this point )
G01 F7.87402
G01 X1.11811 Y-0.49291
G01 X1.11903 Y-0.50109
G01 X1.12134 Y-0.50813
G01 X1.12503 Y-0.51455
G01 X1.13019 Y-0.52042
G01 X1.13718 Y-0.52549
G01 X1.14395 Y-0.52848
G01 X1.15119 Y-0.53004
G01 X1.15983 Y-0.53004
G01 X1.16745 Y-0.52834
G01 X1.17456 Y-0.52508
G01 X1.18022 Y-0.52097
G01 X1.18432 Y-0.51653
G01 X1.39817 Y-0.51653
G01 X1.40084 Y-0.52119
G01 X1.40578 Y-0.52672
G01 X1.41277 Y-0.53179
G01 X1.41994 Y-0.53489
G01 X1.42678 Y-0.53634
G01 X1.43501 Y-0.53641
G01 X1.44226 Y-0.53489
G01 X1.44944 Y-0.53179
G01 X1.45642 Y-0.52672
G01 X1.46136 Y-0.52120
G01 X1.46508 Y-0.51479
G01 X1.46775 Y-0.50658
G01 X1.46850 Y-0.49921
G01 X1.46758 Y-0.49104
G01 X1.46527 Y-0.48400
G01 X1.46110 Y-0.47691
G01 X1.45613 Y-0.47142
G01 X1.44944 Y-0.46663
G01 X1.44226 Y-0.46353
G01 X1.43460 Y-0.46199
G01 X1.42719 Y-0.46202
G01 X1.41994 Y-0.46353
G01 X1.41277 Y-0.46663
G01 X1.40897 Y-0.46929
G01 X1.18432 Y-0.46929
G01 X1.18054 Y-0.46512
G01 X1.17456 Y-0.46075
G01 X1.16745 Y-0.45749
G01 X1.15942 Y-0.45572
G01 X1.15160 Y-0.45572
G01 X1.14435 Y-0.45724
G01 X1.13718 Y-0.46033
G01 X1.13019 Y-0.46541
G01 X1.12525 Y-0.47093
G01 X1.12120 Y-0.47808
G01 X1.11886 Y-0.48554
G01 X1.11811 Y-0.49291
G01 X1.11417 Y-0.49291
G01 X1.11495 Y-0.50069
G01 X1.11745 Y-0.50896
G01 X1.12259 Y-0.51785
G01 X1.12785 Y-0.52363
G01 X1.13558 Y-0.52909
G01 X1.14274 Y-0.53223
G01 X1.15038 Y-0.53390
G01 X1.15901 Y-0.53407
G01 X1.16829 Y-0.53223
G01 X1.17687 Y-0.52826
G01 X1.18317 Y-0.52363
G01 X1.18608 Y-0.52047
G01 X1.39587 Y-0.52047
G01 X1.39764 Y-0.52349
G01 X1.40344 Y-0.52993
G01 X1.41043 Y-0.53501
G01 X1.41912 Y-0.53874
G01 X1.42760 Y-0.54037
G01 X1.43542 Y-0.54032
G01 X1.44465 Y-0.53823
G01 X1.45177 Y-0.53501
G01 X1.45935 Y-0.52935
G01 X1.46454 Y-0.52351
G01 X1.46916 Y-0.51526
G01 X1.47167 Y-0.50699
G01 X1.47244 Y-0.49921
G01 X1.47132 Y-0.48982
G01 X1.46887 Y-0.48240
G01 X1.46499 Y-0.47560
G01 X1.45935 Y-0.46907
G01 X1.45104 Y-0.46304
G01 X1.44308 Y-0.45968
G01 X1.43542 Y-0.45810
G01 X1.42678 Y-0.45810
G01 X1.41912 Y-0.45968
G01 X1.41117 Y-0.46304
G01 X1.40769 Y-0.46535
G01 X1.18608 Y-0.46535
G01 X1.18317 Y-0.46219
G01 X1.17545 Y-0.45674
G01 X1.16749 Y-0.45338
G01 X1.15901 Y-0.45176
G01 X1.15119 Y-0.45180
G01 X1.14274 Y-0.45360
G01 X1.13415 Y-0.45756
G01 X1.12727 Y-0.46277
G01 X1.12207 Y-0.46862
G01 X1.11745 Y-0.47687
G01 X1.11529 Y-0.48352
G01 X1.11417 Y-0.49291
G04 P0 ( dwell for no time -- G64 should not smooth over this point )
G00 Z0.07874 ( retract )

G00 X1.11811 Y-0.59291 ( rapid move to begin. )
G01 F3.93701
G01 Z-0.00787
G04 P0 ( dwell for no time -- G64 should not smooth over this point )
G01 F7.87402
G01 X1.11811 Y-0.59291
G01 X1.11886 Y-0.58554
G01 X1.12120 Y-0.57808
G01 X1.12525 Y-0.57093
G01 X1.13019 Y-0.56541
G01 X1.13718 Y-0.56034
G01 X1.14435 Y-0.55724
G01 X1.15160 Y-0.55572
G01 X1.15983 Y-0.55578
G01 X1.16667 Y-0.55724
G01 X1.17385 Y-0.56034
G01 X1.18083 Y-0.56541
G01 X1.18578 Y-0.57094
G01 X1.18845 Y-0.57559
G01 X1.40229 Y-0.57559
G01 X1.40640 Y-0.57116
G01 X1.41206 Y-0.56705
G01 X1.41916 Y-0.56379
G01 X1.42719 Y-0.56202
G01 X1.43460 Y-0.56199
G01 X1.44226 Y-0.56353
G01 X1.44944 Y-0.56663
G01 X1.45613 Y-0.57142
G01 X1.46110 Y-0.57691
G01 X1.46508 Y-0.58363
G01 X1.46758 Y-0.59104
G01 X1.46850 Y-0.59921
G01 X1.46775 Y-0.60658
G01 X1.46508 Y-0.61479
G01 X1.46136 Y-0.62120
G01 X1.45642 Y-0.62672
G01 X1.44944 Y-0.63179
G01 X1.44226 Y-0.63489
G01 X1.43501 Y-0.63641
G01 X1.42719 Y-0.63641
G01 X1.41916 Y-0.63463
G01 X1.41206 Y-0.63138
G01 X1.40607 Y-0.62701
G01 X1.40229 Y-0.62283
G01 X1.17765 Y-0.62283
G01 X1.17385 Y-0.62549
G01 X1.16667 Y-0.62859
G01 X1.15942 Y-0.63011
G01 X1.15119 Y-0.63004
G01 X1.14435 Y-0.62859
G01 X1.13718 Y-0.62549
G01 X1.13019 Y-0.62042
G01 X1.12503 Y-0.61455
G01 X1.12120 Y-0.60774
G01 X1.11886 Y-0.60028
G01 X1.11811 Y-0.59291
G01 X1.11417 Y-0.59291
G01 X1.11495 Y-0.60069
G01 X1.11745 Y-0.60896
G01 X1.12259 Y-0.61785
G01 X1.12785 Y-0.62363
G01 X1.13484 Y-0.62871
G01 X1.14353 Y-0.63244
G01 X1.15119 Y-0.63402
G01 X1.15983 Y-0.63402
G01 X1.16749 Y-0.63244
G01 X1.17545 Y-0.62909
G01 X1.17893 Y-0.62677
G01 X1.40054 Y-0.62677
G01 X1.40344 Y-0.62993
G01 X1.41117 Y-0.63539
G01 X1.41912 Y-0.63874
G01 X1.42760 Y-0.64037
G01 X1.43542 Y-0.64032
G01 X1.44465 Y-0.63823
G01 X1.45177 Y-0.63501
G01 X1.45935 Y-0.62935
G01 X1.46454 Y-0.62351
G01 X1.46916 Y-0.61526
G01 X1.47167 Y-0.60699
G01 X1.47244 Y-0.59921
G01 X1.47132 Y-0.58982
G01 X1.46887 Y-0.58240
G01 X1.46499 Y-0.57561
G01 X1.45935 Y-0.56907
G01 X1.45104 Y-0.56304
G01 X1.44308 Y-0.55968
G01 X1.43542 Y-0.55810
G01 X1.42678 Y-0.55810
G01 X1.41756 Y-0.56019
G01 X1.40974 Y-0.56386
G01 X1.40408 Y-0.56797
G01 X1.40054 Y-0.57165
G01 X1.19074 Y-0.57165
G01 X1.18897 Y-0.56864
G01 X1.18317 Y-0.56219
G01 X1.17618 Y-0.55711
G01 X1.16749 Y-0.55338
G01 X1.15901 Y-0.55176
G01 X1.15119 Y-0.55180
G01 X1.14197 Y-0.55389
G01 X1.13484 Y-0.55711
G01 X1.12727 Y-0.56278
G01 X1.12207 Y-0.56861
G01 X1.11745 Y-0.57687
G01 X1.11529 Y-0.58352
G01 X1.11417 Y-0.59291
G04 P0 ( dwell for no time -- G64 should not smooth over this point )
G00 Z0.07874 ( retract )

G00 X1.03346 Y-0.63780 ( rapid move to begin. )
G01 F3.93701
G01 Z-0.00787
G04 P0 ( dwell for no time -- G64 should not smooth over this point )
G01 F7.87402
G01 X1.03346 Y-0.63780
G01 X1.03386 Y-0.64202
G01 X1.03513 Y-0.64647
G01 X1.03724 Y-0.65059
G01 X1.04012 Y-0.65421
G01 X1.09550 Y-0.70962
G01 X1.09941 Y-0.71275
G01 X1.10353 Y-0.71487
G01 X1.10798 Y-0.71614
G01 X1.11811 Y-0.71654
G01 X1.11818 Y-0.72715
G01 X1.11986 Y-0.72965
G01 X1.12205 Y-0.73031
G01 X1.18974 Y-0.73024
G01 X1.19176 Y-0.72916
G01 X1.19261 Y-0.72788
G01 X1.19291 Y-0.72283
G01 X1.40229 Y-0.72283
G01 X1.40607 Y-0.72701
G01 X1.41206 Y-0.73138
G01 X1.41916 Y-0.73464
G01 X1.42719 Y-0.73641
G01 X1.43501 Y-0.73641
G01 X1.44226 Y-0.73489
G01 X1.44944 Y-0.73179
G01 X1.45581 Y-0.72727
G01 X1.46110 Y-0.72152
G01 X1.46508 Y-0.71479
G01 X1.46758 Y-0.70739
G01 X1.46828 Y-0.69685
G01 X1.77756 Y-0.69685
G01 X1.77763 Y-0.70746
G01 X1.77871 Y-0.70948
G01 X1.78073 Y-0.71055
G01 X1.84842 Y-0.71063
G01 X1.85121 Y-0.70948
G01 X1.85229 Y-0.70746
G01 X1.85236 Y-0.69685
G01 X1.92520 Y-0.69685
G01 X1.92527 Y-0.70746
G01 X1.92635 Y-0.70948
G01 X1.92837 Y-0.71055
G01 X1.99606 Y-0.71063
G01 X1.99825 Y-0.70997
G01 X1.99992 Y-0.70746
G01 X2.00000 Y-0.63976
G01 X1.99885 Y-0.63698
G01 X1.99606 Y-0.63583
G01 X1.92837 Y-0.63590
G01 X1.92635 Y-0.63698
G01 X1.92527 Y-0.63899
G01 X1.92520 Y-0.64961
G01 X1.85236 Y-0.64961
G01 X1.85229 Y-0.63899
G01 X1.85121 Y-0.63698
G01 X1.84919 Y-0.63590
G01 X1.78150 Y-0.63583
G01 X1.77871 Y-0.63698
G01 X1.77763 Y-0.63899
G01 X1.77756 Y-0.64961
G01 X1.45670 Y-0.64963
G01 X1.44841 Y-0.65127
G01 X1.44429 Y-0.65339
G01 X1.43490 Y-0.66201
G01 X1.42678 Y-0.66208
G01 X1.41994 Y-0.66353
G01 X1.41277 Y-0.66663
G01 X1.40640 Y-0.67116
G01 X1.40229 Y-0.67559
G01 X1.19291 Y-0.67559
G01 X1.19284 Y-0.65868
G01 X1.19176 Y-0.65666
G01 X1.18898 Y-0.65551
G01 X1.12128 Y-0.65559
G01 X1.11926 Y-0.65666
G01 X1.11841 Y-0.65794
G01 X1.11811 Y-0.66541
G01 X1.08071 Y-0.62801
G01 X1.08071 Y-0.30112
G01 X1.15172 Y-0.23012
G01 X1.15983 Y-0.23004
G01 X1.16667 Y-0.22859
G01 X1.17385 Y-0.22549
G01 X1.18083 Y-0.22042
G01 X1.18577 Y-0.21490
G01 X1.18949 Y-0.20849
G01 X1.19199 Y-0.20109
G01 X1.19291 Y-0.19291
G01 X1.19199 Y-0.18474
G01 X1.18949 Y-0.17733
G01 X1.18599 Y-0.17127
G01 X1.18083 Y-0.16541
G01 X1.17456 Y-0.16075
G01 X1.16745 Y-0.15749
G01 X1.15942 Y-0.15572
G01 X1.15160 Y-0.15572
G01 X1.14357 Y-0.15749
G01 X1.13647 Y-0.16075
G01 X1.13019 Y-0.16541
G01 X1.12525 Y-0.17093
G01 X1.12120 Y-0.17808
G01 X1.11886 Y-0.18554
G01 X1.11813 Y-0.19250
G01 X1.11847 Y-0.19655
G01 X1.04012 Y-0.27492
G01 X1.03543 Y-0.28195
G01 X1.03401 Y-0.28636
G01 X1.03348 Y-0.29095
G01 X1.03346 Y-0.63780
G01 X1.02953 Y-0.63780
G01 X1.02994 Y-0.64241
G01 X1.03195 Y-0.64904
G01 X1.03708 Y-0.65671
G01 X1.09272 Y-0.71240
G01 X1.09756 Y-0.71623
G01 X1.10238 Y-0.71863
G01 X1.10759 Y-0.72006
G01 X1.11417 Y-0.72047
G01 X1.11432 Y-0.72791
G01 X1.11550 Y-0.73075
G01 X1.11767 Y-0.73292
G01 X1.12205 Y-0.73425
G01 X1.18898 Y-0.73425
G01 X1.19199 Y-0.73365
G01 X1.19454 Y-0.73194
G01 X1.19625 Y-0.72939
G01 X1.19681 Y-0.72677
G01 X1.40054 Y-0.72677
G01 X1.40344 Y-0.72993
G01 X1.40974 Y-0.73456
G01 X1.41756 Y-0.73823
G01 X1.42678 Y-0.74032
G01 X1.43542 Y-0.74032
G01 X1.44308 Y-0.73874
G01 X1.45104 Y-0.73539
G01 X1.45935 Y-0.72935
G01 X1.46454 Y-0.72351
G01 X1.46849 Y-0.71676
G01 X1.47132 Y-0.70860
G01 X1.47232 Y-0.70079
G01 X1.77362 Y-0.70079
G01 X1.77377 Y-0.70823
G01 X1.77495 Y-0.71107
G01 X1.77848 Y-0.71397
G01 X1.78150 Y-0.71457
G01 X1.84996 Y-0.71442
G01 X1.85399 Y-0.71226
G01 X1.85570 Y-0.70971
G01 X1.85630 Y-0.70079
G01 X1.92126 Y-0.70079
G01 X1.92141 Y-0.70823
G01 X1.92259 Y-0.71107
G01 X1.92612 Y-0.71397
G01 X1.92913 Y-0.71457
G01 X1.99760 Y-0.71442
G01 X2.00163 Y-0.71226
G01 X2.00334 Y-0.70971
G01 X2.00394 Y-0.70669
G01 X2.00379 Y-0.63823
G01 X2.00261 Y-0.63539
G01 X2.00044 Y-0.63322
G01 X1.99606 Y-0.63189
G01 X1.92760 Y-0.63204
G01 X1.92476 Y-0.63322
G01 X1.92186 Y-0.63675
G01 X1.92126 Y-0.64567
G01 X1.85630 Y-0.64567
G01 X1.85615 Y-0.63823
G01 X1.85497 Y-0.63539
G01 X1.85280 Y-0.63322
G01 X1.84842 Y-0.63189
G01 X1.78150 Y-0.63189
G01 X1.77712 Y-0.63322
G01 X1.77495 Y-0.63539
G01 X1.77377 Y-0.63823
G01 X1.77362 Y-0.64567
G01 X1.45631 Y-0.64571
G01 X1.44727 Y-0.64751
G01 X1.44244 Y-0.64992
G01 X1.43328 Y-0.65806
G01 X1.42678 Y-0.65810
G01 X1.41912 Y-0.65968
G01 X1.41117 Y-0.66304
G01 X1.40408 Y-0.66797
G01 X1.40054 Y-0.67165
G01 X1.19685 Y-0.67165
G01 X1.19685 Y-0.65945
G01 X1.19625 Y-0.65643
G01 X1.19335 Y-0.65290
G01 X1.19051 Y-0.65173
G01 X1.12205 Y-0.65157
G01 X1.11767 Y-0.65290
G01 X1.11476 Y-0.65649
G01 X1.08465 Y-0.62638
G01 X1.08465 Y-0.30275
G01 X1.15333 Y-0.23407
G01 X1.15983 Y-0.23403
G01 X1.16749 Y-0.23244
G01 X1.17687 Y-0.22826
G01 X1.18375 Y-0.22305
G01 X1.18895 Y-0.21721
G01 X1.19290 Y-0.21046
G01 X1.19573 Y-0.20230
G01 X1.19685 Y-0.19291
G01 X1.19573 Y-0.18352
G01 X1.19290 Y-0.17536
G01 X1.18940 Y-0.16931
G01 X1.18375 Y-0.16278
G01 X1.17687 Y-0.15756
G01 X1.16905 Y-0.15389
G01 X1.15983 Y-0.15180
G01 X1.15119 Y-0.15180
G01 X1.14274 Y-0.15360
G01 X1.13415 Y-0.15756
G01 X1.12727 Y-0.16278
G01 X1.12207 Y-0.16861
G01 X1.11745 Y-0.17687
G01 X1.11495 Y-0.18513
G01 X1.11436 Y-0.19509
G01 X1.03760 Y-0.27185
G01 X1.03377 Y-0.27669
G01 X1.03024 Y-0.28521
G01 X1.02953 Y-0.29134
G01 X1.02953 Y-0.63780

G04 P0 ( dwell for no time -- G64 should not smooth over this point )
G00 Z0.394 ( retract )

M5 ( Spindle off. )
G04 P1.000000
M9 ( Coolant off. )
M2 ( Program end. )

