( pcb2gcode 2.0.0 )
( Software-independent Gcode )
( This file uses a mill head of 0.07874inch to drill the 1 hole sizes. )
( Hole sizes: [0.0394 inch] )

G94       (Inches per minute feed rate.)
G20       (Units == INCHES.)
G91.1     (Incremental arc distance mode.)
G90       (Absolute coordinates.)
S1000    (RPM spindle speed.)
G01 F15.74803 (Feedrate)
M3        (Spindle on clockwise.)
G04 P1.00000
G00 Z0.07874

G0 X0.13190 Y-0.09800
G1 Z-0.12598 F7.87402
G0 Z0.07874

G0 X0.13190 Y-0.19800
G1 Z-0.12598 F7.87402
G0 Z0.07874

G0 X0.13190 Y-0.29800
G1 Z-0.12598 F7.87402
G0 Z0.07874

G0 X0.13190 Y-0.39800
G1 Z-0.12598 F7.87402
G0 Z0.07874

G0 X0.13190 Y-0.49800
G1 Z-0.12598 F7.87402
G0 Z0.07874

G0 X0.13190 Y-0.59800
G1 Z-0.12598 F7.87402
G0 Z0.07874

G0 X0.13190 Y-0.79800
G1 Z-0.12598 F7.87402
G0 Z0.07874

G0 X0.13190 Y-0.89800
G1 Z-0.12598 F7.87402
G0 Z0.07874

G0 X0.13190 Y-0.99800
G1 Z-0.12598 F7.87402
G0 Z0.07874

G0 X0.76180 Y-0.39290
G1 Z-0.12598 F7.87402
G0 Z0.07874

G0 X0.76180 Y-0.49290
G1 Z-0.12598 F7.87402
G0 Z0.07874

G0 X0.76180 Y-0.59290
G1 Z-0.12598 F7.87402
G0 Z0.07874

G0 X0.76180 Y-0.69290
G1 Z-0.12598 F7.87402
G0 Z0.07874

G0 X0.90550 Y-0.59060
G1 Z-0.12598 F7.87402
G0 Z0.07874

G0 X0.90550 Y-0.49060
G1 Z-0.12598 F7.87402
G0 Z0.07874

G0 X0.76180 Y-0.29290
G1 Z-0.12598 F7.87402
G0 Z0.07874

G0 X0.76180 Y-0.19290
G1 Z-0.12598 F7.87402
G0 Z0.07874

G0 X0.90550 Y-0.19060
G1 Z-0.12598 F7.87402
G0 Z0.07874

G0 X0.90550 Y-0.29060
G1 Z-0.12598 F7.87402
G0 Z0.07874

G0 X0.90550 Y-0.39060
G1 Z-0.12598 F7.87402
G0 Z0.07874

G0 X1.15550 Y-0.19290
G1 Z-0.12598 F7.87402
G0 Z0.07874

G0 X1.15550 Y-0.29290
G1 Z-0.12598 F7.87402
G0 Z0.07874

G0 X1.15550 Y-0.39290
G1 Z-0.12598 F7.87402
G0 Z0.07874

G0 X1.15550 Y-0.49290
G1 Z-0.12598 F7.87402
G0 Z0.07874

G0 X1.15550 Y-0.59290
G1 Z-0.12598 F7.87402
G0 Z0.07874

G0 X1.15550 Y-0.69290
G1 Z-0.12598 F7.87402
G0 Z0.07874

G0 X1.43110 Y-0.89920
G1 Z-0.12598 F7.87402
G0 Z0.07874

G0 X1.43110 Y-0.79920
G1 Z-0.12598 F7.87402
G0 Z0.07874

G0 X1.43110 Y-0.69920
G1 Z-0.12598 F7.87402
G0 Z0.07874

G0 X1.43110 Y-0.59920
G1 Z-0.12598 F7.87402
G0 Z0.07874

G0 X1.43110 Y-0.49920
G1 Z-0.12598 F7.87402
G0 Z0.07874

G0 X1.43110 Y-0.39920
G1 Z-0.12598 F7.87402
G0 Z0.07874

G0 X1.43110 Y-0.29920
G1 Z-0.12598 F7.87402
G0 Z0.07874

G0 X1.81500 Y-0.67320
G1 Z-0.12598 F7.87402
G0 Z0.07874

G0 X1.81500 Y-0.77320
G1 Z-0.12598 F7.87402
G0 Z0.07874

G0 X1.81500 Y-0.91770
G1 Z-0.12598 F7.87402
G0 Z0.07874

G0 X1.81500 Y-1.01770
G1 Z-0.12598 F7.87402
G0 Z0.07874

G0 X1.96260 Y-1.01770
G1 Z-0.12598 F7.87402
G0 Z0.07874

G0 X1.96260 Y-0.91770
G1 Z-0.12598 F7.87402
G0 Z0.07874

G0 X1.96260 Y-0.77320
G1 Z-0.12598 F7.87402
G0 Z0.07874

G0 X1.96260 Y-0.67320
G1 Z-0.12598 F7.87402
G0 Z0.07874

G00 Z0.394 ( All done -- retract )

M5      (Spindle off.)
G04 P1.000000
M9      (Coolant off.)
M2      (Program end.)

