( pcb2gcode 2.0.0 )
( Software-independent Gcode )

G94 ( Inches per minute feed rate. )
G20 ( Units == INCHES. )

G90 ( Absolute coordinates. )
G00 S1000 ( RPM spindle speed. )
G64 P0.00040 ( set maximum deviation from commanded toolpath )
G01 F1.18110 ( Feedrate. )


G00 Z0.39370 (Retract to tool change height)
T0
M5      (Spindle stop.)
G04 P1.00000 (Wait for spindle to stop)
(MSG, Change tool bit to mill diameter 0.00787in)
M6      (Tool change.)
M0      (Temporary machine stop.)
M3 ( Spindle on clockwise. )
G04 P1.00000 (Wait for spindle to get up to speed)
G04 P0 ( dwell for no time -- G64 should not smooth over this point )
G00 Z0.07874 ( retract )

G00 X0.07205 Y-0.36476 ( rapid move to begin. )
G01 F0.59055
G01 Z-0.01024
G04 P0 ( dwell for no time -- G64 should not smooth over this point )
G01 F1.18110
G01 X0.07205 Y-0.36476
G01 X0.07320 Y-0.36755
G01 X0.07598 Y-0.36870
G01 X0.19560 Y-0.36840
G01 X0.19737 Y-0.36695
G01 X0.19803 Y-0.36476
G01 X0.19773 Y-0.30420
G01 X0.19628 Y-0.30244
G01 X0.19409 Y-0.30177
G01 X0.07448 Y-0.30207
G01 X0.07271 Y-0.30352
G01 X0.07205 Y-0.30571
G01 X0.07205 Y-0.36476
G04 P0 ( dwell for no time -- G64 should not smooth over this point )
G00 Z0.07874 ( retract )

G00 X0.07205 Y-0.46476 ( rapid move to begin. )
G01 F0.59055
G01 Z-0.01024
G04 P0 ( dwell for no time -- G64 should not smooth over this point )
G01 F1.18110
G01 X0.07205 Y-0.46476
G01 X0.07320 Y-0.46755
G01 X0.07598 Y-0.46870
G01 X0.19486 Y-0.46863
G01 X0.19688 Y-0.46755
G01 X0.19795 Y-0.46553
G01 X0.19803 Y-0.44901
G01 X0.63870 Y-0.44901
G01 X0.64397 Y-0.45506
G01 X0.65096 Y-0.46014
G01 X0.65773 Y-0.46313
G01 X0.66497 Y-0.46469
G01 X0.67279 Y-0.46478
G01 X0.68123 Y-0.46298
G01 X0.68834 Y-0.45972
G01 X0.69461 Y-0.45506
G01 X0.69977 Y-0.44920
G01 X0.70361 Y-0.44239
G01 X0.70588 Y-0.43534
G01 X0.70667 Y-0.42715
G01 X0.70588 Y-0.41978
G01 X0.70361 Y-0.41273
G01 X0.69977 Y-0.40592
G01 X0.69461 Y-0.40005
G01 X0.68834 Y-0.39539
G01 X0.68123 Y-0.39214
G01 X0.67279 Y-0.39034
G01 X0.66538 Y-0.39036
G01 X0.65773 Y-0.39199
G01 X0.65096 Y-0.39498
G01 X0.64458 Y-0.39950
G01 X0.63929 Y-0.40525
G01 X0.63531 Y-0.41198
G01 X0.63251 Y-0.42146
G01 X0.19803 Y-0.42146
G01 X0.19795 Y-0.40494
G01 X0.19688 Y-0.40292
G01 X0.19486 Y-0.40185
G01 X0.07598 Y-0.40177
G01 X0.07320 Y-0.40292
G01 X0.07205 Y-0.40571
G01 X0.07205 Y-0.46476
G04 P0 ( dwell for no time -- G64 should not smooth over this point )
G00 Z0.07874 ( retract )

G00 X0.07205 Y-0.56476 ( rapid move to begin. )
G01 F0.59055
G01 Z-0.01024
G04 P0 ( dwell for no time -- G64 should not smooth over this point )
G01 F1.18110
G01 X0.07205 Y-0.56476
G01 X0.07320 Y-0.56755
G01 X0.07598 Y-0.56870
G01 X0.19486 Y-0.56863
G01 X0.19688 Y-0.56755
G01 X0.19795 Y-0.56553
G01 X0.19803 Y-0.54902
G01 X0.41142 Y-0.54902
G01 X0.49971 Y-0.63730
G01 X0.50212 Y-0.63921
G01 X0.50638 Y-0.64098
G01 X0.63463 Y-0.64134
G01 X0.63929 Y-0.64986
G01 X0.64397 Y-0.65506
G01 X0.65024 Y-0.65973
G01 X0.65813 Y-0.66324
G01 X0.66538 Y-0.66475
G01 X0.67279 Y-0.66478
G01 X0.68123 Y-0.66298
G01 X0.68834 Y-0.65973
G01 X0.69461 Y-0.65506
G01 X0.69977 Y-0.64920
G01 X0.70327 Y-0.64314
G01 X0.70594 Y-0.63493
G01 X0.70669 Y-0.62756
G01 X0.70588 Y-0.61978
G01 X0.70327 Y-0.61198
G01 X0.69929 Y-0.60525
G01 X0.69400 Y-0.59950
G01 X0.68762 Y-0.59498
G01 X0.68085 Y-0.59199
G01 X0.67320 Y-0.59036
G01 X0.66538 Y-0.59036
G01 X0.65813 Y-0.59188
G01 X0.65024 Y-0.59539
G01 X0.64397 Y-0.60006
G01 X0.63929 Y-0.60525
G01 X0.63463 Y-0.61378
G01 X0.51516 Y-0.61378
G01 X0.42687 Y-0.52549
G01 X0.42275 Y-0.52267
G01 X0.41943 Y-0.52166
G01 X0.19803 Y-0.52146
G01 X0.19795 Y-0.50494
G01 X0.19688 Y-0.50292
G01 X0.19486 Y-0.50185
G01 X0.07522 Y-0.50185
G01 X0.07320 Y-0.50292
G01 X0.07205 Y-0.50571
G01 X0.07205 Y-0.56476
G04 P0 ( dwell for no time -- G64 should not smooth over this point )
G00 Z0.07874 ( retract )

G00 X0.02559 Y-0.56909 ( rapid move to begin. )
G01 F0.59055
G01 Z-0.01024
G04 P0 ( dwell for no time -- G64 should not smooth over this point )
G01 F1.18110
G01 X0.02559 Y-0.56909
G01 X0.02651 Y-0.57400
G01 X0.02937 Y-0.57855
G01 X0.07205 Y-0.62126
G01 X0.07205 Y-0.66476
G01 X0.07235 Y-0.66627
G01 X0.07380 Y-0.66804
G01 X0.07598 Y-0.66870
G01 X0.19409 Y-0.66870
G01 X0.19560 Y-0.66840
G01 X0.19737 Y-0.66695
G01 X0.19803 Y-0.66476
G01 X0.19803 Y-0.60571
G01 X0.19737 Y-0.60352
G01 X0.19628 Y-0.60244
G01 X0.19409 Y-0.60177
G01 X0.09153 Y-0.60177
G01 X0.05315 Y-0.56339
G01 X0.05315 Y-0.24193
G01 X0.20256 Y-0.09252
G01 X1.52973 Y-0.09252
G01 X1.56102 Y-0.12382
G01 X1.56102 Y-0.30295
G01 X1.51077 Y-0.35321
G01 X1.50722 Y-0.35172
G01 X1.50038 Y-0.35027
G01 X1.49215 Y-0.35020
G01 X1.48412 Y-0.35198
G01 X1.47773 Y-0.35482
G01 X1.47136 Y-0.35935
G01 X1.46580 Y-0.36542
G01 X1.46208 Y-0.37182
G01 X1.45958 Y-0.37923
G01 X1.45866 Y-0.38740
G01 X1.45958 Y-0.39558
G01 X1.46208 Y-0.40298
G01 X1.46580 Y-0.40938
G01 X1.47136 Y-0.41546
G01 X1.47773 Y-0.41998
G01 X1.48412 Y-0.42282
G01 X1.49215 Y-0.42460
G01 X1.50038 Y-0.42453
G01 X1.50722 Y-0.42308
G01 X1.51077 Y-0.42159
G01 X1.56102 Y-0.47185
G01 X1.56102 Y-0.81595
G01 X1.48524 Y-0.89173
G01 X1.24665 Y-0.89173
G01 X1.09731 Y-0.74239
G01 X1.09964 Y-0.73493
G01 X1.10037 Y-0.72715
G01 X1.09947 Y-0.71938
G01 X1.09697 Y-0.71198
G01 X1.09347 Y-0.70592
G01 X1.08802 Y-0.69976
G01 X1.08204 Y-0.69539
G01 X1.07493 Y-0.69213
G01 X1.06731 Y-0.69043
G01 X1.05868 Y-0.69043
G01 X1.05105 Y-0.69213
G01 X1.04394 Y-0.69539
G01 X1.03828 Y-0.69950
G01 X1.03299 Y-0.70525
G01 X1.02833 Y-0.71378
G01 X0.70395 Y-0.71378
G01 X0.69929 Y-0.70525
G01 X0.69461 Y-0.70005
G01 X0.68834 Y-0.69539
G01 X0.68045 Y-0.69188
G01 X0.67320 Y-0.69036
G01 X0.66538 Y-0.69036
G01 X0.65773 Y-0.69199
G01 X0.65096 Y-0.69498
G01 X0.64397 Y-0.70005
G01 X0.63881 Y-0.70592
G01 X0.63512 Y-0.71235
G01 X0.63281 Y-0.71938
G01 X0.63189 Y-0.72756
G01 X0.63271 Y-0.73533
G01 X0.63497 Y-0.74239
G01 X0.63881 Y-0.74920
G01 X0.64397 Y-0.75506
G01 X0.65024 Y-0.75972
G01 X0.65735 Y-0.76298
G01 X0.66579 Y-0.76478
G01 X0.67320 Y-0.76475
G01 X0.68045 Y-0.76324
G01 X0.68834 Y-0.75972
G01 X0.69461 Y-0.75506
G01 X0.69929 Y-0.74986
G01 X0.70395 Y-0.74134
G01 X1.02833 Y-0.74134
G01 X1.03251 Y-0.74920
G01 X1.03797 Y-0.75535
G01 X1.04394 Y-0.75972
G01 X1.05105 Y-0.76298
G01 X1.05908 Y-0.76475
G01 X1.06649 Y-0.76478
G01 X1.07415 Y-0.76324
G01 X1.07770 Y-0.76175
G01 X1.23120 Y-0.91526
G01 X1.23603 Y-0.91837
G01 X1.24094 Y-0.91929
G01 X1.49401 Y-0.91893
G01 X1.49827 Y-0.91717
G01 X1.50069 Y-0.91526
G01 X1.58455 Y-0.83140
G01 X1.58737 Y-0.82728
G01 X1.58837 Y-0.82396
G01 X1.58837 Y-0.46383
G01 X1.58737 Y-0.46052
G01 X1.58455 Y-0.45640
G01 X1.53038 Y-0.40223
G01 X1.53271 Y-0.39477
G01 X1.53346 Y-0.38740
G01 X1.53271 Y-0.38003
G01 X1.53038 Y-0.37257
G01 X1.58455 Y-0.31840
G01 X1.58646 Y-0.31599
G01 X1.58822 Y-0.31172
G01 X1.58822 Y-0.11505
G01 X1.58646 Y-0.11079
G01 X1.58455 Y-0.10837
G01 X1.54518 Y-0.06900
G01 X1.54106 Y-0.06617
G01 X1.53543 Y-0.06496
G01 X0.19379 Y-0.06532
G01 X0.18953 Y-0.06708
G01 X0.18711 Y-0.06900
G01 X0.02963 Y-0.22648
G01 X0.02651 Y-0.23131
G01 X0.02559 Y-0.23622
G01 X0.02559 Y-0.56909
G04 P0 ( dwell for no time -- G64 should not smooth over this point )
G00 Z0.07874 ( retract )

G00 X0.07205 Y-0.76476 ( rapid move to begin. )
G01 F0.59055
G01 Z-0.01024
G04 P0 ( dwell for no time -- G64 should not smooth over this point )
G01 F1.18110
G01 X0.07205 Y-0.76476
G01 X0.07320 Y-0.76755
G01 X0.07598 Y-0.76870
G01 X0.19560 Y-0.76840
G01 X0.19737 Y-0.76695
G01 X0.19803 Y-0.76476
G01 X0.19773 Y-0.70420
G01 X0.19628 Y-0.70244
G01 X0.19409 Y-0.70177
G01 X0.07448 Y-0.70207
G01 X0.07271 Y-0.70352
G01 X0.07205 Y-0.70571
G01 X0.07205 Y-0.76476
G04 P0 ( dwell for no time -- G64 should not smooth over this point )
G00 Z0.07874 ( retract )

G00 X0.24921 Y-0.70492 ( rapid move to begin. )
G01 F0.59055
G01 Z-0.01024
G04 P0 ( dwell for no time -- G64 should not smooth over this point )
G01 F1.18110
G01 X0.24921 Y-0.70492
G01 X0.25037 Y-0.70771
G01 X0.25315 Y-0.70886
G01 X0.29842 Y-0.70886
G01 X0.29863 Y-1.04896
G01 X0.29964 Y-1.05228
G01 X0.30246 Y-1.05640
G01 X0.33819 Y-1.09213
G01 X0.31315 Y-1.11767
G01 X0.31138 Y-1.12194
G01 X0.31104 Y-1.12461
G01 X0.31102 Y-1.14075
G01 X0.26575 Y-1.14075
G01 X0.26424 Y-1.14105
G01 X0.26247 Y-1.14250
G01 X0.26181 Y-1.14468
G01 X0.26181 Y-1.20374
G01 X0.26247 Y-1.20593
G01 X0.26498 Y-1.20760
G01 X0.38386 Y-1.20768
G01 X0.38664 Y-1.20652
G01 X0.38780 Y-1.20374
G01 X0.38780 Y-1.14468
G01 X0.38713 Y-1.14250
G01 X0.38536 Y-1.14105
G01 X0.38386 Y-1.14075
G01 X0.33858 Y-1.14075
G01 X0.33858 Y-1.13071
G01 X0.36338 Y-1.10590
G01 X0.63189 Y-1.10590
G01 X0.63196 Y-1.12636
G01 X0.63304 Y-1.12837
G01 X0.63432 Y-1.12923
G01 X0.70426 Y-1.12923
G01 X0.70554 Y-1.12837
G01 X0.70662 Y-1.12636
G01 X0.70669 Y-1.10590
G01 X0.72475 Y-1.10570
G01 X0.72806 Y-1.10469
G01 X0.73190 Y-1.10213
G01 X0.87539 Y-0.95866
G01 X1.33287 Y-0.95866
G01 X1.43779 Y-1.06355
G01 X1.44162 Y-1.06611
G01 X1.44494 Y-1.06711
G01 X1.46141 Y-1.06732
G01 X1.46606 Y-1.07585
G01 X1.47136 Y-1.08160
G01 X1.47773 Y-1.08612
G01 X1.48450 Y-1.08911
G01 X1.49175 Y-1.09068
G01 X1.49956 Y-1.09076
G01 X1.50762 Y-1.08911
G01 X1.51440 Y-1.08612
G01 X1.52077 Y-1.08160
G01 X1.52632 Y-1.07553
G01 X1.53004 Y-1.06912
G01 X1.53254 Y-1.06172
G01 X1.53344 Y-1.05395
G01 X1.53271 Y-1.04617
G01 X1.53004 Y-1.03796
G01 X1.52632 Y-1.03156
G01 X1.52077 Y-1.02549
G01 X1.51440 Y-1.02096
G01 X1.50762 Y-1.01797
G01 X1.50038 Y-1.01641
G01 X1.49256 Y-1.01632
G01 X1.48412 Y-1.01812
G01 X1.47702 Y-1.02138
G01 X1.47074 Y-1.02604
G01 X1.46580 Y-1.03156
G01 X1.46141 Y-1.03976
G01 X1.45295 Y-1.03976
G01 X1.34833 Y-0.93514
G01 X1.34421 Y-0.93232
G01 X1.34089 Y-0.93131
G01 X0.86969 Y-0.93110
G01 X0.86406 Y-0.93232
G01 X0.85994 Y-0.93514
G01 X0.71673 Y-1.07835
G01 X0.70669 Y-1.07835
G01 X0.70662 Y-1.05789
G01 X0.70554 Y-1.05588
G01 X0.70352 Y-1.05480
G01 X0.63583 Y-1.05472
G01 X0.63304 Y-1.05588
G01 X0.63196 Y-1.05789
G01 X0.63189 Y-1.07835
G01 X0.36338 Y-1.07835
G01 X0.32598 Y-1.04095
G01 X0.32598 Y-0.70886
G01 X0.37126 Y-0.70886
G01 X0.37404 Y-0.70771
G01 X0.37520 Y-0.70492
G01 X0.37490 Y-0.66404
G01 X0.37345 Y-0.66228
G01 X0.37126 Y-0.66161
G01 X0.25164 Y-0.66191
G01 X0.24988 Y-0.66336
G01 X0.24921 Y-0.66555
G01 X0.24921 Y-0.70492
G04 P0 ( dwell for no time -- G64 should not smooth over this point )
G00 Z0.07874 ( retract )

G00 X0.24921 Y-0.60492 ( rapid move to begin. )
G01 F0.59055
G01 Z-0.01024
G04 P0 ( dwell for no time -- G64 should not smooth over this point )
G01 F1.18110
G01 X0.24921 Y-0.60492
G01 X0.25037 Y-0.60771
G01 X0.25315 Y-0.60886
G01 X0.37277 Y-0.60856
G01 X0.37453 Y-0.60711
G01 X0.37520 Y-0.60492
G01 X0.37490 Y-0.56404
G01 X0.37345 Y-0.56228
G01 X0.37126 Y-0.56161
G01 X0.25164 Y-0.56191
G01 X0.24988 Y-0.56336
G01 X0.24921 Y-0.56555
G01 X0.24921 Y-0.60492
G04 P0 ( dwell for no time -- G64 should not smooth over this point )
G00 Z0.07874 ( retract )

G00 X0.24921 Y-0.50492 ( rapid move to begin. )
G01 F0.59055
G01 Z-0.01024
G04 P0 ( dwell for no time -- G64 should not smooth over this point )
G01 F1.18110
G01 X0.24921 Y-0.50492
G01 X0.25037 Y-0.50770
G01 X0.25315 Y-0.50886
G01 X0.37126 Y-0.50886
G01 X0.37345 Y-0.50819
G01 X0.37490 Y-0.50643
G01 X0.37520 Y-0.49901
G01 X0.47953 Y-0.49901
G01 X0.51782 Y-0.53730
G01 X0.52265 Y-0.54042
G01 X0.52756 Y-0.54134
G01 X0.63463 Y-0.54134
G01 X0.63881 Y-0.54920
G01 X0.64458 Y-0.55561
G01 X0.65024 Y-0.55973
G01 X0.65735 Y-0.56298
G01 X0.66579 Y-0.56478
G01 X0.67320 Y-0.56476
G01 X0.68085 Y-0.56313
G01 X0.68834 Y-0.55973
G01 X0.69461 Y-0.55506
G01 X0.69977 Y-0.54920
G01 X0.70346 Y-0.54277
G01 X0.70594 Y-0.53493
G01 X0.70669 Y-0.52756
G01 X0.70588 Y-0.51978
G01 X0.70361 Y-0.51273
G01 X0.69929 Y-0.50525
G01 X0.69432 Y-0.49976
G01 X0.68834 Y-0.49539
G01 X0.68085 Y-0.49199
G01 X0.67361 Y-0.49043
G01 X0.66497 Y-0.49043
G01 X0.65773 Y-0.49199
G01 X0.65024 Y-0.49539
G01 X0.64397 Y-0.50006
G01 X0.63929 Y-0.50525
G01 X0.63463 Y-0.51378
G01 X0.53327 Y-0.51378
G01 X0.49498 Y-0.47549
G01 X0.49014 Y-0.47237
G01 X0.48524 Y-0.47146
G01 X0.37520 Y-0.47146
G01 X0.37490 Y-0.46404
G01 X0.37345 Y-0.46228
G01 X0.37126 Y-0.46161
G01 X0.25164 Y-0.46191
G01 X0.24988 Y-0.46336
G01 X0.24921 Y-0.46555
G01 X0.24921 Y-0.50492
G04 P0 ( dwell for no time -- G64 should not smooth over this point )
G00 Z0.07874 ( retract )

G00 X0.24921 Y-0.40492 ( rapid move to begin. )
G01 F0.59055
G01 Z-0.01024
G04 P0 ( dwell for no time -- G64 should not smooth over this point )
G01 F1.18110
G01 X0.24921 Y-0.40492
G01 X0.25037 Y-0.40770
G01 X0.25315 Y-0.40886
G01 X0.37126 Y-0.40886
G01 X0.37345 Y-0.40819
G01 X0.37490 Y-0.40643
G01 X0.37520 Y-0.39902
G01 X0.44460 Y-0.39866
G01 X0.44886 Y-0.39689
G01 X0.45128 Y-0.39498
G01 X0.50492 Y-0.34134
G01 X0.63463 Y-0.34134
G01 X0.63929 Y-0.34986
G01 X0.64397 Y-0.35506
G01 X0.65024 Y-0.35973
G01 X0.65773 Y-0.36313
G01 X0.66497 Y-0.36469
G01 X0.67361 Y-0.36469
G01 X0.68085 Y-0.36313
G01 X0.68834 Y-0.35973
G01 X0.69461 Y-0.35506
G01 X0.69977 Y-0.34920
G01 X0.70361 Y-0.34239
G01 X0.70588 Y-0.33533
G01 X0.70669 Y-0.32756
G01 X0.70588 Y-0.31978
G01 X0.70361 Y-0.31273
G01 X0.69977 Y-0.30592
G01 X0.69400 Y-0.29950
G01 X0.68834 Y-0.29539
G01 X0.68123 Y-0.29213
G01 X0.67279 Y-0.29034
G01 X0.66538 Y-0.29036
G01 X0.65813 Y-0.29188
G01 X0.65024 Y-0.29539
G01 X0.64426 Y-0.29976
G01 X0.63929 Y-0.30525
G01 X0.63463 Y-0.31378
G01 X0.49691 Y-0.31399
G01 X0.49359 Y-0.31499
G01 X0.48947 Y-0.31782
G01 X0.43583 Y-0.37146
G01 X0.37520 Y-0.37146
G01 X0.37490 Y-0.36404
G01 X0.37345 Y-0.36228
G01 X0.37126 Y-0.36161
G01 X0.25164 Y-0.36191
G01 X0.24988 Y-0.36336
G01 X0.24921 Y-0.36555
G01 X0.24921 Y-0.40492
G04 P0 ( dwell for no time -- G64 should not smooth over this point )
G00 Z0.07874 ( retract )

G00 X0.24921 Y-0.31476 ( rapid move to begin. )
G01 F0.59055
G01 Z-0.01024
G04 P0 ( dwell for no time -- G64 should not smooth over this point )
G01 F1.18110
G01 X0.24921 Y-0.31476
G01 X0.25037 Y-0.31755
G01 X0.25315 Y-0.31870
G01 X0.37277 Y-0.31840
G01 X0.37453 Y-0.31695
G01 X0.37520 Y-0.31476
G01 X0.37490 Y-0.25420
G01 X0.37345 Y-0.25244
G01 X0.37126 Y-0.25177
G01 X0.25164 Y-0.25207
G01 X0.24988 Y-0.25352
G01 X0.24921 Y-0.25571
G01 X0.24921 Y-0.31476
G04 P0 ( dwell for no time -- G64 should not smooth over this point )
G00 Z0.07874 ( retract )

G00 X0.63189 Y-0.26102 ( rapid move to begin. )
G01 F0.59055
G01 Z-0.01024
G04 P0 ( dwell for no time -- G64 should not smooth over this point )
G01 F1.18110
G01 X0.63189 Y-0.26102
G01 X0.63189 Y-0.19409
G01 X0.63219 Y-0.19259
G01 X0.63364 Y-0.19082
G01 X0.63583 Y-0.19016
G01 X0.70352 Y-0.19023
G01 X0.70554 Y-0.19131
G01 X0.70662 Y-0.19333
G01 X0.70669 Y-0.21378
G01 X0.71673 Y-0.21378
G01 X0.78632 Y-0.14419
G01 X0.79044 Y-0.14137
G01 X0.79568 Y-0.14018
G01 X1.46298 Y-0.14018
G01 X1.46751 Y-0.14108
G01 X1.47056 Y-0.14271
G01 X1.48136 Y-0.15321
G01 X1.48490 Y-0.15172
G01 X1.49175 Y-0.15027
G01 X1.49997 Y-0.15020
G01 X1.50801 Y-0.15198
G01 X1.51511 Y-0.15524
G01 X1.52077 Y-0.15935
G01 X1.52606 Y-0.16510
G01 X1.53004 Y-0.17182
G01 X1.53254 Y-0.17923
G01 X1.53344 Y-0.18699
G01 X1.53271 Y-0.19477
G01 X1.53038 Y-0.20223
G01 X1.52632 Y-0.20938
G01 X1.52138 Y-0.21490
G01 X1.51511 Y-0.21957
G01 X1.50801 Y-0.22282
G01 X1.49997 Y-0.22460
G01 X1.49256 Y-0.22462
G01 X1.48490 Y-0.22308
G01 X1.47773 Y-0.21998
G01 X1.47136 Y-0.21546
G01 X1.46558 Y-0.20904
G01 X1.46175 Y-0.20223
G01 X1.45958 Y-0.19557
G01 X1.45868 Y-0.18781
G01 X1.45941 Y-0.18003
G01 X1.46175 Y-0.17257
G01 X1.45689 Y-0.16772
G01 X0.80177 Y-0.16772
G01 X0.73041 Y-0.23879
G01 X0.72475 Y-0.24113
G01 X0.70669 Y-0.24134
G01 X0.70669 Y-0.26102
G01 X0.70639 Y-0.26253
G01 X0.70494 Y-0.26430
G01 X0.70276 Y-0.26496
G01 X0.63583 Y-0.26496
G01 X0.63304 Y-0.26381
G01 X0.63189 Y-0.26102
G04 P0 ( dwell for no time -- G64 should not smooth over this point )
G00 Z0.07874 ( retract )

G00 X1.02559 Y-0.26102 ( rapid move to begin. )
G01 F0.59055
G01 Z-0.01024
G04 P0 ( dwell for no time -- G64 should not smooth over this point )
G01 F1.18110
G01 X1.02559 Y-0.26102
G01 X1.02674 Y-0.26381
G01 X1.02953 Y-0.26496
G01 X1.09722 Y-0.26488
G01 X1.09924 Y-0.26381
G01 X1.10032 Y-0.26179
G01 X1.10039 Y-0.24134
G01 X1.43051 Y-0.24134
G01 X1.46175 Y-0.27257
G01 X1.45941 Y-0.28003
G01 X1.45866 Y-0.28740
G01 X1.45941 Y-0.29477
G01 X1.46175 Y-0.30223
G01 X1.46606 Y-0.30971
G01 X1.47136 Y-0.31545
G01 X1.47773 Y-0.31998
G01 X1.48490 Y-0.32308
G01 X1.49215 Y-0.32460
G01 X1.49956 Y-0.32462
G01 X1.50722 Y-0.32308
G01 X1.51511 Y-0.31957
G01 X1.52077 Y-0.31545
G01 X1.52606 Y-0.30971
G01 X1.53004 Y-0.30298
G01 X1.53254 Y-0.29557
G01 X1.53346 Y-0.28740
G01 X1.53254 Y-0.27923
G01 X1.53004 Y-0.27182
G01 X1.52632 Y-0.26542
G01 X1.52077 Y-0.25935
G01 X1.51440 Y-0.25482
G01 X1.50801 Y-0.25198
G01 X1.49997 Y-0.25020
G01 X1.49175 Y-0.25027
G01 X1.48490 Y-0.25172
G01 X1.48136 Y-0.25321
G01 X1.44596 Y-0.21782
G01 X1.44354 Y-0.21590
G01 X1.43928 Y-0.21414
G01 X1.10039 Y-0.21378
G01 X1.10032 Y-0.19333
G01 X1.09864 Y-0.19082
G01 X1.09646 Y-0.19016
G01 X1.02953 Y-0.19016
G01 X1.02674 Y-0.19131
G01 X1.02559 Y-0.19409
G01 X1.02559 Y-0.26102
G04 P0 ( dwell for no time -- G64 should not smooth over this point )
G00 Z0.07874 ( retract )

G00 X1.02559 Y-0.32756 ( rapid move to begin. )
G01 F0.59055
G01 Z-0.01024
G04 P0 ( dwell for no time -- G64 should not smooth over this point )
G01 F1.18110
G01 X1.02559 Y-0.32756
G01 X1.02634 Y-0.32019
G01 X1.02868 Y-0.31273
G01 X1.03299 Y-0.30525
G01 X1.03828 Y-0.29950
G01 X1.04466 Y-0.29498
G01 X1.05183 Y-0.29188
G01 X1.05908 Y-0.29036
G01 X1.06690 Y-0.29036
G01 X1.07415 Y-0.29188
G01 X1.08204 Y-0.29539
G01 X1.08802 Y-0.29976
G01 X1.09299 Y-0.30525
G01 X1.09765 Y-0.31378
G01 X1.15433 Y-0.31378
G01 X1.15924 Y-0.31470
G01 X1.16407 Y-0.31782
G01 X1.31988 Y-0.47362
G01 X1.46141 Y-0.47362
G01 X1.46606 Y-0.46510
G01 X1.47136 Y-0.45935
G01 X1.47702 Y-0.45524
G01 X1.48490 Y-0.45172
G01 X1.49215 Y-0.45020
G01 X1.49997 Y-0.45020
G01 X1.50801 Y-0.45198
G01 X1.51511 Y-0.45524
G01 X1.52138 Y-0.45990
G01 X1.52655 Y-0.46576
G01 X1.53038 Y-0.47257
G01 X1.53271 Y-0.48003
G01 X1.53346 Y-0.48740
G01 X1.53271 Y-0.49477
G01 X1.53038 Y-0.50223
G01 X1.52606 Y-0.50970
G01 X1.52077 Y-0.51545
G01 X1.51511 Y-0.51957
G01 X1.50722 Y-0.52308
G01 X1.49997 Y-0.52460
G01 X1.49256 Y-0.52462
G01 X1.48412 Y-0.52282
G01 X1.47773 Y-0.51998
G01 X1.47136 Y-0.51545
G01 X1.46580 Y-0.50938
G01 X1.46141 Y-0.50118
G01 X1.31417 Y-0.50118
G01 X1.30926 Y-0.50026
G01 X1.30443 Y-0.49715
G01 X1.14862 Y-0.34134
G01 X1.09765 Y-0.34134
G01 X1.09299 Y-0.34986
G01 X1.08831 Y-0.35506
G01 X1.08204 Y-0.35973
G01 X1.07415 Y-0.36324
G01 X1.06690 Y-0.36475
G01 X1.05908 Y-0.36475
G01 X1.05183 Y-0.36324
G01 X1.04466 Y-0.36014
G01 X1.03797 Y-0.35535
G01 X1.03299 Y-0.34986
G01 X1.02868 Y-0.34239
G01 X1.02634 Y-0.33493
G01 X1.02559 Y-0.32756
G04 P0 ( dwell for no time -- G64 should not smooth over this point )
G00 Z0.07874 ( retract )

G00 X1.02559 Y-0.42756 ( rapid move to begin. )
G01 F0.59055
G01 Z-0.01024
G04 P0 ( dwell for no time -- G64 should not smooth over this point )
G01 F1.18110
G01 X1.02559 Y-0.42756
G01 X1.02634 Y-0.42019
G01 X1.02868 Y-0.41273
G01 X1.03299 Y-0.40525
G01 X1.03828 Y-0.39950
G01 X1.04466 Y-0.39498
G01 X1.05183 Y-0.39188
G01 X1.05908 Y-0.39036
G01 X1.06690 Y-0.39036
G01 X1.07415 Y-0.39188
G01 X1.08204 Y-0.39539
G01 X1.08802 Y-0.39976
G01 X1.09299 Y-0.40525
G01 X1.09765 Y-0.41378
G01 X1.13622 Y-0.41378
G01 X1.14113 Y-0.41470
G01 X1.14596 Y-0.41781
G01 X1.30177 Y-0.57362
G01 X1.46141 Y-0.57362
G01 X1.46606 Y-0.56510
G01 X1.47136 Y-0.55935
G01 X1.47702 Y-0.55524
G01 X1.48490 Y-0.55172
G01 X1.49215 Y-0.55020
G01 X1.49997 Y-0.55020
G01 X1.50801 Y-0.55198
G01 X1.51511 Y-0.55524
G01 X1.52138 Y-0.55990
G01 X1.52655 Y-0.56576
G01 X1.53038 Y-0.57257
G01 X1.53271 Y-0.58003
G01 X1.53346 Y-0.58740
G01 X1.53271 Y-0.59477
G01 X1.53038 Y-0.60223
G01 X1.52606 Y-0.60971
G01 X1.52077 Y-0.61545
G01 X1.51511 Y-0.61957
G01 X1.50722 Y-0.62308
G01 X1.49997 Y-0.62460
G01 X1.49256 Y-0.62462
G01 X1.48412 Y-0.62282
G01 X1.47773 Y-0.61998
G01 X1.47136 Y-0.61545
G01 X1.46580 Y-0.60938
G01 X1.46141 Y-0.60118
G01 X1.29606 Y-0.60118
G01 X1.29115 Y-0.60026
G01 X1.28632 Y-0.59715
G01 X1.13051 Y-0.44134
G01 X1.09765 Y-0.44134
G01 X1.09299 Y-0.44986
G01 X1.08831 Y-0.45506
G01 X1.08204 Y-0.45972
G01 X1.07415 Y-0.46324
G01 X1.06690 Y-0.46475
G01 X1.05908 Y-0.46475
G01 X1.05183 Y-0.46324
G01 X1.04466 Y-0.46014
G01 X1.03797 Y-0.45535
G01 X1.03299 Y-0.44986
G01 X1.02868 Y-0.44239
G01 X1.02634 Y-0.43493
G01 X1.02559 Y-0.42756
G04 P0 ( dwell for no time -- G64 should not smooth over this point )
G00 Z0.07874 ( retract )

G00 X1.02559 Y-0.52756 ( rapid move to begin. )
G01 F0.59055
G01 Z-0.01024
G04 P0 ( dwell for no time -- G64 should not smooth over this point )
G01 F1.18110
G01 X1.02559 Y-0.52756
G01 X1.02634 Y-0.52019
G01 X1.02868 Y-0.51273
G01 X1.03299 Y-0.50525
G01 X1.03828 Y-0.49950
G01 X1.04466 Y-0.49498
G01 X1.05183 Y-0.49188
G01 X1.05908 Y-0.49036
G01 X1.06690 Y-0.49036
G01 X1.07415 Y-0.49188
G01 X1.08204 Y-0.49539
G01 X1.08802 Y-0.49976
G01 X1.09299 Y-0.50525
G01 X1.09765 Y-0.51378
G01 X1.11850 Y-0.51380
G01 X1.12302 Y-0.51470
G01 X1.12543 Y-0.51590
G01 X1.28366 Y-0.67362
G01 X1.46141 Y-0.67362
G01 X1.46606 Y-0.66510
G01 X1.47136 Y-0.65935
G01 X1.47702 Y-0.65524
G01 X1.48490 Y-0.65172
G01 X1.49215 Y-0.65020
G01 X1.49997 Y-0.65020
G01 X1.50801 Y-0.65198
G01 X1.51511 Y-0.65524
G01 X1.52138 Y-0.65990
G01 X1.52655 Y-0.66576
G01 X1.53038 Y-0.67257
G01 X1.53271 Y-0.68003
G01 X1.53346 Y-0.68740
G01 X1.53271 Y-0.69477
G01 X1.53038 Y-0.70223
G01 X1.52606 Y-0.70971
G01 X1.52077 Y-0.71545
G01 X1.51511 Y-0.71957
G01 X1.50722 Y-0.72308
G01 X1.49997 Y-0.72460
G01 X1.49256 Y-0.72462
G01 X1.48412 Y-0.72282
G01 X1.47773 Y-0.71998
G01 X1.47136 Y-0.71545
G01 X1.46580 Y-0.70939
G01 X1.46141 Y-0.70118
G01 X1.27795 Y-0.70118
G01 X1.27304 Y-0.70026
G01 X1.26821 Y-0.69715
G01 X1.11240 Y-0.54134
G01 X1.09765 Y-0.54134
G01 X1.09299 Y-0.54986
G01 X1.08831 Y-0.55506
G01 X1.08204 Y-0.55973
G01 X1.07493 Y-0.56298
G01 X1.06731 Y-0.56469
G01 X1.05868 Y-0.56469
G01 X1.05105 Y-0.56298
G01 X1.04394 Y-0.55973
G01 X1.03797 Y-0.55535
G01 X1.03299 Y-0.54986
G01 X1.02868 Y-0.54239
G01 X1.02634 Y-0.53493
G01 X1.02559 Y-0.52756
G04 P0 ( dwell for no time -- G64 should not smooth over this point )
G00 Z0.07874 ( retract )

G00 X1.02559 Y-0.62756 ( rapid move to begin. )
G01 F0.59055
G01 Z-0.01024
G04 P0 ( dwell for no time -- G64 should not smooth over this point )
G01 F1.18110
G01 X1.02559 Y-0.62756
G01 X1.02651 Y-0.61938
G01 X1.02868 Y-0.61273
G01 X1.03251 Y-0.60592
G01 X1.03828 Y-0.59950
G01 X1.04466 Y-0.59498
G01 X1.05105 Y-0.59213
G01 X1.05868 Y-0.59043
G01 X1.06649 Y-0.59034
G01 X1.07493 Y-0.59213
G01 X1.08204 Y-0.59539
G01 X1.08802 Y-0.59976
G01 X1.09347 Y-0.60592
G01 X1.09697 Y-0.61198
G01 X1.09947 Y-0.61938
G01 X1.10037 Y-0.62797
G01 X1.09947 Y-0.63573
G01 X1.09731 Y-0.64239
G01 X1.22854 Y-0.77362
G01 X1.45866 Y-0.77362
G01 X1.45874 Y-0.75317
G01 X1.45932 Y-0.75175
G01 X1.46109 Y-0.75030
G01 X1.53103 Y-0.75030
G01 X1.53280 Y-0.75175
G01 X1.53346 Y-0.75394
G01 X1.53316 Y-0.82237
G01 X1.53171 Y-0.82414
G01 X1.52953 Y-0.82480
G01 X1.46183 Y-0.82473
G01 X1.45981 Y-0.82365
G01 X1.45874 Y-0.82163
G01 X1.45866 Y-0.80118
G01 X1.22283 Y-0.80118
G01 X1.21792 Y-0.80026
G01 X1.21309 Y-0.79714
G01 X1.07770 Y-0.66175
G01 X1.07415 Y-0.66324
G01 X1.06690 Y-0.66475
G01 X1.05868 Y-0.66469
G01 X1.05105 Y-0.66298
G01 X1.04466 Y-0.66014
G01 X1.03797 Y-0.65535
G01 X1.03251 Y-0.64920
G01 X1.02868 Y-0.64239
G01 X1.02634 Y-0.63493
G01 X1.02559 Y-0.62756
G04 P0 ( dwell for no time -- G64 should not smooth over this point )
G00 Z0.07874 ( retract )

G00 X1.02559 Y-1.12795 ( rapid move to begin. )
G01 F0.59055
G01 Z-0.01024
G04 P0 ( dwell for no time -- G64 should not smooth over this point )
G01 F1.18110
G01 X1.02559 Y-1.12795
G01 X1.02559 Y-1.06102
G01 X1.02674 Y-1.05824
G01 X1.02953 Y-1.05709
G01 X1.09646 Y-1.05709
G01 X1.09924 Y-1.05824
G01 X1.10032 Y-1.06025
G01 X1.10039 Y-1.08071
G01 X1.44007 Y-1.08107
G01 X1.44433 Y-1.08283
G01 X1.44675 Y-1.08474
G01 X1.48136 Y-1.11935
G01 X1.48490 Y-1.11787
G01 X1.49175 Y-1.11641
G01 X1.49997 Y-1.11635
G01 X1.50801 Y-1.11812
G01 X1.51476 Y-1.12115
G01 X1.52077 Y-1.12549
G01 X1.52632 Y-1.13156
G01 X1.53038 Y-1.13871
G01 X1.53265 Y-1.14577
G01 X1.53344 Y-1.15395
G01 X1.53254 Y-1.16172
G01 X1.53038 Y-1.16837
G01 X1.52655 Y-1.17518
G01 X1.52138 Y-1.18105
G01 X1.51476 Y-1.18593
G01 X1.50722 Y-1.18922
G01 X1.49956 Y-1.19076
G01 X1.49175 Y-1.19067
G01 X1.48412 Y-1.18897
G01 X1.47773 Y-1.18612
G01 X1.47136 Y-1.18160
G01 X1.46606 Y-1.17585
G01 X1.46175 Y-1.16837
G01 X1.45948 Y-1.16132
G01 X1.45868 Y-1.15395
G01 X1.45948 Y-1.14577
G01 X1.46175 Y-1.13871
G01 X1.43130 Y-1.10827
G01 X1.10039 Y-1.10827
G01 X1.10032 Y-1.12872
G01 X1.09924 Y-1.13074
G01 X1.09722 Y-1.13181
G01 X1.02953 Y-1.13189
G01 X1.02674 Y-1.13074
G01 X1.02559 Y-1.12795
G04 P0 ( dwell for no time -- G64 should not smooth over this point )
G00 Z0.07874 ( retract )

G00 X1.02561 Y-1.19490 ( rapid move to begin. )
G01 F0.59055
G01 Z-0.01024
G04 P0 ( dwell for no time -- G64 should not smooth over this point )
G01 F1.18110
G01 X1.02561 Y-1.19490
G01 X1.02641 Y-1.20226
G01 X1.02868 Y-1.20932
G01 X1.03251 Y-1.21613
G01 X1.03767 Y-1.22199
G01 X1.04394 Y-1.22665
G01 X1.05105 Y-1.22991
G01 X1.05949 Y-1.23171
G01 X1.06731 Y-1.23162
G01 X1.07415 Y-1.23016
G01 X1.08204 Y-1.22665
G01 X1.08831 Y-1.22199
G01 X1.09299 Y-1.21679
G01 X1.09765 Y-1.20827
G01 X1.33130 Y-1.20827
G01 X1.46175 Y-1.33872
G01 X1.45948 Y-1.34577
G01 X1.45868 Y-1.35313
G01 X1.45948 Y-1.36132
G01 X1.46175 Y-1.36837
G01 X1.46558 Y-1.37518
G01 X1.47136 Y-1.38160
G01 X1.47773 Y-1.38612
G01 X1.48450 Y-1.38911
G01 X1.49175 Y-1.39068
G01 X1.49956 Y-1.39076
G01 X1.50722 Y-1.38922
G01 X1.51440 Y-1.38612
G01 X1.52077 Y-1.38160
G01 X1.52632 Y-1.37553
G01 X1.53038 Y-1.36837
G01 X1.53265 Y-1.36132
G01 X1.53344 Y-1.35395
G01 X1.53265 Y-1.34577
G01 X1.53004 Y-1.33796
G01 X1.52632 Y-1.33156
G01 X1.52138 Y-1.32604
G01 X1.51440 Y-1.32096
G01 X1.50762 Y-1.31797
G01 X1.50038 Y-1.31641
G01 X1.49175 Y-1.31641
G01 X1.48450 Y-1.31797
G01 X1.48136 Y-1.31935
G01 X1.34675 Y-1.18474
G01 X1.34192 Y-1.18163
G01 X1.33701 Y-1.18071
G01 X1.09765 Y-1.18071
G01 X1.09299 Y-1.17218
G01 X1.08802 Y-1.16669
G01 X1.08204 Y-1.16232
G01 X1.07415 Y-1.15881
G01 X1.06731 Y-1.15735
G01 X1.05949 Y-1.15727
G01 X1.05143 Y-1.15892
G01 X1.04466 Y-1.16191
G01 X1.03828 Y-1.16643
G01 X1.03299 Y-1.17218
G01 X1.02901 Y-1.17891
G01 X1.02651 Y-1.18631
G01 X1.02561 Y-1.19490
G04 P0 ( dwell for no time -- G64 should not smooth over this point )
G00 Z0.07874 ( retract )

G00 X1.02561 Y-1.29490 ( rapid move to begin. )
G01 F0.59055
G01 Z-0.01024
G04 P0 ( dwell for no time -- G64 should not smooth over this point )
G01 F1.18110
G01 X1.02561 Y-1.29490
G01 X1.02641 Y-1.30226
G01 X1.02868 Y-1.30932
G01 X1.03251 Y-1.31613
G01 X1.03767 Y-1.32199
G01 X1.04394 Y-1.32665
G01 X1.05105 Y-1.32991
G01 X1.05949 Y-1.33171
G01 X1.06731 Y-1.33162
G01 X1.07415 Y-1.33017
G01 X1.08204 Y-1.32665
G01 X1.08831 Y-1.32199
G01 X1.09299 Y-1.31679
G01 X1.09765 Y-1.30827
G01 X1.33130 Y-1.30827
G01 X1.46175 Y-1.43871
G01 X1.45948 Y-1.44577
G01 X1.45868 Y-1.45313
G01 X1.45948 Y-1.46132
G01 X1.46175 Y-1.46837
G01 X1.46558 Y-1.47518
G01 X1.47136 Y-1.48160
G01 X1.47773 Y-1.48612
G01 X1.48450 Y-1.48911
G01 X1.49175 Y-1.49067
G01 X1.49956 Y-1.49076
G01 X1.50722 Y-1.48922
G01 X1.51440 Y-1.48612
G01 X1.52077 Y-1.48160
G01 X1.52632 Y-1.47553
G01 X1.53038 Y-1.46837
G01 X1.53265 Y-1.46132
G01 X1.53344 Y-1.45395
G01 X1.53265 Y-1.44577
G01 X1.53004 Y-1.43796
G01 X1.52632 Y-1.43156
G01 X1.52138 Y-1.42604
G01 X1.51440 Y-1.42097
G01 X1.50762 Y-1.41797
G01 X1.50038 Y-1.41641
G01 X1.49175 Y-1.41641
G01 X1.48450 Y-1.41797
G01 X1.48136 Y-1.41935
G01 X1.34675 Y-1.28474
G01 X1.34192 Y-1.28163
G01 X1.33701 Y-1.28071
G01 X1.09765 Y-1.28071
G01 X1.09299 Y-1.27218
G01 X1.08802 Y-1.26669
G01 X1.08204 Y-1.26232
G01 X1.07415 Y-1.25881
G01 X1.06731 Y-1.25736
G01 X1.05949 Y-1.25727
G01 X1.05143 Y-1.25892
G01 X1.04466 Y-1.26191
G01 X1.03828 Y-1.26643
G01 X1.03299 Y-1.27218
G01 X1.02901 Y-1.27891
G01 X1.02651 Y-1.28631
G01 X1.02561 Y-1.29490
G04 P0 ( dwell for no time -- G64 should not smooth over this point )
G00 Z0.07874 ( retract )

G00 X1.02561 Y-1.39490 ( rapid move to begin. )
G01 F0.59055
G01 Z-0.01024
G04 P0 ( dwell for no time -- G64 should not smooth over this point )
G01 F1.18110
G01 X1.02561 Y-1.39490
G01 X1.02641 Y-1.40226
G01 X1.02868 Y-1.40932
G01 X1.03251 Y-1.41613
G01 X1.03767 Y-1.42199
G01 X1.04394 Y-1.42665
G01 X1.05105 Y-1.42991
G01 X1.05949 Y-1.43171
G01 X1.06731 Y-1.43162
G01 X1.07415 Y-1.43016
G01 X1.08204 Y-1.42665
G01 X1.08831 Y-1.42199
G01 X1.09299 Y-1.41679
G01 X1.09765 Y-1.40827
G01 X1.33130 Y-1.40827
G01 X1.46175 Y-1.53872
G01 X1.45948 Y-1.54577
G01 X1.45868 Y-1.55313
G01 X1.45948 Y-1.56132
G01 X1.46175 Y-1.56837
G01 X1.46558 Y-1.57518
G01 X1.47136 Y-1.58160
G01 X1.47773 Y-1.58612
G01 X1.48450 Y-1.58911
G01 X1.49175 Y-1.59068
G01 X1.49956 Y-1.59076
G01 X1.50722 Y-1.58922
G01 X1.51440 Y-1.58612
G01 X1.52077 Y-1.58160
G01 X1.52632 Y-1.57553
G01 X1.53038 Y-1.56837
G01 X1.53265 Y-1.56132
G01 X1.53344 Y-1.55395
G01 X1.53265 Y-1.54577
G01 X1.53004 Y-1.53796
G01 X1.52632 Y-1.53156
G01 X1.52138 Y-1.52604
G01 X1.51440 Y-1.52096
G01 X1.50762 Y-1.51797
G01 X1.50038 Y-1.51641
G01 X1.49175 Y-1.51641
G01 X1.48450 Y-1.51797
G01 X1.48136 Y-1.51935
G01 X1.34675 Y-1.38474
G01 X1.34192 Y-1.38163
G01 X1.33701 Y-1.38071
G01 X1.09765 Y-1.38071
G01 X1.09299 Y-1.37218
G01 X1.08802 Y-1.36669
G01 X1.08204 Y-1.36232
G01 X1.07415 Y-1.35881
G01 X1.06731 Y-1.35736
G01 X1.05949 Y-1.35727
G01 X1.05143 Y-1.35892
G01 X1.04466 Y-1.36191
G01 X1.03828 Y-1.36643
G01 X1.03299 Y-1.37218
G01 X1.02901 Y-1.37891
G01 X1.02651 Y-1.38631
G01 X1.02561 Y-1.39490
G04 P0 ( dwell for no time -- G64 should not smooth over this point )
G00 Z0.07874 ( retract )

G00 X1.02561 Y-1.49490 ( rapid move to begin. )
G01 F0.59055
G01 Z-0.01024
G04 P0 ( dwell for no time -- G64 should not smooth over this point )
G01 F1.18110
G01 X1.02561 Y-1.49490
G01 X1.02641 Y-1.50226
G01 X1.02868 Y-1.50932
G01 X1.03251 Y-1.51613
G01 X1.03767 Y-1.52199
G01 X1.04429 Y-1.52688
G01 X1.05105 Y-1.52991
G01 X1.05949 Y-1.53171
G01 X1.06690 Y-1.53168
G01 X1.07415 Y-1.53016
G01 X1.08169 Y-1.52688
G01 X1.08770 Y-1.52254
G01 X1.09299 Y-1.51679
G01 X1.09765 Y-1.50827
G01 X1.33130 Y-1.50827
G01 X1.45866 Y-1.63563
G01 X1.45866 Y-1.68701
G01 X1.45981 Y-1.68979
G01 X1.46260 Y-1.69094
G01 X1.52953 Y-1.69094
G01 X1.53171 Y-1.69028
G01 X1.53316 Y-1.68851
G01 X1.53346 Y-1.62008
G01 X1.53231 Y-1.61729
G01 X1.52953 Y-1.61614
G01 X1.47815 Y-1.61614
G01 X1.34675 Y-1.48474
G01 X1.34192 Y-1.48163
G01 X1.33701 Y-1.48071
G01 X1.09765 Y-1.48071
G01 X1.09299 Y-1.47218
G01 X1.08802 Y-1.46669
G01 X1.08169 Y-1.46210
G01 X1.07415 Y-1.45881
G01 X1.06690 Y-1.45729
G01 X1.05949 Y-1.45727
G01 X1.05183 Y-1.45881
G01 X1.04429 Y-1.46210
G01 X1.03828 Y-1.46643
G01 X1.03299 Y-1.47218
G01 X1.02901 Y-1.47891
G01 X1.02651 Y-1.48631
G01 X1.02561 Y-1.49490
G04 P0 ( dwell for no time -- G64 should not smooth over this point )
G00 Z0.07874 ( retract )

G00 X0.26181 Y-1.49390 ( rapid move to begin. )
G01 F0.59055
G01 Z-0.01024
G04 P0 ( dwell for no time -- G64 should not smooth over this point )
G01 F1.18110
G01 X0.26181 Y-1.49390
G01 X0.26181 Y-1.45453
G01 X0.26296 Y-1.45174
G01 X0.26575 Y-1.45059
G01 X0.38463 Y-1.45067
G01 X0.38664 Y-1.45174
G01 X0.38749 Y-1.45302
G01 X0.38780 Y-1.46043
G01 X0.45059 Y-1.46043
G01 X0.45550 Y-1.46135
G01 X0.46033 Y-1.46447
G01 X0.47421 Y-1.47835
G01 X0.63463 Y-1.47835
G01 X0.63929 Y-1.46982
G01 X0.64426 Y-1.46433
G01 X0.65024 Y-1.45996
G01 X0.65813 Y-1.45645
G01 X0.66497 Y-1.45499
G01 X0.67279 Y-1.45491
G01 X0.68123 Y-1.45670
G01 X0.68834 Y-1.45996
G01 X0.69461 Y-1.46462
G01 X0.69977 Y-1.47049
G01 X0.70346 Y-1.47691
G01 X0.70588 Y-1.48435
G01 X0.70667 Y-1.49171
G01 X0.70588 Y-1.49990
G01 X0.70346 Y-1.50734
G01 X0.69977 Y-1.51376
G01 X0.69461 Y-1.51963
G01 X0.68834 Y-1.52429
G01 X0.68123 Y-1.52755
G01 X0.67279 Y-1.52934
G01 X0.66497 Y-1.52926
G01 X0.65813 Y-1.52780
G01 X0.65024 Y-1.52429
G01 X0.64426 Y-1.51992
G01 X0.63929 Y-1.51443
G01 X0.63463 Y-1.50591
G01 X0.46812 Y-1.50589
G01 X0.46359 Y-1.50499
G01 X0.46054 Y-1.50335
G01 X0.44488 Y-1.48799
G01 X0.38780 Y-1.48799
G01 X0.38749 Y-1.49540
G01 X0.38605 Y-1.49717
G01 X0.38386 Y-1.49783
G01 X0.26575 Y-1.49783
G01 X0.26296 Y-1.49668
G01 X0.26181 Y-1.49390
G04 P0 ( dwell for no time -- G64 should not smooth over this point )
G00 Z0.07874 ( retract )

G00 X0.26181 Y-1.39390 ( rapid move to begin. )
G01 F0.59055
G01 Z-0.01024
G04 P0 ( dwell for no time -- G64 should not smooth over this point )
G01 F1.18110
G01 X0.26181 Y-1.39390
G01 X0.26181 Y-1.35453
G01 X0.26247 Y-1.35234
G01 X0.26498 Y-1.35067
G01 X0.38386 Y-1.35059
G01 X0.38605 Y-1.35125
G01 X0.38749 Y-1.35302
G01 X0.38780 Y-1.36043
G01 X0.50984 Y-1.36043
G01 X0.58789 Y-1.28238
G01 X0.59273 Y-1.27927
G01 X0.59764 Y-1.27835
G01 X0.63463 Y-1.27835
G01 X0.63929 Y-1.26982
G01 X0.64426 Y-1.26433
G01 X0.65059 Y-1.25974
G01 X0.65813 Y-1.25645
G01 X0.66497 Y-1.25499
G01 X0.67279 Y-1.25491
G01 X0.68123 Y-1.25670
G01 X0.68799 Y-1.25974
G01 X0.69432 Y-1.26433
G01 X0.69977 Y-1.27049
G01 X0.70346 Y-1.27691
G01 X0.70588 Y-1.28435
G01 X0.70667 Y-1.29171
G01 X0.70588 Y-1.29990
G01 X0.70346 Y-1.30734
G01 X0.69977 Y-1.31376
G01 X0.69432 Y-1.31992
G01 X0.68799 Y-1.32452
G01 X0.68085 Y-1.32770
G01 X0.67361 Y-1.32926
G01 X0.66497 Y-1.32926
G01 X0.65773 Y-1.32770
G01 X0.65059 Y-1.32452
G01 X0.64426 Y-1.31992
G01 X0.63929 Y-1.31443
G01 X0.63463 Y-1.30591
G01 X0.60335 Y-1.30591
G01 X0.52529 Y-1.38396
G01 X0.52287 Y-1.38587
G01 X0.51861 Y-1.38763
G01 X0.38780 Y-1.38799
G01 X0.38749 Y-1.39540
G01 X0.38605 Y-1.39717
G01 X0.38386 Y-1.39783
G01 X0.26575 Y-1.39783
G01 X0.26296 Y-1.39668
G01 X0.26181 Y-1.39390
G04 P0 ( dwell for no time -- G64 should not smooth over this point )
G00 Z0.07874 ( retract )

G00 X0.26181 Y-1.29390 ( rapid move to begin. )
G01 F0.59055
G01 Z-0.01024
G04 P0 ( dwell for no time -- G64 should not smooth over this point )
G01 F1.18110
G01 X0.26181 Y-1.29390
G01 X0.26181 Y-1.25453
G01 X0.26247 Y-1.25234
G01 X0.26424 Y-1.25089
G01 X0.38386 Y-1.25059
G01 X0.38605 Y-1.25125
G01 X0.38749 Y-1.25302
G01 X0.38780 Y-1.29390
G01 X0.38713 Y-1.29608
G01 X0.38536 Y-1.29753
G01 X0.26575 Y-1.29783
G01 X0.26296 Y-1.29668
G01 X0.26181 Y-1.29390
G04 P0 ( dwell for no time -- G64 should not smooth over this point )
G00 Z0.07874 ( retract )

G00 X0.08464 Y-1.25374 ( rapid move to begin. )
G01 F0.59055
G01 Z-0.01024
G04 P0 ( dwell for no time -- G64 should not smooth over this point )
G01 F1.18110
G01 X0.08464 Y-1.25374
G01 X0.08580 Y-1.25652
G01 X0.08858 Y-1.25768
G01 X0.20820 Y-1.25738
G01 X0.20997 Y-1.25593
G01 X0.21063 Y-1.25374
G01 X0.21033 Y-1.19318
G01 X0.20888 Y-1.19141
G01 X0.20669 Y-1.19075
G01 X0.08708 Y-1.19105
G01 X0.08531 Y-1.19250
G01 X0.08464 Y-1.19468
G01 X0.08464 Y-1.25374
G04 P0 ( dwell for no time -- G64 should not smooth over this point )
G00 Z0.07874 ( retract )

G00 X0.08464 Y-1.35374 ( rapid move to begin. )
G01 F0.59055
G01 Z-0.01024
G04 P0 ( dwell for no time -- G64 should not smooth over this point )
G01 F1.18110
G01 X0.08464 Y-1.35374
G01 X0.08580 Y-1.35652
G01 X0.08858 Y-1.35768
G01 X0.20746 Y-1.35760
G01 X0.20948 Y-1.35652
G01 X0.21055 Y-1.35451
G01 X0.21063 Y-1.33799
G01 X0.45050 Y-1.33763
G01 X0.45476 Y-1.33587
G01 X0.45718 Y-1.33396
G01 X0.58523 Y-1.20591
G01 X0.63463 Y-1.20591
G01 X0.63929 Y-1.21443
G01 X0.64426 Y-1.21992
G01 X0.65059 Y-1.22452
G01 X0.65773 Y-1.22770
G01 X0.66497 Y-1.22926
G01 X0.67361 Y-1.22926
G01 X0.68085 Y-1.22770
G01 X0.68799 Y-1.22452
G01 X0.69432 Y-1.21992
G01 X0.69977 Y-1.21376
G01 X0.70346 Y-1.20734
G01 X0.70588 Y-1.19990
G01 X0.70667 Y-1.19171
G01 X0.70577 Y-1.18395
G01 X0.70346 Y-1.17691
G01 X0.69977 Y-1.17049
G01 X0.69432 Y-1.16433
G01 X0.68799 Y-1.15973
G01 X0.68123 Y-1.15670
G01 X0.67279 Y-1.15491
G01 X0.66497 Y-1.15499
G01 X0.65813 Y-1.15645
G01 X0.65059 Y-1.15973
G01 X0.64426 Y-1.16433
G01 X0.63929 Y-1.16982
G01 X0.63463 Y-1.17835
G01 X0.57953 Y-1.17835
G01 X0.57390 Y-1.17956
G01 X0.56978 Y-1.18238
G01 X0.44173 Y-1.31043
G01 X0.21063 Y-1.31043
G01 X0.21055 Y-1.29392
G01 X0.20948 Y-1.29190
G01 X0.20746 Y-1.29082
G01 X0.08781 Y-1.29082
G01 X0.08580 Y-1.29190
G01 X0.08464 Y-1.29469
G01 X0.08464 Y-1.35374
G04 P0 ( dwell for no time -- G64 should not smooth over this point )
G00 Z0.07874 ( retract )

G00 X0.08464 Y-1.45374 ( rapid move to begin. )
G01 F0.59055
G01 Z-0.01024
G04 P0 ( dwell for no time -- G64 should not smooth over this point )
G01 F1.18110
G01 X0.08464 Y-1.45374
G01 X0.08464 Y-1.39468
G01 X0.08580 Y-1.39190
G01 X0.08781 Y-1.39082
G01 X0.20746 Y-1.39082
G01 X0.20948 Y-1.39190
G01 X0.21055 Y-1.39392
G01 X0.21063 Y-1.41043
G01 X0.53858 Y-1.41043
G01 X0.56663 Y-1.38238
G01 X0.57076 Y-1.37956
G01 X0.57638 Y-1.37835
G01 X0.63463 Y-1.37835
G01 X0.63881 Y-1.37049
G01 X0.64458 Y-1.36407
G01 X0.65024 Y-1.35996
G01 X0.65735 Y-1.35670
G01 X0.66579 Y-1.35491
G01 X0.67361 Y-1.35499
G01 X0.68085 Y-1.35655
G01 X0.68762 Y-1.35955
G01 X0.69400 Y-1.36407
G01 X0.69977 Y-1.37049
G01 X0.70346 Y-1.37691
G01 X0.70594 Y-1.38476
G01 X0.70667 Y-1.39254
G01 X0.70588 Y-1.39990
G01 X0.70346 Y-1.40734
G01 X0.69977 Y-1.41376
G01 X0.69432 Y-1.41992
G01 X0.68834 Y-1.42429
G01 X0.68085 Y-1.42770
G01 X0.67361 Y-1.42926
G01 X0.66497 Y-1.42926
G01 X0.65773 Y-1.42770
G01 X0.65024 Y-1.42429
G01 X0.64426 Y-1.41992
G01 X0.63929 Y-1.41443
G01 X0.63463 Y-1.40590
G01 X0.58208 Y-1.40590
G01 X0.55375 Y-1.43422
G01 X0.54991 Y-1.43678
G01 X0.54468 Y-1.43797
G01 X0.21063 Y-1.43799
G01 X0.21055 Y-1.45451
G01 X0.20948 Y-1.45652
G01 X0.20746 Y-1.45760
G01 X0.08858 Y-1.45768
G01 X0.08580 Y-1.45652
G01 X0.08464 Y-1.45374
G04 P0 ( dwell for no time -- G64 should not smooth over this point )
G00 Z0.07874 ( retract )

G00 X0.08464 Y-1.55374 ( rapid move to begin. )
G01 F0.59055
G01 Z-0.01024
G04 P0 ( dwell for no time -- G64 should not smooth over this point )
G01 F1.18110
G01 X0.08464 Y-1.55374
G01 X0.08464 Y-1.49469
G01 X0.08531 Y-1.49250
G01 X0.08708 Y-1.49105
G01 X0.20669 Y-1.49075
G01 X0.20948 Y-1.49190
G01 X0.21063 Y-1.49469
G01 X0.21033 Y-1.55525
G01 X0.20888 Y-1.55701
G01 X0.20669 Y-1.55768
G01 X0.16142 Y-1.55768
G01 X0.16142 Y-1.56772
G01 X0.17205 Y-1.57835
G01 X0.63463 Y-1.57835
G01 X0.63881 Y-1.57049
G01 X0.64458 Y-1.56407
G01 X0.65024 Y-1.55996
G01 X0.65735 Y-1.55670
G01 X0.66579 Y-1.55491
G01 X0.67279 Y-1.55491
G01 X0.68045 Y-1.55645
G01 X0.68834 Y-1.55996
G01 X0.69432 Y-1.56433
G01 X0.69929 Y-1.56982
G01 X0.70395 Y-1.57835
G01 X1.02934 Y-1.57835
G01 X1.03273 Y-1.57250
G01 X1.03767 Y-1.56698
G01 X1.04429 Y-1.56210
G01 X1.05105 Y-1.55906
G01 X1.05868 Y-1.55736
G01 X1.06690 Y-1.55729
G01 X1.07493 Y-1.55906
G01 X1.08169 Y-1.56210
G01 X1.08770 Y-1.56643
G01 X1.09347 Y-1.57285
G01 X1.09765 Y-1.58071
G01 X1.24016 Y-1.58071
G01 X1.24578 Y-1.58192
G01 X1.24990 Y-1.58474
G01 X1.38366 Y-1.71850
G01 X1.56909 Y-1.71850
G01 X1.60039 Y-1.68721
G01 X1.60039 Y-1.37736
G01 X1.51077 Y-1.28774
G01 X1.50722 Y-1.28922
G01 X1.49997 Y-1.29074
G01 X1.49175 Y-1.29068
G01 X1.48412 Y-1.28897
G01 X1.47773 Y-1.28612
G01 X1.47074 Y-1.28105
G01 X1.46580 Y-1.27553
G01 X1.46175 Y-1.26837
G01 X1.45948 Y-1.26132
G01 X1.45868 Y-1.25395
G01 X1.45948 Y-1.24577
G01 X1.46175 Y-1.23872
G01 X1.46606 Y-1.23124
G01 X1.47136 Y-1.22549
G01 X1.47736 Y-1.22115
G01 X1.48412 Y-1.21812
G01 X1.49215 Y-1.21635
G01 X1.49997 Y-1.21635
G01 X1.50722 Y-1.21786
G01 X1.51476 Y-1.22115
G01 X1.52077 Y-1.22549
G01 X1.52655 Y-1.23190
G01 X1.53038 Y-1.23872
G01 X1.53265 Y-1.24577
G01 X1.53344 Y-1.25395
G01 X1.53265 Y-1.26132
G01 X1.53038 Y-1.26837
G01 X1.62392 Y-1.36191
G01 X1.62674 Y-1.36603
G01 X1.62774 Y-1.36935
G01 X1.62774 Y-1.69522
G01 X1.62674 Y-1.69853
G01 X1.62392 Y-1.70266
G01 X1.58455 Y-1.74203
G01 X1.58042 Y-1.74485
G01 X1.57711 Y-1.74585
G01 X1.37795 Y-1.74606
G01 X1.37304 Y-1.74514
G01 X1.36821 Y-1.74203
G01 X1.23445 Y-1.60827
G01 X1.09765 Y-1.60827
G01 X1.09299 Y-1.61679
G01 X1.08770 Y-1.62254
G01 X1.08169 Y-1.62688
G01 X1.07415 Y-1.63017
G01 X1.06690 Y-1.63168
G01 X1.05949 Y-1.63171
G01 X1.05105 Y-1.62991
G01 X1.04429 Y-1.62688
G01 X1.03828 Y-1.62254
G01 X1.03251 Y-1.61613
G01 X1.02901 Y-1.61007
G01 X1.02757 Y-1.60590
G01 X0.70395 Y-1.60590
G01 X0.69977 Y-1.61376
G01 X0.69400 Y-1.62018
G01 X0.68834 Y-1.62429
G01 X0.68123 Y-1.62755
G01 X0.67279 Y-1.62934
G01 X0.66497 Y-1.62926
G01 X0.65813 Y-1.62780
G01 X0.65024 Y-1.62429
G01 X0.64426 Y-1.61992
G01 X0.63929 Y-1.61443
G01 X0.63463 Y-1.60590
G01 X0.16634 Y-1.60590
G01 X0.16143 Y-1.60499
G01 X0.15837 Y-1.60335
G01 X0.13641 Y-1.58139
G01 X0.13407 Y-1.57573
G01 X0.13386 Y-1.55768
G01 X0.08858 Y-1.55768
G01 X0.08580 Y-1.55652
G01 X0.08464 Y-1.55374

G04 P0 ( dwell for no time -- G64 should not smooth over this point )
G00 Z0.394 ( retract )

M5 ( Spindle off. )
G04 P1.000000
M9 ( Coolant off. )
M2 ( Program end. )

