( pcb2gcode 2.0.0 )
( Software-independent Gcode )
( This file uses a mill head of 0.07874inch to drill the 1 hole sizes. )
( Hole sizes: [0.0394 inch] )

G94       (Inches per minute feed rate.)
G20       (Units == INCHES.)
G91.1     (Incremental arc distance mode.)
G90       (Absolute coordinates.)
S1000    (RPM spindle speed.)
G01 F1.96850 (Feedrate)
M3        (Spindle on clockwise.)
G04 P1.00000
G00 Z0.07874

G0 X0.66930 Y-0.22760
G1 Z-0.11811 F0.98425
G0 Z0.07874

G0 X0.66930 Y-0.32760
G1 Z-0.11811 F0.98425
G0 Z0.07874

G0 X0.66930 Y-0.42760
G1 Z-0.11811 F0.98425
G0 Z0.07874

G0 X0.66930 Y-0.52760
G1 Z-0.11811 F0.98425
G0 Z0.07874

G0 X0.66930 Y-0.62760
G1 Z-0.11811 F0.98425
G0 Z0.07874

G0 X0.66930 Y-0.72760
G1 Z-0.11811 F0.98425
G0 Z0.07874

G0 X0.66930 Y-1.09210
G1 Z-0.11811 F0.98425
G0 Z0.07874

G0 X0.66930 Y-1.19210
G1 Z-0.11811 F0.98425
G0 Z0.07874

G0 X0.66930 Y-1.29210
G1 Z-0.11811 F0.98425
G0 Z0.07874

G0 X0.66930 Y-1.39210
G1 Z-0.11811 F0.98425
G0 Z0.07874

G0 X0.66930 Y-1.49210
G1 Z-0.11811 F0.98425
G0 Z0.07874

G0 X0.66930 Y-1.59210
G1 Z-0.11811 F0.98425
G0 Z0.07874

G0 X1.06300 Y-1.59450
G1 Z-0.11811 F0.98425
G0 Z0.07874

G0 X1.06300 Y-1.49450
G1 Z-0.11811 F0.98425
G0 Z0.07874

G0 X1.06300 Y-1.39450
G1 Z-0.11811 F0.98425
G0 Z0.07874

G0 X1.06300 Y-1.29450
G1 Z-0.11811 F0.98425
G0 Z0.07874

G0 X1.06300 Y-1.19450
G1 Z-0.11811 F0.98425
G0 Z0.07874

G0 X1.06300 Y-1.09450
G1 Z-0.11811 F0.98425
G0 Z0.07874

G0 X1.06300 Y-0.72760
G1 Z-0.11811 F0.98425
G0 Z0.07874

G0 X1.06300 Y-0.62760
G1 Z-0.11811 F0.98425
G0 Z0.07874

G0 X1.06300 Y-0.52760
G1 Z-0.11811 F0.98425
G0 Z0.07874

G0 X1.06300 Y-0.42760
G1 Z-0.11811 F0.98425
G0 Z0.07874

G0 X1.06300 Y-0.32760
G1 Z-0.11811 F0.98425
G0 Z0.07874

G0 X1.06300 Y-0.22760
G1 Z-0.11811 F0.98425
G0 Z0.07874

G0 X1.49610 Y-0.18740
G1 Z-0.11811 F0.98425
G0 Z0.07874

G0 X1.49610 Y-0.28740
G1 Z-0.11811 F0.98425
G0 Z0.07874

G0 X1.49610 Y-0.38740
G1 Z-0.11811 F0.98425
G0 Z0.07874

G0 X1.49610 Y-0.48740
G1 Z-0.11811 F0.98425
G0 Z0.07874

G0 X1.49610 Y-0.58740
G1 Z-0.11811 F0.98425
G0 Z0.07874

G0 X1.49610 Y-0.68740
G1 Z-0.11811 F0.98425
G0 Z0.07874

G0 X1.49610 Y-0.78740
G1 Z-0.11811 F0.98425
G0 Z0.07874

G0 X1.49610 Y-1.05350
G1 Z-0.11811 F0.98425
G0 Z0.07874

G0 X1.49610 Y-1.15350
G1 Z-0.11811 F0.98425
G0 Z0.07874

G0 X1.49610 Y-1.25350
G1 Z-0.11811 F0.98425
G0 Z0.07874

G0 X1.49610 Y-1.35350
G1 Z-0.11811 F0.98425
G0 Z0.07874

G0 X1.49610 Y-1.45350
G1 Z-0.11811 F0.98425
G0 Z0.07874

G0 X1.49610 Y-1.55350
G1 Z-0.11811 F0.98425
G0 Z0.07874

G0 X1.49610 Y-1.65350
G1 Z-0.11811 F0.98425
G0 Z0.07874

G00 Z0.394 ( All done -- retract )

M5      (Spindle off.)
G04 P1.000000
M9      (Coolant off.)
M2      (Program end.)

